; Generated from mountian.mem
; Image size: 500 x 500 pixels
; Center on origin: true
G21        ; mm units
G90        ; absolute coords
G0 Z2.000   ; pen up
G0 X-3.500 Y-21.700 Z2.000
G1 Z0.600 F1000.0
G1 X-3.200 Y-21.700
G0 Z2.000
G0 X-3.000 Y-21.700 Z2.000
G1 Z0.600 F1000.0
G1 X-3.000 Y-21.700
G0 Z2.000
G0 X-2.300 Y-21.700 Z2.000
G1 Z0.600 F1000.0
G1 X-2.200 Y-21.700
G0 Z2.000
G0 X-4.900 Y-21.600 Z2.000
G1 Z0.600 F1000.0
G1 X-3.600 Y-21.600
G0 Z2.000
G0 X-3.500 Y-21.600 Z2.000
G1 Z0.300 F1000.0
G1 X-3.500 Y-21.600
G0 Z2.000
G0 X-3.400 Y-21.600 Z2.000
G1 Z0.600 F1000.0
G1 X-3.400 Y-21.600
G0 Z2.000
G0 X-3.300 Y-21.600 Z2.000
G1 Z0.300 F1000.0
G1 X-2.300 Y-21.600
G0 Z2.000
G0 X-2.200 Y-21.600 Z2.000
G1 Z0.600 F1000.0
G1 X-2.200 Y-21.600
G0 Z2.000
G0 X-2.100 Y-21.600 Z2.000
G1 Z0.300 F1000.0
G1 X-2.000 Y-21.600
G0 Z2.000
G0 X-1.900 Y-21.600 Z2.000
G1 Z0.600 F1000.0
G1 X-1.400 Y-21.600
G0 Z2.000
G0 X-1.300 Y-21.600 Z2.000
G1 Z0.300 F1000.0
G1 X-1.300 Y-21.600
G0 Z2.000
G0 X-1.200 Y-21.600 Z2.000
G1 Z0.600 F1000.0
G1 X-1.100 Y-21.600
G0 Z2.000
G0 X-5.300 Y-21.500 Z2.000
G1 Z0.600 F1000.0
G1 X-5.000 Y-21.500
G0 Z2.000
G0 X-4.900 Y-21.500 Z2.000
G1 Z0.300 F1000.0
G1 X-4.100 Y-21.500
G0 Z2.000
G0 X-4.000 Y-21.500 Z2.000
G1 Z0.600 F1000.0
G1 X-4.000 Y-21.500
G0 Z2.000
G0 X-3.900 Y-21.500 Z2.000
G1 Z0.300 F1000.0
G1 X-3.800 Y-21.500
G0 Z2.000
G0 X-3.700 Y-21.500 Z2.000
G1 Z0.600 F1000.0
G1 X-3.600 Y-21.500
G0 Z2.000
G0 X-3.500 Y-21.500 Z2.000
G1 Z0.300 F1000.0
G1 X-2.800 Y-21.500
G0 Z2.000
G0 X-2.700 Y-21.500 Z2.000
G1 Z0.000 F1000.0
G1 X-2.700 Y-21.500
G0 Z2.000
G0 X-2.600 Y-21.500 Z2.000
G1 Z0.300 F1000.0
G1 X-1.100 Y-21.500
G0 Z2.000
G0 X-1.000 Y-21.500 Z2.000
G1 Z0.600 F1000.0
G1 X-0.900 Y-21.500
G0 Z2.000
G0 X-0.800 Y-21.500 Z2.000
G1 Z0.300 F1000.0
G1 X-0.800 Y-21.500
G0 Z2.000
G0 X-0.700 Y-21.500 Z2.000
G1 Z0.600 F1000.0
G1 X-0.400 Y-21.500
G0 Z2.000
G0 X-5.800 Y-21.400 Z2.000
G1 Z0.600 F1000.0
G1 X-5.400 Y-21.400
G0 Z2.000
G0 X-5.300 Y-21.400 Z2.000
G1 Z0.300 F1000.0
G1 X-5.300 Y-21.400
G0 Z2.000
G0 X-5.200 Y-21.400 Z2.000
G1 Z0.000 F1000.0
G1 X-5.100 Y-21.400
G0 Z2.000
G0 X-5.000 Y-21.400 Z2.000
G1 Z0.300 F1000.0
G1 X-4.600 Y-21.400
G0 Z2.000
G0 X-4.500 Y-21.400 Z2.000
G1 Z0.000 F1000.0
G1 X-4.500 Y-21.400
G0 Z2.000
G0 X-4.400 Y-21.400 Z2.000
G1 Z0.300 F1000.0
G1 X-4.300 Y-21.400
G0 Z2.000
G0 X-4.200 Y-21.400 Z2.000
G1 Z0.600 F1000.0
G1 X-2.700 Y-21.400
G0 Z2.000
G0 X-2.600 Y-21.400 Z2.000
G1 Z0.300 F1000.0
G1 X-2.600 Y-21.400
G0 Z2.000
G0 X-2.500 Y-21.400 Z2.000
G1 Z0.600 F1000.0
G1 X-1.500 Y-21.400
G0 Z2.000
G0 X-1.400 Y-21.400 Z2.000
G1 Z0.300 F1000.0
G1 X-1.300 Y-21.400
G0 Z2.000
G0 X-1.200 Y-21.400 Z2.000
G1 Z0.600 F1000.0
G1 X-1.200 Y-21.400
G0 Z2.000
G0 X-1.100 Y-21.400 Z2.000
G1 Z0.300 F1000.0
G1 X-0.100 Y-21.400
G0 Z2.000
G0 X0.000 Y-21.400 Z2.000
G1 Z0.600 F1000.0
G1 X0.000 Y-21.400
G0 Z2.000
G0 X-6.200 Y-21.300 Z2.000
G1 Z0.600 F1000.0
G1 X-6.100 Y-21.300
G0 Z2.000
G0 X-6.000 Y-21.300 Z2.000
G1 Z0.300 F1000.0
G1 X-5.800 Y-21.300
G0 Z2.000
G0 X-5.700 Y-21.300 Z2.000
G1 Z0.000 F1000.0
G1 X-5.700 Y-21.300
G0 Z2.000
G0 X-5.600 Y-21.300 Z2.000
G1 Z0.300 F1000.0
G1 X-5.000 Y-21.300
G0 Z2.000
G0 X-4.900 Y-21.300 Z2.000
G1 Z0.600 F1000.0
G1 X-4.900 Y-21.300
G0 Z2.000
G0 X-4.800 Y-21.300 Z2.000
G1 Z0.300 F1000.0
G1 X-4.700 Y-21.300
G0 Z2.000
G0 X-4.600 Y-21.300 Z2.000
G1 Z0.600 F1000.0
G1 X-4.600 Y-21.300
G0 Z2.000
G0 X-4.500 Y-21.300 Z2.000
G1 Z0.300 F1000.0
G1 X-4.500 Y-21.300
G0 Z2.000
G0 X-4.400 Y-21.300 Z2.000
G1 Z0.600 F1000.0
G1 X-4.000 Y-21.300
G0 Z2.000
G0 X-2.600 Y-21.300 Z2.000
G1 Z0.600 F1000.0
G1 X-2.600 Y-21.300
G0 Z2.000
G0 X-1.900 Y-21.300 Z2.000
G1 Z0.600 F1000.0
G1 X-1.700 Y-21.300
G0 Z2.000
G0 X-1.400 Y-21.300 Z2.000
G1 Z0.600 F1000.0
G1 X-0.600 Y-21.300
G0 Z2.000
G0 X-0.500 Y-21.300 Z2.000
G1 Z0.300 F1000.0
G1 X0.300 Y-21.300
G0 Z2.000
G0 X0.400 Y-21.300 Z2.000
G1 Z0.600 F1000.0
G1 X0.500 Y-21.300
G0 Z2.000
G0 X-6.600 Y-21.200 Z2.000
G1 Z0.600 F1000.0
G1 X-6.400 Y-21.200
G0 Z2.000
G0 X-6.300 Y-21.200 Z2.000
G1 Z0.300 F1000.0
G1 X-5.700 Y-21.200
G0 Z2.000
G0 X-5.600 Y-21.200 Z2.000
G1 Z0.600 F1000.0
G1 X-5.600 Y-21.200
G0 Z2.000
G0 X-5.500 Y-21.200 Z2.000
G1 Z0.300 F1000.0
G1 X-5.200 Y-21.200
G0 Z2.000
G0 X-5.100 Y-21.200 Z2.000
G1 Z0.600 F1000.0
G1 X-4.900 Y-21.200
G0 Z2.000
G0 X-0.800 Y-21.200 Z2.000
G1 Z0.600 F1000.0
G1 X-0.300 Y-21.200
G0 Z2.000
G0 X-0.200 Y-21.200 Z2.000
G1 Z0.300 F1000.0
G1 X0.500 Y-21.200
G0 Z2.000
G0 X0.600 Y-21.200 Z2.000
G1 Z0.600 F1000.0
G1 X0.800 Y-21.200
G0 Z2.000
G0 X-6.900 Y-21.100 Z2.000
G1 Z0.600 F1000.0
G1 X-6.700 Y-21.100
G0 Z2.000
G0 X-6.600 Y-21.100 Z2.000
G1 Z0.300 F1000.0
G1 X-6.200 Y-21.100
G0 Z2.000
G0 X-6.100 Y-21.100 Z2.000
G1 Z0.000 F1000.0
G1 X-6.100 Y-21.100
G0 Z2.000
G0 X-6.000 Y-21.100 Z2.000
G1 Z0.300 F1000.0
G1 X-5.800 Y-21.100
G0 Z2.000
G0 X-5.700 Y-21.100 Z2.000
G1 Z0.600 F1000.0
G1 X-5.700 Y-21.100
G0 Z2.000
G0 X-5.500 Y-21.100 Z2.000
G1 Z0.600 F1000.0
G1 X-5.400 Y-21.100
G0 Z2.000
G0 X-0.200 Y-21.100 Z2.000
G1 Z0.600 F1000.0
G1 X0.100 Y-21.100
G0 Z2.000
G0 X0.200 Y-21.100 Z2.000
G1 Z0.300 F1000.0
G1 X0.800 Y-21.100
G0 Z2.000
G0 X0.900 Y-21.100 Z2.000
G1 Z0.600 F1000.0
G1 X0.900 Y-21.100
G0 Z2.000
G0 X-7.200 Y-21.000 Z2.000
G1 Z0.600 F1000.0
G1 X-7.100 Y-21.000
G0 Z2.000
G0 X-7.000 Y-21.000 Z2.000
G1 Z0.300 F1000.0
G1 X-6.200 Y-21.000
G0 Z2.000
G0 X-6.100 Y-21.000 Z2.000
G1 Z0.600 F1000.0
G1 X-5.900 Y-21.000
G0 Z2.000
G0 X0.300 Y-21.000 Z2.000
G1 Z0.600 F1000.0
G1 X0.600 Y-21.000
G0 Z2.000
G0 X0.700 Y-21.000 Z2.000
G1 Z0.300 F1000.0
G1 X0.800 Y-21.000
G0 Z2.000
G0 X0.900 Y-21.000 Z2.000
G1 Z0.600 F1000.0
G1 X1.400 Y-21.000
G0 Z2.000
G0 X-7.400 Y-20.900 Z2.000
G1 Z0.600 F1000.0
G1 X-7.100 Y-20.900
G0 Z2.000
G0 X-7.000 Y-20.900 Z2.000
G1 Z0.300 F1000.0
G1 X-6.700 Y-20.900
G0 Z2.000
G0 X-6.600 Y-20.900 Z2.000
G1 Z0.600 F1000.0
G1 X-6.600 Y-20.900
G0 Z2.000
G0 X-6.500 Y-20.900 Z2.000
G1 Z0.300 F1000.0
G1 X-6.500 Y-20.900
G0 Z2.000
G0 X-6.400 Y-20.900 Z2.000
G1 Z0.600 F1000.0
G1 X-6.200 Y-20.900
G0 Z2.000
G0 X0.700 Y-20.900 Z2.000
G1 Z0.600 F1000.0
G1 X1.100 Y-20.900
G0 Z2.000
G0 X1.200 Y-20.900 Z2.000
G1 Z0.300 F1000.0
G1 X1.400 Y-20.900
G0 Z2.000
G0 X1.500 Y-20.900 Z2.000
G1 Z0.600 F1000.0
G1 X1.900 Y-20.900
G0 Z2.000
G0 X-7.700 Y-20.800 Z2.000
G1 Z0.600 F1000.0
G1 X-7.500 Y-20.800
G0 Z2.000
G0 X-7.400 Y-20.800 Z2.000
G1 Z0.300 F1000.0
G1 X-7.000 Y-20.800
G0 Z2.000
G0 X-6.900 Y-20.800 Z2.000
G1 Z0.600 F1000.0
G1 X-6.800 Y-20.800
G0 Z2.000
G0 X0.900 Y-20.800 Z2.000
G1 Z0.600 F1000.0
G1 X1.100 Y-20.800
G0 Z2.000
G0 X1.200 Y-20.800 Z2.000
G1 Z0.300 F1000.0
G1 X1.300 Y-20.800
G0 Z2.000
G0 X1.400 Y-20.800 Z2.000
G1 Z0.600 F1000.0
G1 X1.400 Y-20.800
G0 Z2.000
G0 X1.500 Y-20.800 Z2.000
G1 Z0.300 F1000.0
G1 X1.600 Y-20.800
G0 Z2.000
G0 X1.700 Y-20.800 Z2.000
G1 Z0.600 F1000.0
G1 X2.100 Y-20.800
G0 Z2.000
G0 X-7.800 Y-20.700 Z2.000
G1 Z0.600 F1000.0
G1 X-7.800 Y-20.700
G0 Z2.000
G0 X-7.700 Y-20.700 Z2.000
G1 Z0.300 F1000.0
G1 X-7.400 Y-20.700
G0 Z2.000
G0 X-7.300 Y-20.700 Z2.000
G1 Z0.600 F1000.0
G1 X-7.100 Y-20.700
G0 Z2.000
G0 X1.200 Y-20.700 Z2.000
G1 Z0.600 F1000.0
G1 X2.300 Y-20.700
G0 Z2.000
G0 X-8.200 Y-20.600 Z2.000
G1 Z0.600 F1000.0
G1 X-7.900 Y-20.600
G0 Z2.000
G0 X-7.800 Y-20.600 Z2.000
G1 Z0.300 F1000.0
G1 X-7.700 Y-20.600
G0 Z2.000
G0 X-7.600 Y-20.600 Z2.000
G1 Z0.600 F1000.0
G1 X-7.600 Y-20.600
G0 Z2.000
G0 X-7.500 Y-20.600 Z2.000
G1 Z0.300 F1000.0
G1 X-7.500 Y-20.600
G0 Z2.000
G0 X-7.400 Y-20.600 Z2.000
G1 Z0.600 F1000.0
G1 X-7.400 Y-20.600
G0 Z2.000
G0 X1.500 Y-20.600 Z2.000
G1 Z0.600 F1000.0
G1 X2.200 Y-20.600
G0 Z2.000
G0 X2.300 Y-20.600 Z2.000
G1 Z0.300 F1000.0
G1 X2.300 Y-20.600
G0 Z2.000
G0 X2.400 Y-20.600 Z2.000
G1 Z0.600 F1000.0
G1 X2.500 Y-20.600
G0 Z2.000
G0 X-8.400 Y-20.500 Z2.000
G1 Z0.600 F1000.0
G1 X-8.200 Y-20.500
G0 Z2.000
G0 X-8.100 Y-20.500 Z2.000
G1 Z0.300 F1000.0
G1 X-8.100 Y-20.500
G0 Z2.000
G0 X-8.000 Y-20.500 Z2.000
G1 Z0.600 F1000.0
G1 X-7.500 Y-20.500
G0 Z2.000
G0 X1.700 Y-20.500 Z2.000
G1 Z0.600 F1000.0
G1 X1.800 Y-20.500
G0 Z2.000
G0 X2.000 Y-20.500 Z2.000
G1 Z0.600 F1000.0
G1 X2.300 Y-20.500
G0 Z2.000
G0 X2.400 Y-20.500 Z2.000
G1 Z0.300 F1000.0
G1 X2.400 Y-20.500
G0 Z2.000
G0 X2.500 Y-20.500 Z2.000
G1 Z0.600 F1000.0
G1 X2.800 Y-20.500
G0 Z2.000
G0 X-8.600 Y-20.400 Z2.000
G1 Z0.600 F1000.0
G1 X-8.300 Y-20.400
G0 Z2.000
G0 X-8.200 Y-20.400 Z2.000
G1 Z0.300 F1000.0
G1 X-8.100 Y-20.400
G0 Z2.000
G0 X-8.000 Y-20.400 Z2.000
G1 Z0.600 F1000.0
G1 X-7.900 Y-20.400
G0 Z2.000
G0 X2.100 Y-20.400 Z2.000
G1 Z0.600 F1000.0
G1 X2.100 Y-20.400
G0 Z2.000
G0 X2.300 Y-20.400 Z2.000
G1 Z0.600 F1000.0
G1 X2.500 Y-20.400
G0 Z2.000
G0 X2.600 Y-20.400 Z2.000
G1 Z0.300 F1000.0
G1 X2.700 Y-20.400
G0 Z2.000
G0 X2.800 Y-20.400 Z2.000
G1 Z0.600 F1000.0
G1 X3.000 Y-20.400
G0 Z2.000
G0 X-8.900 Y-20.300 Z2.000
G1 Z0.600 F1000.0
G1 X-8.700 Y-20.300
G0 Z2.000
G0 X-8.600 Y-20.300 Z2.000
G1 Z0.300 F1000.0
G1 X-8.400 Y-20.300
G0 Z2.000
G0 X-8.300 Y-20.300 Z2.000
G1 Z0.600 F1000.0
G1 X-8.100 Y-20.300
G0 Z2.000
G0 X2.400 Y-20.300 Z2.000
G1 Z0.600 F1000.0
G1 X2.600 Y-20.300
G0 Z2.000
G0 X2.700 Y-20.300 Z2.000
G1 Z0.300 F1000.0
G1 X3.000 Y-20.300
G0 Z2.000
G0 X3.100 Y-20.300 Z2.000
G1 Z0.600 F1000.0
G1 X3.200 Y-20.300
G0 Z2.000
G0 X-9.100 Y-20.200 Z2.000
G1 Z0.600 F1000.0
G1 X-9.100 Y-20.200
G0 Z2.000
G0 X-9.000 Y-20.200 Z2.000
G1 Z0.300 F1000.0
G1 X-8.500 Y-20.200
G0 Z2.000
G0 X-8.400 Y-20.200 Z2.000
G1 Z0.600 F1000.0
G1 X-8.400 Y-20.200
G0 Z2.000
G0 X2.500 Y-20.200 Z2.000
G1 Z0.600 F1000.0
G1 X2.700 Y-20.200
G0 Z2.000
G0 X2.800 Y-20.200 Z2.000
G1 Z0.300 F1000.0
G1 X3.200 Y-20.200
G0 Z2.000
G0 X3.300 Y-20.200 Z2.000
G1 Z0.600 F1000.0
G1 X3.400 Y-20.200
G0 Z2.000
G0 X-9.300 Y-20.100 Z2.000
G1 Z0.600 F1000.0
G1 X-9.200 Y-20.100
G0 Z2.000
G0 X-9.100 Y-20.100 Z2.000
G1 Z0.300 F1000.0
G1 X-8.600 Y-20.100
G0 Z2.000
G0 X-8.500 Y-20.100 Z2.000
G1 Z0.600 F1000.0
G1 X-8.500 Y-20.100
G0 Z2.000
G0 X2.600 Y-20.100 Z2.000
G1 Z0.600 F1000.0
G1 X3.500 Y-20.100
G0 Z2.000
G0 X-9.400 Y-20.000 Z2.000
G1 Z0.600 F1000.0
G1 X-9.400 Y-20.000
G0 Z2.000
G0 X-9.300 Y-20.000 Z2.000
G1 Z0.300 F1000.0
G1 X-9.100 Y-20.000
G0 Z2.000
G0 X-9.000 Y-20.000 Z2.000
G1 Z0.000 F1000.0
G1 X-9.000 Y-20.000
G0 Z2.000
G0 X-8.900 Y-20.000 Z2.000
G1 Z0.300 F1000.0
G1 X-8.900 Y-20.000
G0 Z2.000
G0 X-8.800 Y-20.000 Z2.000
G1 Z0.600 F1000.0
G1 X-8.700 Y-20.000
G0 Z2.000
G0 X2.800 Y-20.000 Z2.000
G1 Z0.600 F1000.0
G1 X3.800 Y-20.000
G0 Z2.000
G0 X-9.600 Y-19.900 Z2.000
G1 Z0.600 F1000.0
G1 X-9.500 Y-19.900
G0 Z2.000
G0 X-9.400 Y-19.900 Z2.000
G1 Z0.300 F1000.0
G1 X-9.100 Y-19.900
G0 Z2.000
G0 X-9.000 Y-19.900 Z2.000
G1 Z0.600 F1000.0
G1 X-9.000 Y-19.900
G0 Z2.000
G0 X3.100 Y-19.900 Z2.000
G1 Z0.600 F1000.0
G1 X3.600 Y-19.900
G0 Z2.000
G0 X3.700 Y-19.900 Z2.000
G1 Z0.300 F1000.0
G1 X3.700 Y-19.900
G0 Z2.000
G0 X3.800 Y-19.900 Z2.000
G1 Z0.600 F1000.0
G1 X4.000 Y-19.900
G0 Z2.000
G0 X-9.700 Y-19.800 Z2.000
G1 Z0.600 F1000.0
G1 X-9.700 Y-19.800
G0 Z2.000
G0 X-9.600 Y-19.800 Z2.000
G1 Z0.300 F1000.0
G1 X-9.400 Y-19.800
G0 Z2.000
G0 X-9.300 Y-19.800 Z2.000
G1 Z0.600 F1000.0
G1 X-9.100 Y-19.800
G0 Z2.000
G0 X3.400 Y-19.800 Z2.000
G1 Z0.600 F1000.0
G1 X3.700 Y-19.800
G0 Z2.000
G0 X3.800 Y-19.800 Z2.000
G1 Z0.300 F1000.0
G1 X4.000 Y-19.800
G0 Z2.000
G0 X4.100 Y-19.800 Z2.000
G1 Z0.600 F1000.0
G1 X4.100 Y-19.800
G0 Z2.000
G0 X-9.900 Y-19.700 Z2.000
G1 Z0.600 F1000.0
G1 X-9.800 Y-19.700
G0 Z2.000
G0 X-9.700 Y-19.700 Z2.000
G1 Z0.300 F1000.0
G1 X-9.500 Y-19.700
G0 Z2.000
G0 X-9.400 Y-19.700 Z2.000
G1 Z0.600 F1000.0
G1 X-9.400 Y-19.700
G0 Z2.000
G0 X3.600 Y-19.700 Z2.000
G1 Z0.600 F1000.0
G1 X3.700 Y-19.700
G0 Z2.000
G0 X3.800 Y-19.700 Z2.000
G1 Z0.300 F1000.0
G1 X4.200 Y-19.700
G0 Z2.000
G0 X4.300 Y-19.700 Z2.000
G1 Z0.600 F1000.0
G1 X4.400 Y-19.700
G0 Z2.000
G0 X-10.000 Y-19.600 Z2.000
G1 Z0.600 F1000.0
G1 X-10.000 Y-19.600
G0 Z2.000
G0 X-9.900 Y-19.600 Z2.000
G1 Z0.300 F1000.0
G1 X-9.600 Y-19.600
G0 Z2.000
G0 X3.700 Y-19.600 Z2.000
G1 Z0.600 F1000.0
G1 X3.900 Y-19.600
G0 Z2.000
G0 X4.000 Y-19.600 Z2.000
G1 Z0.300 F1000.0
G1 X4.300 Y-19.600
G0 Z2.000
G0 X4.400 Y-19.600 Z2.000
G1 Z0.600 F1000.0
G1 X4.500 Y-19.600
G0 Z2.000
G0 X-10.100 Y-19.500 Z2.000
G1 Z0.600 F1000.0
G1 X-10.100 Y-19.500
G0 Z2.000
G0 X-10.000 Y-19.500 Z2.000
G1 Z0.300 F1000.0
G1 X-9.700 Y-19.500
G0 Z2.000
G0 X-9.600 Y-19.500 Z2.000
G1 Z0.600 F1000.0
G1 X-9.600 Y-19.500
G0 Z2.000
G0 X3.900 Y-19.500 Z2.000
G1 Z0.600 F1000.0
G1 X4.100 Y-19.500
G0 Z2.000
G0 X4.200 Y-19.500 Z2.000
G1 Z0.300 F1000.0
G1 X4.500 Y-19.500
G0 Z2.000
G0 X4.600 Y-19.500 Z2.000
G1 Z0.600 F1000.0
G1 X4.600 Y-19.500
G0 Z2.000
G0 X-10.300 Y-19.400 Z2.000
G1 Z0.600 F1000.0
G1 X-10.200 Y-19.400
G0 Z2.000
G0 X-10.100 Y-19.400 Z2.000
G1 Z0.300 F1000.0
G1 X-9.900 Y-19.400
G0 Z2.000
G0 X-9.800 Y-19.400 Z2.000
G1 Z0.600 F1000.0
G1 X-9.800 Y-19.400
G0 Z2.000
G0 X4.100 Y-19.400 Z2.000
G1 Z0.600 F1000.0
G1 X4.200 Y-19.400
G0 Z2.000
G0 X4.300 Y-19.400 Z2.000
G1 Z0.300 F1000.0
G1 X4.600 Y-19.400
G0 Z2.000
G0 X4.700 Y-19.400 Z2.000
G1 Z0.600 F1000.0
G1 X4.800 Y-19.400
G0 Z2.000
G0 X-10.400 Y-19.300 Z2.000
G1 Z0.600 F1000.0
G1 X-10.400 Y-19.300
G0 Z2.000
G0 X-10.300 Y-19.300 Z2.000
G1 Z0.300 F1000.0
G1 X-10.000 Y-19.300
G0 Z2.000
G0 X-9.900 Y-19.300 Z2.000
G1 Z0.600 F1000.0
G1 X-9.900 Y-19.300
G0 Z2.000
G0 X4.200 Y-19.300 Z2.000
G1 Z0.600 F1000.0
G1 X4.400 Y-19.300
G0 Z2.000
G0 X4.500 Y-19.300 Z2.000
G1 Z0.300 F1000.0
G1 X4.800 Y-19.300
G0 Z2.000
G0 X4.900 Y-19.300 Z2.000
G1 Z0.600 F1000.0
G1 X4.900 Y-19.300
G0 Z2.000
G0 X-10.500 Y-19.200 Z2.000
G1 Z0.600 F1000.0
G1 X-10.500 Y-19.200
G0 Z2.000
G0 X-10.400 Y-19.200 Z2.000
G1 Z0.300 F1000.0
G1 X-10.200 Y-19.200
G0 Z2.000
G0 X-10.100 Y-19.200 Z2.000
G1 Z0.600 F1000.0
G1 X-10.100 Y-19.200
G0 Z2.000
G0 X4.500 Y-19.200 Z2.000
G1 Z0.600 F1000.0
G1 X4.500 Y-19.200
G0 Z2.000
G0 X4.600 Y-19.200 Z2.000
G1 Z0.300 F1000.0
G1 X4.900 Y-19.200
G0 Z2.000
G0 X5.000 Y-19.200 Z2.000
G1 Z0.600 F1000.0
G1 X5.000 Y-19.200
G0 Z2.000
G0 X-10.700 Y-19.100 Z2.000
G1 Z0.600 F1000.0
G1 X-10.700 Y-19.100
G0 Z2.000
G0 X-10.600 Y-19.100 Z2.000
G1 Z0.300 F1000.0
G1 X-10.300 Y-19.100
G0 Z2.000
G0 X-10.200 Y-19.100 Z2.000
G1 Z0.600 F1000.0
G1 X-10.200 Y-19.100
G0 Z2.000
G0 X4.500 Y-19.100 Z2.000
G1 Z0.600 F1000.0
G1 X4.600 Y-19.100
G0 Z2.000
G0 X4.700 Y-19.100 Z2.000
G1 Z0.300 F1000.0
G1 X5.000 Y-19.100
G0 Z2.000
G0 X5.100 Y-19.100 Z2.000
G1 Z0.600 F1000.0
G1 X5.100 Y-19.100
G0 Z2.000
G0 X-10.800 Y-19.000 Z2.000
G1 Z0.600 F1000.0
G1 X-10.800 Y-19.000
G0 Z2.000
G0 X-10.700 Y-19.000 Z2.000
G1 Z0.300 F1000.0
G1 X-10.400 Y-19.000
G0 Z2.000
G0 X-10.300 Y-19.000 Z2.000
G1 Z0.600 F1000.0
G1 X-10.300 Y-19.000
G0 Z2.000
G0 X4.700 Y-19.000 Z2.000
G1 Z0.600 F1000.0
G1 X4.700 Y-19.000
G0 Z2.000
G0 X4.800 Y-19.000 Z2.000
G1 Z0.300 F1000.0
G1 X5.100 Y-19.000
G0 Z2.000
G0 X5.200 Y-19.000 Z2.000
G1 Z0.600 F1000.0
G1 X5.200 Y-19.000
G0 Z2.000
G0 X-10.900 Y-18.900 Z2.000
G1 Z0.600 F1000.0
G1 X-10.900 Y-18.900
G0 Z2.000
G0 X-10.800 Y-18.900 Z2.000
G1 Z0.300 F1000.0
G1 X-10.600 Y-18.900
G0 Z2.000
G0 X-10.500 Y-18.900 Z2.000
G1 Z0.600 F1000.0
G1 X-10.500 Y-18.900
G0 Z2.000
G0 X4.800 Y-18.900 Z2.000
G1 Z0.600 F1000.0
G1 X4.800 Y-18.900
G0 Z2.000
G0 X4.900 Y-18.900 Z2.000
G1 Z0.300 F1000.0
G1 X5.300 Y-18.900
G0 Z2.000
G0 X-11.100 Y-18.800 Z2.000
G1 Z0.600 F1000.0
G1 X-11.000 Y-18.800
G0 Z2.000
G0 X-10.900 Y-18.800 Z2.000
G1 Z0.300 F1000.0
G1 X-10.700 Y-18.800
G0 Z2.000
G0 X-10.600 Y-18.800 Z2.000
G1 Z0.600 F1000.0
G1 X-10.600 Y-18.800
G0 Z2.000
G0 X4.900 Y-18.800 Z2.000
G1 Z0.600 F1000.0
G1 X4.900 Y-18.800
G0 Z2.000
G0 X5.000 Y-18.800 Z2.000
G1 Z0.300 F1000.0
G1 X5.200 Y-18.800
G0 Z2.000
G0 X5.300 Y-18.800 Z2.000
G1 Z0.000 F1000.0
G1 X5.300 Y-18.800
G0 Z2.000
G0 X5.400 Y-18.800 Z2.000
G1 Z0.600 F1000.0
G1 X5.500 Y-18.800
G0 Z2.000
G0 X-11.200 Y-18.700 Z2.000
G1 Z0.600 F1000.0
G1 X-11.200 Y-18.700
G0 Z2.000
G0 X-11.100 Y-18.700 Z2.000
G1 Z0.300 F1000.0
G1 X-10.900 Y-18.700
G0 Z2.000
G0 X-10.800 Y-18.700 Z2.000
G1 Z0.600 F1000.0
G1 X-10.600 Y-18.700
G0 Z2.000
G0 X5.000 Y-18.700 Z2.000
G1 Z0.600 F1000.0
G1 X5.100 Y-18.700
G0 Z2.000
G0 X5.200 Y-18.700 Z2.000
G1 Z0.300 F1000.0
G1 X5.500 Y-18.700
G0 Z2.000
G0 X5.600 Y-18.700 Z2.000
G1 Z0.600 F1000.0
G1 X5.600 Y-18.700
G0 Z2.000
G0 X-11.300 Y-18.600 Z2.000
G1 Z0.600 F1000.0
G1 X-11.300 Y-18.600
G0 Z2.000
G0 X-11.200 Y-18.600 Z2.000
G1 Z0.300 F1000.0
G1 X-11.000 Y-18.600
G0 Z2.000
G0 X-10.900 Y-18.600 Z2.000
G1 Z0.600 F1000.0
G1 X-10.900 Y-18.600
G0 Z2.000
G0 X5.000 Y-18.600 Z2.000
G1 Z0.600 F1000.0
G1 X5.100 Y-18.600
G0 Z2.000
G0 X5.200 Y-18.600 Z2.000
G1 Z0.300 F1000.0
G1 X5.400 Y-18.600
G0 Z2.000
G0 X5.500 Y-18.600 Z2.000
G1 Z0.000 F1000.0
G1 X5.500 Y-18.600
G0 Z2.000
G0 X5.600 Y-18.600 Z2.000
G1 Z0.300 F1000.0
G1 X5.600 Y-18.600
G0 Z2.000
G0 X5.700 Y-18.600 Z2.000
G1 Z0.600 F1000.0
G1 X5.700 Y-18.600
G0 Z2.000
G0 X-11.500 Y-18.500 Z2.000
G1 Z0.600 F1000.0
G1 X-11.400 Y-18.500
G0 Z2.000
G0 X-11.300 Y-18.500 Z2.000
G1 Z0.300 F1000.0
G1 X-11.100 Y-18.500
G0 Z2.000
G0 X-11.000 Y-18.500 Z2.000
G1 Z0.600 F1000.0
G1 X-11.000 Y-18.500
G0 Z2.000
G0 X5.200 Y-18.500 Z2.000
G1 Z0.600 F1000.0
G1 X5.300 Y-18.500
G0 Z2.000
G0 X5.400 Y-18.500 Z2.000
G1 Z0.300 F1000.0
G1 X5.500 Y-18.500
G0 Z2.000
G0 X5.600 Y-18.500 Z2.000
G1 Z0.000 F1000.0
G1 X5.600 Y-18.500
G0 Z2.000
G0 X5.700 Y-18.500 Z2.000
G1 Z0.300 F1000.0
G1 X5.700 Y-18.500
G0 Z2.000
G0 X5.800 Y-18.500 Z2.000
G1 Z0.600 F1000.0
G1 X5.800 Y-18.500
G0 Z2.000
G0 X-11.600 Y-18.400 Z2.000
G1 Z0.600 F1000.0
G1 X-11.600 Y-18.400
G0 Z2.000
G0 X-11.500 Y-18.400 Z2.000
G1 Z0.300 F1000.0
G1 X-11.200 Y-18.400
G0 Z2.000
G0 X-11.100 Y-18.400 Z2.000
G1 Z0.600 F1000.0
G1 X-11.100 Y-18.400
G0 Z2.000
G0 X5.300 Y-18.400 Z2.000
G1 Z0.600 F1000.0
G1 X5.400 Y-18.400
G0 Z2.000
G0 X5.500 Y-18.400 Z2.000
G1 Z0.300 F1000.0
G1 X5.500 Y-18.400
G0 Z2.000
G0 X5.600 Y-18.400 Z2.000
G1 Z0.000 F1000.0
G1 X5.800 Y-18.400
G0 Z2.000
G0 X5.900 Y-18.400 Z2.000
G1 Z0.300 F1000.0
G1 X5.900 Y-18.400
G0 Z2.000
G0 X6.000 Y-18.400 Z2.000
G1 Z0.600 F1000.0
G1 X6.000 Y-18.400
G0 Z2.000
G0 X-11.700 Y-18.300 Z2.000
G1 Z0.600 F1000.0
G1 X-11.700 Y-18.300
G0 Z2.000
G0 X-11.600 Y-18.300 Z2.000
G1 Z0.300 F1000.0
G1 X-11.400 Y-18.300
G0 Z2.000
G0 X-11.300 Y-18.300 Z2.000
G1 Z0.600 F1000.0
G1 X-11.200 Y-18.300
G0 Z2.000
G0 X5.400 Y-18.300 Z2.000
G1 Z0.600 F1000.0
G1 X5.500 Y-18.300
G0 Z2.000
G0 X5.600 Y-18.300 Z2.000
G1 Z0.300 F1000.0
G1 X5.700 Y-18.300
G0 Z2.000
G0 X5.800 Y-18.300 Z2.000
G1 Z0.000 F1000.0
G1 X5.900 Y-18.300
G0 Z2.000
G0 X6.000 Y-18.300 Z2.000
G1 Z0.300 F1000.0
G1 X6.000 Y-18.300
G0 Z2.000
G0 X6.100 Y-18.300 Z2.000
G1 Z0.600 F1000.0
G1 X6.100 Y-18.300
G0 Z2.000
G0 X-11.900 Y-18.200 Z2.000
G1 Z0.600 F1000.0
G1 X-11.900 Y-18.200
G0 Z2.000
G0 X-11.800 Y-18.200 Z2.000
G1 Z0.300 F1000.0
G1 X-11.500 Y-18.200
G0 Z2.000
G0 X-11.400 Y-18.200 Z2.000
G1 Z0.600 F1000.0
G1 X-11.400 Y-18.200
G0 Z2.000
G0 X5.600 Y-18.200 Z2.000
G1 Z0.600 F1000.0
G1 X5.600 Y-18.200
G0 Z2.000
G0 X5.700 Y-18.200 Z2.000
G1 Z0.300 F1000.0
G1 X5.900 Y-18.200
G0 Z2.000
G0 X6.000 Y-18.200 Z2.000
G1 Z0.000 F1000.0
G1 X6.000 Y-18.200
G0 Z2.000
G0 X6.100 Y-18.200 Z2.000
G1 Z0.300 F1000.0
G1 X6.100 Y-18.200
G0 Z2.000
G0 X6.200 Y-18.200 Z2.000
G1 Z0.600 F1000.0
G1 X6.200 Y-18.200
G0 Z2.000
G0 X-12.000 Y-18.100 Z2.000
G1 Z0.600 F1000.0
G1 X-12.000 Y-18.100
G0 Z2.000
G0 X-11.900 Y-18.100 Z2.000
G1 Z0.300 F1000.0
G1 X-11.600 Y-18.100
G0 Z2.000
G0 X-11.500 Y-18.100 Z2.000
G1 Z0.600 F1000.0
G1 X-11.500 Y-18.100
G0 Z2.000
G0 X5.700 Y-18.100 Z2.000
G1 Z0.600 F1000.0
G1 X5.700 Y-18.100
G0 Z2.000
G0 X5.800 Y-18.100 Z2.000
G1 Z0.300 F1000.0
G1 X5.800 Y-18.100
G0 Z2.000
G0 X5.900 Y-18.100 Z2.000
G1 Z0.000 F1000.0
G1 X6.100 Y-18.100
G0 Z2.000
G0 X6.200 Y-18.100 Z2.000
G1 Z0.300 F1000.0
G1 X6.200 Y-18.100
G0 Z2.000
G0 X6.300 Y-18.100 Z2.000
G1 Z0.600 F1000.0
G1 X6.300 Y-18.100
G0 Z2.000
G0 X-12.100 Y-18.000 Z2.000
G1 Z0.600 F1000.0
G1 X-12.100 Y-18.000
G0 Z2.000
G0 X-12.000 Y-18.000 Z2.000
G1 Z0.300 F1000.0
G1 X-11.800 Y-18.000
G0 Z2.000
G0 X-11.700 Y-18.000 Z2.000
G1 Z0.600 F1000.0
G1 X-11.600 Y-18.000
G0 Z2.000
G0 X5.800 Y-18.000 Z2.000
G1 Z0.600 F1000.0
G1 X5.900 Y-18.000
G0 Z2.000
G0 X6.000 Y-18.000 Z2.000
G1 Z0.300 F1000.0
G1 X6.000 Y-18.000
G0 Z2.000
G0 X6.100 Y-18.000 Z2.000
G1 Z0.000 F1000.0
G1 X6.300 Y-18.000
G0 Z2.000
G0 X6.400 Y-18.000 Z2.000
G1 Z0.600 F1000.0
G1 X6.400 Y-18.000
G0 Z2.000
G0 X-12.200 Y-17.900 Z2.000
G1 Z0.600 F1000.0
G1 X-12.200 Y-17.900
G0 Z2.000
G0 X-12.100 Y-17.900 Z2.000
G1 Z0.300 F1000.0
G1 X-11.900 Y-17.900
G0 Z2.000
G0 X-11.800 Y-17.900 Z2.000
G1 Z0.600 F1000.0
G1 X-11.800 Y-17.900
G0 Z2.000
G0 X6.000 Y-17.900 Z2.000
G1 Z0.600 F1000.0
G1 X6.000 Y-17.900
G0 Z2.000
G0 X6.100 Y-17.900 Z2.000
G1 Z0.300 F1000.0
G1 X6.200 Y-17.900
G0 Z2.000
G0 X6.300 Y-17.900 Z2.000
G1 Z0.000 F1000.0
G1 X6.400 Y-17.900
G0 Z2.000
G0 X6.500 Y-17.900 Z2.000
G1 Z0.600 F1000.0
G1 X6.600 Y-17.900
G0 Z2.000
G0 X-12.400 Y-17.800 Z2.000
G1 Z0.600 F1000.0
G1 X-12.300 Y-17.800
G0 Z2.000
G0 X-12.200 Y-17.800 Z2.000
G1 Z0.300 F1000.0
G1 X-12.000 Y-17.800
G0 Z2.000
G0 X-11.900 Y-17.800 Z2.000
G1 Z0.600 F1000.0
G1 X-11.900 Y-17.800
G0 Z2.000
G0 X6.100 Y-17.800 Z2.000
G1 Z0.600 F1000.0
G1 X6.100 Y-17.800
G0 Z2.000
G0 X6.200 Y-17.800 Z2.000
G1 Z0.300 F1000.0
G1 X6.300 Y-17.800
G0 Z2.000
G0 X6.400 Y-17.800 Z2.000
G1 Z0.000 F1000.0
G1 X6.400 Y-17.800
G0 Z2.000
G0 X6.500 Y-17.800 Z2.000
G1 Z0.300 F1000.0
G1 X6.600 Y-17.800
G0 Z2.000
G0 X6.700 Y-17.800 Z2.000
G1 Z0.600 F1000.0
G1 X6.700 Y-17.800
G0 Z2.000
G0 X-12.500 Y-17.700 Z2.000
G1 Z0.600 F1000.0
G1 X-12.500 Y-17.700
G0 Z2.000
G0 X-12.400 Y-17.700 Z2.000
G1 Z0.300 F1000.0
G1 X-12.100 Y-17.700
G0 Z2.000
G0 X-12.000 Y-17.700 Z2.000
G1 Z0.600 F1000.0
G1 X-12.000 Y-17.700
G0 Z2.000
G0 X6.200 Y-17.700 Z2.000
G1 Z0.600 F1000.0
G1 X6.200 Y-17.700
G0 Z2.000
G0 X6.300 Y-17.700 Z2.000
G1 Z0.300 F1000.0
G1 X6.300 Y-17.700
G0 Z2.000
G0 X6.400 Y-17.700 Z2.000
G1 Z0.000 F1000.0
G1 X6.600 Y-17.700
G0 Z2.000
G0 X6.700 Y-17.700 Z2.000
G1 Z0.300 F1000.0
G1 X6.700 Y-17.700
G0 Z2.000
G0 X6.800 Y-17.700 Z2.000
G1 Z0.600 F1000.0
G1 X6.800 Y-17.700
G0 Z2.000
G0 X-12.600 Y-17.600 Z2.000
G1 Z0.600 F1000.0
G1 X-12.600 Y-17.600
G0 Z2.000
G0 X-12.500 Y-17.600 Z2.000
G1 Z0.300 F1000.0
G1 X-12.200 Y-17.600
G0 Z2.000
G0 X-12.100 Y-17.600 Z2.000
G1 Z0.600 F1000.0
G1 X-12.100 Y-17.600
G0 Z2.000
G0 X6.300 Y-17.600 Z2.000
G1 Z0.600 F1000.0
G1 X6.300 Y-17.600
G0 Z2.000
G0 X6.400 Y-17.600 Z2.000
G1 Z0.300 F1000.0
G1 X6.400 Y-17.600
G0 Z2.000
G0 X6.500 Y-17.600 Z2.000
G1 Z0.000 F1000.0
G1 X6.700 Y-17.600
G0 Z2.000
G0 X6.800 Y-17.600 Z2.000
G1 Z0.300 F1000.0
G1 X6.800 Y-17.600
G0 Z2.000
G0 X-12.800 Y-17.500 Z2.000
G1 Z0.600 F1000.0
G1 X-12.700 Y-17.500
G0 Z2.000
G0 X-12.600 Y-17.500 Z2.000
G1 Z0.300 F1000.0
G1 X-12.300 Y-17.500
G0 Z2.000
G0 X-12.200 Y-17.500 Z2.000
G1 Z0.600 F1000.0
G1 X-12.200 Y-17.500
G0 Z2.000
G0 X6.400 Y-17.500 Z2.000
G1 Z0.600 F1000.0
G1 X6.400 Y-17.500
G0 Z2.000
G0 X6.500 Y-17.500 Z2.000
G1 Z0.300 F1000.0
G1 X6.600 Y-17.500
G0 Z2.000
G0 X6.700 Y-17.500 Z2.000
G1 Z0.000 F1000.0
G1 X6.800 Y-17.500
G0 Z2.000
G0 X6.900 Y-17.500 Z2.000
G1 Z0.300 F1000.0
G1 X6.900 Y-17.500
G0 Z2.000
G0 X7.000 Y-17.500 Z2.000
G1 Z0.600 F1000.0
G1 X7.000 Y-17.500
G0 Z2.000
G0 X-12.900 Y-17.400 Z2.000
G1 Z0.600 F1000.0
G1 X-12.800 Y-17.400
G0 Z2.000
G0 X-12.700 Y-17.400 Z2.000
G1 Z0.300 F1000.0
G1 X-12.400 Y-17.400
G0 Z2.000
G0 X-12.300 Y-17.400 Z2.000
G1 Z0.600 F1000.0
G1 X-12.300 Y-17.400
G0 Z2.000
G0 X6.500 Y-17.400 Z2.000
G1 Z0.600 F1000.0
G1 X6.500 Y-17.400
G0 Z2.000
G0 X6.600 Y-17.400 Z2.000
G1 Z0.300 F1000.0
G1 X6.600 Y-17.400
G0 Z2.000
G0 X6.700 Y-17.400 Z2.000
G1 Z0.000 F1000.0
G1 X6.800 Y-17.400
G0 Z2.000
G0 X6.900 Y-17.400 Z2.000
G1 Z0.300 F1000.0
G1 X7.000 Y-17.400
G0 Z2.000
G0 X-12.900 Y-17.300 Z2.000
G1 Z0.600 F1000.0
G1 X-12.900 Y-17.300
G0 Z2.000
G0 X-12.800 Y-17.300 Z2.000
G1 Z0.300 F1000.0
G1 X-12.800 Y-17.300
G0 Z2.000
G0 X-12.700 Y-17.300 Z2.000
G1 Z0.000 F1000.0
G1 X-12.700 Y-17.300
G0 Z2.000
G0 X-12.600 Y-17.300 Z2.000
G1 Z0.300 F1000.0
G1 X-12.600 Y-17.300
G0 Z2.000
G0 X-12.500 Y-17.300 Z2.000
G1 Z0.600 F1000.0
G1 X-12.500 Y-17.300
G0 Z2.000
G0 X6.600 Y-17.300 Z2.000
G1 Z0.600 F1000.0
G1 X6.600 Y-17.300
G0 Z2.000
G0 X6.700 Y-17.300 Z2.000
G1 Z0.300 F1000.0
G1 X6.900 Y-17.300
G0 Z2.000
G0 X7.000 Y-17.300 Z2.000
G1 Z0.000 F1000.0
G1 X7.000 Y-17.300
G0 Z2.000
G0 X7.100 Y-17.300 Z2.000
G1 Z0.300 F1000.0
G1 X7.100 Y-17.300
G0 Z2.000
G0 X-13.000 Y-17.200 Z2.000
G1 Z0.600 F1000.0
G1 X-13.000 Y-17.200
G0 Z2.000
G0 X-12.900 Y-17.200 Z2.000
G1 Z0.300 F1000.0
G1 X-12.700 Y-17.200
G0 Z2.000
G0 X-12.600 Y-17.200 Z2.000
G1 Z0.600 F1000.0
G1 X-12.600 Y-17.200
G0 Z2.000
G0 X6.700 Y-17.200 Z2.000
G1 Z0.600 F1000.0
G1 X6.700 Y-17.200
G0 Z2.000
G0 X6.800 Y-17.200 Z2.000
G1 Z0.300 F1000.0
G1 X7.000 Y-17.200
G0 Z2.000
G0 X7.100 Y-17.200 Z2.000
G1 Z0.000 F1000.0
G1 X7.100 Y-17.200
G0 Z2.000
G0 X7.200 Y-17.200 Z2.000
G1 Z0.300 F1000.0
G1 X7.200 Y-17.200
G0 Z2.000
G0 X-13.100 Y-17.100 Z2.000
G1 Z0.600 F1000.0
G1 X-13.000 Y-17.100
G0 Z2.000
G0 X-12.900 Y-17.100 Z2.000
G1 Z0.300 F1000.0
G1 X-12.800 Y-17.100
G0 Z2.000
G0 X-12.700 Y-17.100 Z2.000
G1 Z0.600 F1000.0
G1 X-12.700 Y-17.100
G0 Z2.000
G0 X6.800 Y-17.100 Z2.000
G1 Z0.600 F1000.0
G1 X6.800 Y-17.100
G0 Z2.000
G0 X6.900 Y-17.100 Z2.000
G1 Z0.300 F1000.0
G1 X7.300 Y-17.100
G0 Z2.000
G0 X7.400 Y-17.100 Z2.000
G1 Z0.600 F1000.0
G1 X7.400 Y-17.100
G0 Z2.000
G0 X-13.200 Y-17.000 Z2.000
G1 Z0.600 F1000.0
G1 X-13.100 Y-17.000
G0 Z2.000
G0 X-13.000 Y-17.000 Z2.000
G1 Z0.300 F1000.0
G1 X-12.900 Y-17.000
G0 Z2.000
G0 X-12.800 Y-17.000 Z2.000
G1 Z0.600 F1000.0
G1 X-12.800 Y-17.000
G0 Z2.000
G0 X6.900 Y-17.000 Z2.000
G1 Z0.600 F1000.0
G1 X6.900 Y-17.000
G0 Z2.000
G0 X7.000 Y-17.000 Z2.000
G1 Z0.300 F1000.0
G1 X7.100 Y-17.000
G0 Z2.000
G0 X7.200 Y-17.000 Z2.000
G1 Z0.000 F1000.0
G1 X7.300 Y-17.000
G0 Z2.000
G0 X7.400 Y-17.000 Z2.000
G1 Z0.300 F1000.0
G1 X7.400 Y-17.000
G0 Z2.000
G0 X7.500 Y-17.000 Z2.000
G1 Z0.600 F1000.0
G1 X7.500 Y-17.000
G0 Z2.000
G0 X-13.300 Y-16.900 Z2.000
G1 Z0.600 F1000.0
G1 X-13.300 Y-16.900
G0 Z2.000
G0 X-13.200 Y-16.900 Z2.000
G1 Z0.300 F1000.0
G1 X-13.000 Y-16.900
G0 Z2.000
G0 X-12.900 Y-16.900 Z2.000
G1 Z0.600 F1000.0
G1 X-12.900 Y-16.900
G0 Z2.000
G0 X7.000 Y-16.900 Z2.000
G1 Z0.600 F1000.0
G1 X7.000 Y-16.900
G0 Z2.000
G0 X7.100 Y-16.900 Z2.000
G1 Z0.300 F1000.0
G1 X7.100 Y-16.900
G0 Z2.000
G0 X7.200 Y-16.900 Z2.000
G1 Z0.000 F1000.0
G1 X7.300 Y-16.900
G0 Z2.000
G0 X7.400 Y-16.900 Z2.000
G1 Z0.300 F1000.0
G1 X7.400 Y-16.900
G0 Z2.000
G0 X7.500 Y-16.900 Z2.000
G1 Z0.600 F1000.0
G1 X7.600 Y-16.900
G0 Z2.000
G0 X-13.400 Y-16.800 Z2.000
G1 Z0.600 F1000.0
G1 X-13.400 Y-16.800
G0 Z2.000
G0 X-13.300 Y-16.800 Z2.000
G1 Z0.300 F1000.0
G1 X-13.100 Y-16.800
G0 Z2.000
G0 X-13.000 Y-16.800 Z2.000
G1 Z0.600 F1000.0
G1 X-13.000 Y-16.800
G0 Z2.000
G0 X7.100 Y-16.800 Z2.000
G1 Z0.600 F1000.0
G1 X7.100 Y-16.800
G0 Z2.000
G0 X7.200 Y-16.800 Z2.000
G1 Z0.300 F1000.0
G1 X7.600 Y-16.800
G0 Z2.000
G0 X7.700 Y-16.800 Z2.000
G1 Z0.600 F1000.0
G1 X7.700 Y-16.800
G0 Z2.000
G0 X-13.500 Y-16.700 Z2.000
G1 Z0.600 F1000.0
G1 X-13.400 Y-16.700
G0 Z2.000
G0 X-13.300 Y-16.700 Z2.000
G1 Z0.300 F1000.0
G1 X-13.200 Y-16.700
G0 Z2.000
G0 X-13.100 Y-16.700 Z2.000
G1 Z0.600 F1000.0
G1 X-13.100 Y-16.700
G0 Z2.000
G0 X7.200 Y-16.700 Z2.000
G1 Z0.300 F1000.0
G1 X7.600 Y-16.700
G0 Z2.000
G0 X7.700 Y-16.700 Z2.000
G1 Z0.600 F1000.0
G1 X7.700 Y-16.700
G0 Z2.000
G0 X-13.500 Y-16.600 Z2.000
G1 Z0.600 F1000.0
G1 X-13.500 Y-16.600
G0 Z2.000
G0 X-13.400 Y-16.600 Z2.000
G1 Z0.300 F1000.0
G1 X-13.200 Y-16.600
G0 Z2.000
G0 X-13.100 Y-16.600 Z2.000
G1 Z0.600 F1000.0
G1 X-13.100 Y-16.600
G0 Z2.000
G0 X7.300 Y-16.600 Z2.000
G1 Z0.600 F1000.0
G1 X7.300 Y-16.600
G0 Z2.000
G0 X7.400 Y-16.600 Z2.000
G1 Z0.300 F1000.0
G1 X7.700 Y-16.600
G0 Z2.000
G0 X7.800 Y-16.600 Z2.000
G1 Z0.600 F1000.0
G1 X7.900 Y-16.600
G0 Z2.000
G0 X-13.600 Y-16.500 Z2.000
G1 Z0.600 F1000.0
G1 X-13.600 Y-16.500
G0 Z2.000
G0 X-13.500 Y-16.500 Z2.000
G1 Z0.300 F1000.0
G1 X-13.300 Y-16.500
G0 Z2.000
G0 X-13.200 Y-16.500 Z2.000
G1 Z0.600 F1000.0
G1 X-13.200 Y-16.500
G0 Z2.000
G0 X7.400 Y-16.500 Z2.000
G1 Z0.600 F1000.0
G1 X7.500 Y-16.500
G0 Z2.000
G0 X7.600 Y-16.500 Z2.000
G1 Z0.300 F1000.0
G1 X7.900 Y-16.500
G0 Z2.000
G0 X8.000 Y-16.500 Z2.000
G1 Z0.600 F1000.0
G1 X8.000 Y-16.500
G0 Z2.000
G0 X-13.700 Y-16.400 Z2.000
G1 Z0.600 F1000.0
G1 X-13.700 Y-16.400
G0 Z2.000
G0 X-13.600 Y-16.400 Z2.000
G1 Z0.300 F1000.0
G1 X-13.400 Y-16.400
G0 Z2.000
G0 X-13.300 Y-16.400 Z2.000
G1 Z0.600 F1000.0
G1 X-13.300 Y-16.400
G0 Z2.000
G0 X7.500 Y-16.400 Z2.000
G1 Z0.600 F1000.0
G1 X7.500 Y-16.400
G0 Z2.000
G0 X7.600 Y-16.400 Z2.000
G1 Z0.300 F1000.0
G1 X8.000 Y-16.400
G0 Z2.000
G0 X8.100 Y-16.400 Z2.000
G1 Z0.600 F1000.0
G1 X8.100 Y-16.400
G0 Z2.000
G0 X-13.800 Y-16.300 Z2.000
G1 Z0.600 F1000.0
G1 X-13.800 Y-16.300
G0 Z2.000
G0 X-13.700 Y-16.300 Z2.000
G1 Z0.300 F1000.0
G1 X-13.500 Y-16.300
G0 Z2.000
G0 X-13.400 Y-16.300 Z2.000
G1 Z0.600 F1000.0
G1 X-13.400 Y-16.300
G0 Z2.000
G0 X7.600 Y-16.300 Z2.000
G1 Z0.600 F1000.0
G1 X7.600 Y-16.300
G0 Z2.000
G0 X7.700 Y-16.300 Z2.000
G1 Z0.300 F1000.0
G1 X8.100 Y-16.300
G0 Z2.000
G0 X8.200 Y-16.300 Z2.000
G1 Z0.600 F1000.0
G1 X8.200 Y-16.300
G0 Z2.000
G0 X-13.900 Y-16.200 Z2.000
G1 Z0.600 F1000.0
G1 X-13.800 Y-16.200
G0 Z2.000
G0 X-13.700 Y-16.200 Z2.000
G1 Z0.300 F1000.0
G1 X-13.600 Y-16.200
G0 Z2.000
G0 X-13.500 Y-16.200 Z2.000
G1 Z0.600 F1000.0
G1 X-13.500 Y-16.200
G0 Z2.000
G0 X7.800 Y-16.200 Z2.000
G1 Z0.600 F1000.0
G1 X7.800 Y-16.200
G0 Z2.000
G0 X7.900 Y-16.200 Z2.000
G1 Z0.300 F1000.0
G1 X8.100 Y-16.200
G0 Z2.000
G0 X8.200 Y-16.200 Z2.000
G1 Z0.600 F1000.0
G1 X8.200 Y-16.200
G0 Z2.000
G0 X-13.900 Y-16.100 Z2.000
G1 Z0.600 F1000.0
G1 X-13.900 Y-16.100
G0 Z2.000
G0 X-13.800 Y-16.100 Z2.000
G1 Z0.300 F1000.0
G1 X-13.700 Y-16.100
G0 Z2.000
G0 X-13.600 Y-16.100 Z2.000
G1 Z0.600 F1000.0
G1 X-13.600 Y-16.100
G0 Z2.000
G0 X7.800 Y-16.100 Z2.000
G1 Z0.600 F1000.0
G1 X7.900 Y-16.100
G0 Z2.000
G0 X8.000 Y-16.100 Z2.000
G1 Z0.300 F1000.0
G1 X8.200 Y-16.100
G0 Z2.000
G0 X8.300 Y-16.100 Z2.000
G1 Z0.600 F1000.0
G1 X8.300 Y-16.100
G0 Z2.000
G0 X-14.100 Y-16.000 Z2.000
G1 Z0.600 F1000.0
G1 X-14.000 Y-16.000
G0 Z2.000
G0 X-13.900 Y-16.000 Z2.000
G1 Z0.300 F1000.0
G1 X-13.800 Y-16.000
G0 Z2.000
G0 X-13.700 Y-16.000 Z2.000
G1 Z0.600 F1000.0
G1 X-13.700 Y-16.000
G0 Z2.000
G0 X7.900 Y-16.000 Z2.000
G1 Z0.600 F1000.0
G1 X8.000 Y-16.000
G0 Z2.000
G0 X8.100 Y-16.000 Z2.000
G1 Z0.300 F1000.0
G1 X8.300 Y-16.000
G0 Z2.000
G0 X8.400 Y-16.000 Z2.000
G1 Z0.600 F1000.0
G1 X8.400 Y-16.000
G0 Z2.000
G0 X-14.100 Y-15.900 Z2.000
G1 Z0.600 F1000.0
G1 X-14.100 Y-15.900
G0 Z2.000
G0 X-14.000 Y-15.900 Z2.000
G1 Z0.300 F1000.0
G1 X-13.900 Y-15.900
G0 Z2.000
G0 X-13.800 Y-15.900 Z2.000
G1 Z0.600 F1000.0
G1 X-13.800 Y-15.900
G0 Z2.000
G0 X7.900 Y-15.900 Z2.000
G1 Z0.600 F1000.0
G1 X8.100 Y-15.900
G0 Z2.000
G0 X8.200 Y-15.900 Z2.000
G1 Z0.300 F1000.0
G1 X8.400 Y-15.900
G0 Z2.000
G0 X8.500 Y-15.900 Z2.000
G1 Z0.600 F1000.0
G1 X8.500 Y-15.900
G0 Z2.000
G0 X-14.200 Y-15.800 Z2.000
G1 Z0.600 F1000.0
G1 X-14.200 Y-15.800
G0 Z2.000
G0 X-14.100 Y-15.800 Z2.000
G1 Z0.300 F1000.0
G1 X-14.000 Y-15.800
G0 Z2.000
G0 X-13.900 Y-15.800 Z2.000
G1 Z0.600 F1000.0
G1 X-13.900 Y-15.800
G0 Z2.000
G0 X8.100 Y-15.800 Z2.000
G1 Z0.600 F1000.0
G1 X8.200 Y-15.800
G0 Z2.000
G0 X8.300 Y-15.800 Z2.000
G1 Z0.300 F1000.0
G1 X8.500 Y-15.800
G0 Z2.000
G0 X8.600 Y-15.800 Z2.000
G1 Z0.600 F1000.0
G1 X8.600 Y-15.800
G0 Z2.000
G0 X-14.300 Y-15.700 Z2.000
G1 Z0.600 F1000.0
G1 X-14.300 Y-15.700
G0 Z2.000
G0 X-14.200 Y-15.700 Z2.000
G1 Z0.300 F1000.0
G1 X-14.000 Y-15.700
G0 Z2.000
G0 X-13.900 Y-15.700 Z2.000
G1 Z0.600 F1000.0
G1 X-13.900 Y-15.700
G0 Z2.000
G0 X8.200 Y-15.700 Z2.000
G1 Z0.600 F1000.0
G1 X8.300 Y-15.700
G0 Z2.000
G0 X8.400 Y-15.700 Z2.000
G1 Z0.300 F1000.0
G1 X8.600 Y-15.700
G0 Z2.000
G0 X8.700 Y-15.700 Z2.000
G1 Z0.600 F1000.0
G1 X8.700 Y-15.700
G0 Z2.000
G0 X-14.400 Y-15.600 Z2.000
G1 Z0.600 F1000.0
G1 X-14.300 Y-15.600
G0 Z2.000
G0 X-14.200 Y-15.600 Z2.000
G1 Z0.300 F1000.0
G1 X-14.100 Y-15.600
G0 Z2.000
G0 X-14.000 Y-15.600 Z2.000
G1 Z0.600 F1000.0
G1 X-14.000 Y-15.600
G0 Z2.000
G0 X8.300 Y-15.600 Z2.000
G1 Z0.600 F1000.0
G1 X8.400 Y-15.600
G0 Z2.000
G0 X8.500 Y-15.600 Z2.000
G1 Z0.300 F1000.0
G1 X8.700 Y-15.600
G0 Z2.000
G0 X8.800 Y-15.600 Z2.000
G1 Z0.600 F1000.0
G1 X8.800 Y-15.600
G0 Z2.000
G0 X-14.400 Y-15.500 Z2.000
G1 Z0.600 F1000.0
G1 X-14.400 Y-15.500
G0 Z2.000
G0 X-14.300 Y-15.500 Z2.000
G1 Z0.300 F1000.0
G1 X-14.200 Y-15.500
G0 Z2.000
G0 X-14.100 Y-15.500 Z2.000
G1 Z0.600 F1000.0
G1 X-14.100 Y-15.500
G0 Z2.000
G0 X8.400 Y-15.500 Z2.000
G1 Z0.600 F1000.0
G1 X8.500 Y-15.500
G0 Z2.000
G0 X8.600 Y-15.500 Z2.000
G1 Z0.300 F1000.0
G1 X8.700 Y-15.500
G0 Z2.000
G0 X8.800 Y-15.500 Z2.000
G1 Z0.600 F1000.0
G1 X8.800 Y-15.500
G0 Z2.000
G0 X-14.500 Y-15.400 Z2.000
G1 Z0.600 F1000.0
G1 X-14.500 Y-15.400
G0 Z2.000
G0 X-14.400 Y-15.400 Z2.000
G1 Z0.300 F1000.0
G1 X-14.300 Y-15.400
G0 Z2.000
G0 X-14.200 Y-15.400 Z2.000
G1 Z0.600 F1000.0
G1 X-14.200 Y-15.400
G0 Z2.000
G0 X8.400 Y-15.400 Z2.000
G1 Z0.600 F1000.0
G1 X8.500 Y-15.400
G0 Z2.000
G0 X8.600 Y-15.400 Z2.000
G1 Z0.300 F1000.0
G1 X8.800 Y-15.400
G0 Z2.000
G0 X8.900 Y-15.400 Z2.000
G1 Z0.600 F1000.0
G1 X8.900 Y-15.400
G0 Z2.000
G0 X-14.600 Y-15.300 Z2.000
G1 Z0.600 F1000.0
G1 X-14.600 Y-15.300
G0 Z2.000
G0 X-14.500 Y-15.300 Z2.000
G1 Z0.300 F1000.0
G1 X-14.400 Y-15.300
G0 Z2.000
G0 X-14.300 Y-15.300 Z2.000
G1 Z0.600 F1000.0
G1 X-14.300 Y-15.300
G0 Z2.000
G0 X8.500 Y-15.300 Z2.000
G1 Z0.600 F1000.0
G1 X8.700 Y-15.300
G0 Z2.000
G0 X8.800 Y-15.300 Z2.000
G1 Z0.300 F1000.0
G1 X8.900 Y-15.300
G0 Z2.000
G0 X9.000 Y-15.300 Z2.000
G1 Z0.600 F1000.0
G1 X9.000 Y-15.300
G0 Z2.000
G0 X-14.600 Y-15.200 Z2.000
G1 Z0.300 F1000.0
G1 X-14.500 Y-15.200
G0 Z2.000
G0 X-14.400 Y-15.200 Z2.000
G1 Z0.600 F1000.0
G1 X-14.400 Y-15.200
G0 Z2.000
G0 X8.700 Y-15.200 Z2.000
G1 Z0.600 F1000.0
G1 X8.700 Y-15.200
G0 Z2.000
G0 X8.800 Y-15.200 Z2.000
G1 Z0.300 F1000.0
G1 X8.900 Y-15.200
G0 Z2.000
G0 X9.000 Y-15.200 Z2.000
G1 Z0.600 F1000.0
G1 X9.100 Y-15.200
G0 Z2.000
G0 X-14.700 Y-15.100 Z2.000
G1 Z0.600 F1000.0
G1 X-14.700 Y-15.100
G0 Z2.000
G0 X-14.600 Y-15.100 Z2.000
G1 Z0.300 F1000.0
G1 X-14.500 Y-15.100
G0 Z2.000
G0 X-14.400 Y-15.100 Z2.000
G1 Z0.600 F1000.0
G1 X-14.400 Y-15.100
G0 Z2.000
G0 X8.700 Y-15.100 Z2.000
G1 Z0.600 F1000.0
G1 X8.700 Y-15.100
G0 Z2.000
G0 X8.800 Y-15.100 Z2.000
G1 Z0.300 F1000.0
G1 X9.000 Y-15.100
G0 Z2.000
G0 X9.100 Y-15.100 Z2.000
G1 Z0.600 F1000.0
G1 X9.100 Y-15.100
G0 Z2.000
G0 X-14.800 Y-15.000 Z2.000
G1 Z0.600 F1000.0
G1 X-14.800 Y-15.000
G0 Z2.000
G0 X-14.700 Y-15.000 Z2.000
G1 Z0.300 F1000.0
G1 X-14.600 Y-15.000
G0 Z2.000
G0 X-14.500 Y-15.000 Z2.000
G1 Z0.600 F1000.0
G1 X-14.500 Y-15.000
G0 Z2.000
G0 X8.800 Y-15.000 Z2.000
G1 Z0.600 F1000.0
G1 X8.800 Y-15.000
G0 Z2.000
G0 X8.900 Y-15.000 Z2.000
G1 Z0.300 F1000.0
G1 X9.100 Y-15.000
G0 Z2.000
G0 X9.200 Y-15.000 Z2.000
G1 Z0.600 F1000.0
G1 X9.200 Y-15.000
G0 Z2.000
G0 X-14.800 Y-14.900 Z2.000
G1 Z0.600 F1000.0
G1 X-14.800 Y-14.900
G0 Z2.000
G0 X-14.700 Y-14.900 Z2.000
G1 Z0.300 F1000.0
G1 X-14.700 Y-14.900
G0 Z2.000
G0 X-14.600 Y-14.900 Z2.000
G1 Z0.600 F1000.0
G1 X-14.600 Y-14.900
G0 Z2.000
G0 X-9.500 Y-14.900 Z2.000
G1 Z0.600 F1000.0
G1 X-9.400 Y-14.900
G0 Z2.000
G0 X8.800 Y-14.900 Z2.000
G1 Z0.600 F1000.0
G1 X8.800 Y-14.900
G0 Z2.000
G0 X8.900 Y-14.900 Z2.000
G1 Z0.300 F1000.0
G1 X9.200 Y-14.900
G0 Z2.000
G0 X-14.900 Y-14.800 Z2.000
G1 Z0.600 F1000.0
G1 X-14.900 Y-14.800
G0 Z2.000
G0 X-14.800 Y-14.800 Z2.000
G1 Z0.300 F1000.0
G1 X-14.700 Y-14.800
G0 Z2.000
G0 X-14.600 Y-14.800 Z2.000
G1 Z0.600 F1000.0
G1 X-14.600 Y-14.800
G0 Z2.000
G0 X-9.700 Y-14.800 Z2.000
G1 Z0.600 F1000.0
G1 X-9.600 Y-14.800
G0 Z2.000
G0 X-9.500 Y-14.800 Z2.000
G1 Z0.300 F1000.0
G1 X-9.400 Y-14.800
G0 Z2.000
G0 X-9.300 Y-14.800 Z2.000
G1 Z0.600 F1000.0
G1 X-9.200 Y-14.800
G0 Z2.000
G0 X8.900 Y-14.800 Z2.000
G1 Z0.600 F1000.0
G1 X8.900 Y-14.800
G0 Z2.000
G0 X9.000 Y-14.800 Z2.000
G1 Z0.300 F1000.0
G1 X9.200 Y-14.800
G0 Z2.000
G0 X9.300 Y-14.800 Z2.000
G1 Z0.600 F1000.0
G1 X9.400 Y-14.800
G0 Z2.000
G0 X-15.000 Y-14.700 Z2.000
G1 Z0.600 F1000.0
G1 X-15.000 Y-14.700
G0 Z2.000
G0 X-14.900 Y-14.700 Z2.000
G1 Z0.300 F1000.0
G1 X-14.800 Y-14.700
G0 Z2.000
G0 X-14.700 Y-14.700 Z2.000
G1 Z0.600 F1000.0
G1 X-14.700 Y-14.700
G0 Z2.000
G0 X-9.900 Y-14.700 Z2.000
G1 Z0.600 F1000.0
G1 X-9.800 Y-14.700
G0 Z2.000
G0 X-9.700 Y-14.700 Z2.000
G1 Z0.300 F1000.0
G1 X-9.700 Y-14.700
G0 Z2.000
G0 X-9.600 Y-14.700 Z2.000
G1 Z0.000 F1000.0
G1 X-9.300 Y-14.700
G0 Z2.000
G0 X-9.200 Y-14.700 Z2.000
G1 Z0.600 F1000.0
G1 X-9.200 Y-14.700
G0 Z2.000
G0 X8.900 Y-14.700 Z2.000
G1 Z0.600 F1000.0
G1 X9.000 Y-14.700
G0 Z2.000
G0 X9.100 Y-14.700 Z2.000
G1 Z0.300 F1000.0
G1 X9.300 Y-14.700
G0 Z2.000
G0 X9.400 Y-14.700 Z2.000
G1 Z0.600 F1000.0
G1 X9.400 Y-14.700
G0 Z2.000
G0 X-15.000 Y-14.600 Z2.000
G1 Z0.600 F1000.0
G1 X-15.000 Y-14.600
G0 Z2.000
G0 X-14.900 Y-14.600 Z2.000
G1 Z0.300 F1000.0
G1 X-14.800 Y-14.600
G0 Z2.000
G0 X-14.700 Y-14.600 Z2.000
G1 Z0.600 F1000.0
G1 X-14.700 Y-14.600
G0 Z2.000
G0 X-10.100 Y-14.600 Z2.000
G1 Z0.600 F1000.0
G1 X-10.100 Y-14.600
G0 Z2.000
G0 X-10.000 Y-14.600 Z2.000
G1 Z0.300 F1000.0
G1 X-9.800 Y-14.600
G0 Z2.000
G0 X-9.700 Y-14.600 Z2.000
G1 Z0.000 F1000.0
G1 X-9.300 Y-14.600
G0 Z2.000
G0 X-9.200 Y-14.600 Z2.000
G1 Z0.600 F1000.0
G1 X-9.200 Y-14.600
G0 Z2.000
G0 X9.100 Y-14.600 Z2.000
G1 Z0.600 F1000.0
G1 X9.100 Y-14.600
G0 Z2.000
G0 X9.200 Y-14.600 Z2.000
G1 Z0.300 F1000.0
G1 X9.400 Y-14.600
G0 Z2.000
G0 X9.500 Y-14.600 Z2.000
G1 Z0.600 F1000.0
G1 X9.500 Y-14.600
G0 Z2.000
G0 X-15.200 Y-14.500 Z2.000
G1 Z0.600 F1000.0
G1 X-15.100 Y-14.500
G0 Z2.000
G0 X-15.000 Y-14.500 Z2.000
G1 Z0.300 F1000.0
G1 X-14.900 Y-14.500
G0 Z2.000
G0 X-14.800 Y-14.500 Z2.000
G1 Z0.600 F1000.0
G1 X-14.800 Y-14.500
G0 Z2.000
G0 X-10.300 Y-14.500 Z2.000
G1 Z0.600 F1000.0
G1 X-10.200 Y-14.500
G0 Z2.000
G0 X-10.100 Y-14.500 Z2.000
G1 Z0.300 F1000.0
G1 X-10.000 Y-14.500
G0 Z2.000
G0 X-9.900 Y-14.500 Z2.000
G1 Z0.000 F1000.0
G1 X-9.900 Y-14.500
G0 Z2.000
G0 X-9.800 Y-14.500 Z2.000
G1 Z0.300 F1000.0
G1 X-9.800 Y-14.500
G0 Z2.000
G0 X-9.700 Y-14.500 Z2.000
G1 Z0.000 F1000.0
G1 X-9.400 Y-14.500
G0 Z2.000
G0 X-9.300 Y-14.500 Z2.000
G1 Z0.300 F1000.0
G1 X-9.300 Y-14.500
G0 Z2.000
G0 X-9.200 Y-14.500 Z2.000
G1 Z0.600 F1000.0
G1 X-9.200 Y-14.500
G0 Z2.000
G0 X9.200 Y-14.500 Z2.000
G1 Z0.600 F1000.0
G1 X9.200 Y-14.500
G0 Z2.000
G0 X9.300 Y-14.500 Z2.000
G1 Z0.300 F1000.0
G1 X9.500 Y-14.500
G0 Z2.000
G0 X9.600 Y-14.500 Z2.000
G1 Z0.600 F1000.0
G1 X9.600 Y-14.500
G0 Z2.000
G0 X-15.200 Y-14.400 Z2.000
G1 Z0.600 F1000.0
G1 X-15.200 Y-14.400
G0 Z2.000
G0 X-15.100 Y-14.400 Z2.000
G1 Z0.300 F1000.0
G1 X-15.000 Y-14.400
G0 Z2.000
G0 X-14.900 Y-14.400 Z2.000
G1 Z0.600 F1000.0
G1 X-14.900 Y-14.400
G0 Z2.000
G0 X-10.400 Y-14.400 Z2.000
G1 Z0.600 F1000.0
G1 X-10.400 Y-14.400
G0 Z2.000
G0 X-10.300 Y-14.400 Z2.000
G1 Z0.300 F1000.0
G1 X-10.200 Y-14.400
G0 Z2.000
G0 X-10.100 Y-14.400 Z2.000
G1 Z0.000 F1000.0
G1 X-9.900 Y-14.400
G0 Z2.000
G0 X-9.800 Y-14.400 Z2.000
G1 Z0.300 F1000.0
G1 X-9.600 Y-14.400
G0 Z2.000
G0 X-9.500 Y-14.400 Z2.000
G1 Z0.000 F1000.0
G1 X-9.400 Y-14.400
G0 Z2.000
G0 X-9.300 Y-14.400 Z2.000
G1 Z0.600 F1000.0
G1 X-9.300 Y-14.400
G0 Z2.000
G0 X9.200 Y-14.400 Z2.000
G1 Z0.600 F1000.0
G1 X9.200 Y-14.400
G0 Z2.000
G0 X9.300 Y-14.400 Z2.000
G1 Z0.300 F1000.0
G1 X9.600 Y-14.400
G0 Z2.000
G0 X9.700 Y-14.400 Z2.000
G1 Z0.600 F1000.0
G1 X9.700 Y-14.400
G0 Z2.000
G0 X-15.300 Y-14.300 Z2.000
G1 Z0.600 F1000.0
G1 X-15.300 Y-14.300
G0 Z2.000
G0 X-15.200 Y-14.300 Z2.000
G1 Z0.300 F1000.0
G1 X-15.100 Y-14.300
G0 Z2.000
G0 X-15.000 Y-14.300 Z2.000
G1 Z0.600 F1000.0
G1 X-15.000 Y-14.300
G0 Z2.000
G0 X-10.500 Y-14.300 Z2.000
G1 Z0.600 F1000.0
G1 X-10.500 Y-14.300
G0 Z2.000
G0 X-10.400 Y-14.300 Z2.000
G1 Z0.300 F1000.0
G1 X-10.300 Y-14.300
G0 Z2.000
G0 X-10.200 Y-14.300 Z2.000
G1 Z0.000 F1000.0
G1 X-10.100 Y-14.300
G0 Z2.000
G0 X-10.000 Y-14.300 Z2.000
G1 Z0.300 F1000.0
G1 X-10.000 Y-14.300
G0 Z2.000
G0 X-9.900 Y-14.300 Z2.000
G1 Z0.600 F1000.0
G1 X-9.700 Y-14.300
G0 Z2.000
G0 X-9.600 Y-14.300 Z2.000
G1 Z0.300 F1000.0
G1 X-9.600 Y-14.300
G0 Z2.000
G0 X-9.500 Y-14.300 Z2.000
G1 Z0.000 F1000.0
G1 X-9.500 Y-14.300
G0 Z2.000
G0 X-9.400 Y-14.300 Z2.000
G1 Z0.300 F1000.0
G1 X-9.400 Y-14.300
G0 Z2.000
G0 X-9.300 Y-14.300 Z2.000
G1 Z0.600 F1000.0
G1 X-9.300 Y-14.300
G0 Z2.000
G0 X9.300 Y-14.300 Z2.000
G1 Z0.600 F1000.0
G1 X9.300 Y-14.300
G0 Z2.000
G0 X9.400 Y-14.300 Z2.000
G1 Z0.300 F1000.0
G1 X9.600 Y-14.300
G0 Z2.000
G0 X9.700 Y-14.300 Z2.000
G1 Z0.600 F1000.0
G1 X9.700 Y-14.300
G0 Z2.000
G0 X-15.300 Y-14.200 Z2.000
G1 Z0.300 F1000.0
G1 X-15.200 Y-14.200
G0 Z2.000
G0 X-15.100 Y-14.200 Z2.000
G1 Z0.600 F1000.0
G1 X-15.100 Y-14.200
G0 Z2.000
G0 X-10.600 Y-14.200 Z2.000
G1 Z0.600 F1000.0
G1 X-10.600 Y-14.200
G0 Z2.000
G0 X-10.500 Y-14.200 Z2.000
G1 Z0.300 F1000.0
G1 X-10.100 Y-14.200
G0 Z2.000
G0 X-10.000 Y-14.200 Z2.000
G1 Z0.600 F1000.0
G1 X-10.000 Y-14.200
G0 Z2.000
G0 X-9.700 Y-14.200 Z2.000
G1 Z0.600 F1000.0
G1 X-9.700 Y-14.200
G0 Z2.000
G0 X-9.600 Y-14.200 Z2.000
G1 Z0.000 F1000.0
G1 X-9.500 Y-14.200
G0 Z2.000
G0 X-9.400 Y-14.200 Z2.000
G1 Z0.300 F1000.0
G1 X-9.400 Y-14.200
G0 Z2.000
G0 X-9.300 Y-14.200 Z2.000
G1 Z0.600 F1000.0
G1 X-9.300 Y-14.200
G0 Z2.000
G0 X5.100 Y-14.200 Z2.000
G1 Z0.600 F1000.0
G1 X5.300 Y-14.200
G0 Z2.000
G0 X5.400 Y-14.200 Z2.000
G1 Z0.300 F1000.0
G1 X5.500 Y-14.200
G0 Z2.000
G0 X5.600 Y-14.200 Z2.000
G1 Z0.600 F1000.0
G1 X5.800 Y-14.200
G0 Z2.000
G0 X9.400 Y-14.200 Z2.000
G1 Z0.300 F1000.0
G1 X9.700 Y-14.200
G0 Z2.000
G0 X9.800 Y-14.200 Z2.000
G1 Z0.600 F1000.0
G1 X9.800 Y-14.200
G0 Z2.000
G0 X-15.400 Y-14.100 Z2.000
G1 Z0.600 F1000.0
G1 X-15.400 Y-14.100
G0 Z2.000
G0 X-15.300 Y-14.100 Z2.000
G1 Z0.300 F1000.0
G1 X-15.200 Y-14.100
G0 Z2.000
G0 X-15.100 Y-14.100 Z2.000
G1 Z0.600 F1000.0
G1 X-15.100 Y-14.100
G0 Z2.000
G0 X-10.700 Y-14.100 Z2.000
G1 Z0.600 F1000.0
G1 X-10.700 Y-14.100
G0 Z2.000
G0 X-10.600 Y-14.100 Z2.000
G1 Z0.300 F1000.0
G1 X-10.400 Y-14.100
G0 Z2.000
G0 X-10.300 Y-14.100 Z2.000
G1 Z0.600 F1000.0
G1 X-10.200 Y-14.100
G0 Z2.000
G0 X-9.700 Y-14.100 Z2.000
G1 Z0.300 F1000.0
G1 X-9.400 Y-14.100
G0 Z2.000
G0 X-9.300 Y-14.100 Z2.000
G1 Z0.600 F1000.0
G1 X-9.300 Y-14.100
G0 Z2.000
G0 X5.000 Y-14.100 Z2.000
G1 Z0.600 F1000.0
G1 X5.100 Y-14.100
G0 Z2.000
G0 X5.200 Y-14.100 Z2.000
G1 Z0.300 F1000.0
G1 X5.800 Y-14.100
G0 Z2.000
G0 X5.900 Y-14.100 Z2.000
G1 Z0.600 F1000.0
G1 X5.900 Y-14.100
G0 Z2.000
G0 X9.400 Y-14.100 Z2.000
G1 Z0.600 F1000.0
G1 X9.400 Y-14.100
G0 Z2.000
G0 X9.500 Y-14.100 Z2.000
G1 Z0.300 F1000.0
G1 X9.700 Y-14.100
G0 Z2.000
G0 X9.800 Y-14.100 Z2.000
G1 Z0.600 F1000.0
G1 X9.900 Y-14.100
G0 Z2.000
G0 X-15.500 Y-14.000 Z2.000
G1 Z0.600 F1000.0
G1 X-15.500 Y-14.000
G0 Z2.000
G0 X-15.400 Y-14.000 Z2.000
G1 Z0.300 F1000.0
G1 X-15.300 Y-14.000
G0 Z2.000
G0 X-15.200 Y-14.000 Z2.000
G1 Z0.600 F1000.0
G1 X-15.200 Y-14.000
G0 Z2.000
G0 X-10.800 Y-14.000 Z2.000
G1 Z0.600 F1000.0
G1 X-10.800 Y-14.000
G0 Z2.000
G0 X-10.700 Y-14.000 Z2.000
G1 Z0.300 F1000.0
G1 X-10.700 Y-14.000
G0 Z2.000
G0 X-10.600 Y-14.000 Z2.000
G1 Z0.000 F1000.0
G1 X-10.600 Y-14.000
G0 Z2.000
G0 X-10.500 Y-14.000 Z2.000
G1 Z0.300 F1000.0
G1 X-10.400 Y-14.000
G0 Z2.000
G0 X-10.300 Y-14.000 Z2.000
G1 Z0.600 F1000.0
G1 X-10.300 Y-14.000
G0 Z2.000
G0 X-9.700 Y-14.000 Z2.000
G1 Z0.300 F1000.0
G1 X-9.400 Y-14.000
G0 Z2.000
G0 X5.000 Y-14.000 Z2.000
G1 Z0.600 F1000.0
G1 X5.000 Y-14.000
G0 Z2.000
G0 X5.100 Y-14.000 Z2.000
G1 Z0.300 F1000.0
G1 X5.200 Y-14.000
G0 Z2.000
G0 X5.300 Y-14.000 Z2.000
G1 Z0.000 F1000.0
G1 X5.300 Y-14.000
G0 Z2.000
G0 X5.400 Y-14.000 Z2.000
G1 Z0.300 F1000.0
G1 X5.400 Y-14.000
G0 Z2.000
G0 X5.500 Y-14.000 Z2.000
G1 Z0.000 F1000.0
G1 X5.900 Y-14.000
G0 Z2.000
G0 X6.000 Y-14.000 Z2.000
G1 Z0.300 F1000.0
G1 X6.000 Y-14.000
G0 Z2.000
G0 X9.500 Y-14.000 Z2.000
G1 Z0.600 F1000.0
G1 X9.500 Y-14.000
G0 Z2.000
G0 X9.600 Y-14.000 Z2.000
G1 Z0.300 F1000.0
G1 X9.800 Y-14.000
G0 Z2.000
G0 X9.900 Y-14.000 Z2.000
G1 Z0.600 F1000.0
G1 X9.900 Y-14.000
G0 Z2.000
G0 X-15.600 Y-13.900 Z2.000
G1 Z0.600 F1000.0
G1 X-15.600 Y-13.900
G0 Z2.000
G0 X-15.500 Y-13.900 Z2.000
G1 Z0.300 F1000.0
G1 X-15.300 Y-13.900
G0 Z2.000
G0 X-10.900 Y-13.900 Z2.000
G1 Z0.600 F1000.0
G1 X-10.900 Y-13.900
G0 Z2.000
G0 X-10.800 Y-13.900 Z2.000
G1 Z0.300 F1000.0
G1 X-10.700 Y-13.900
G0 Z2.000
G0 X-10.600 Y-13.900 Z2.000
G1 Z0.000 F1000.0
G1 X-10.600 Y-13.900
G0 Z2.000
G0 X-10.500 Y-13.900 Z2.000
G1 Z0.300 F1000.0
G1 X-10.500 Y-13.900
G0 Z2.000
G0 X-10.400 Y-13.900 Z2.000
G1 Z0.600 F1000.0
G1 X-10.400 Y-13.900
G0 Z2.000
G0 X-9.700 Y-13.900 Z2.000
G1 Z0.300 F1000.0
G1 X-9.500 Y-13.900
G0 Z2.000
G0 X-9.400 Y-13.900 Z2.000
G1 Z0.600 F1000.0
G1 X-9.400 Y-13.900
G0 Z2.000
G0 X4.800 Y-13.900 Z2.000
G1 Z0.600 F1000.0
G1 X4.900 Y-13.900
G0 Z2.000
G0 X5.000 Y-13.900 Z2.000
G1 Z0.300 F1000.0
G1 X5.400 Y-13.900
G0 Z2.000
G0 X5.500 Y-13.900 Z2.000
G1 Z0.000 F1000.0
G1 X6.000 Y-13.900
G0 Z2.000
G0 X6.100 Y-13.900 Z2.000
G1 Z0.300 F1000.0
G1 X6.100 Y-13.900
G0 Z2.000
G0 X9.500 Y-13.900 Z2.000
G1 Z0.600 F1000.0
G1 X9.500 Y-13.900
G0 Z2.000
G0 X9.600 Y-13.900 Z2.000
G1 Z0.300 F1000.0
G1 X9.900 Y-13.900
G0 Z2.000
G0 X10.000 Y-13.900 Z2.000
G1 Z0.600 F1000.0
G1 X10.000 Y-13.900
G0 Z2.000
G0 X-15.600 Y-13.800 Z2.000
G1 Z0.600 F1000.0
G1 X-15.600 Y-13.800
G0 Z2.000
G0 X-15.500 Y-13.800 Z2.000
G1 Z0.300 F1000.0
G1 X-15.400 Y-13.800
G0 Z2.000
G0 X-15.300 Y-13.800 Z2.000
G1 Z0.600 F1000.0
G1 X-15.300 Y-13.800
G0 Z2.000
G0 X-10.900 Y-13.800 Z2.000
G1 Z0.300 F1000.0
G1 X-10.800 Y-13.800
G0 Z2.000
G0 X-10.700 Y-13.800 Z2.000
G1 Z0.000 F1000.0
G1 X-10.700 Y-13.800
G0 Z2.000
G0 X-10.600 Y-13.800 Z2.000
G1 Z0.300 F1000.0
G1 X-10.600 Y-13.800
G0 Z2.000
G0 X-10.500 Y-13.800 Z2.000
G1 Z0.600 F1000.0
G1 X-10.500 Y-13.800
G0 Z2.000
G0 X-9.700 Y-13.800 Z2.000
G1 Z0.300 F1000.0
G1 X-9.500 Y-13.800
G0 Z2.000
G0 X-9.400 Y-13.800 Z2.000
G1 Z0.600 F1000.0
G1 X-9.400 Y-13.800
G0 Z2.000
G0 X4.700 Y-13.800 Z2.000
G1 Z0.600 F1000.0
G1 X4.700 Y-13.800
G0 Z2.000
G0 X4.800 Y-13.800 Z2.000
G1 Z0.300 F1000.0
G1 X5.500 Y-13.800
G0 Z2.000
G0 X5.600 Y-13.800 Z2.000
G1 Z0.000 F1000.0
G1 X6.000 Y-13.800
G0 Z2.000
G0 X6.100 Y-13.800 Z2.000
G1 Z0.300 F1000.0
G1 X6.100 Y-13.800
G0 Z2.000
G0 X6.200 Y-13.800 Z2.000
G1 Z0.600 F1000.0
G1 X6.200 Y-13.800
G0 Z2.000
G0 X9.600 Y-13.800 Z2.000
G1 Z0.600 F1000.0
G1 X9.600 Y-13.800
G0 Z2.000
G0 X9.700 Y-13.800 Z2.000
G1 Z0.300 F1000.0
G1 X9.900 Y-13.800
G0 Z2.000
G0 X10.000 Y-13.800 Z2.000
G1 Z0.600 F1000.0
G1 X10.000 Y-13.800
G0 Z2.000
G0 X-15.700 Y-13.700 Z2.000
G1 Z0.600 F1000.0
G1 X-15.700 Y-13.700
G0 Z2.000
G0 X-15.600 Y-13.700 Z2.000
G1 Z0.300 F1000.0
G1 X-15.500 Y-13.700
G0 Z2.000
G0 X-15.400 Y-13.700 Z2.000
G1 Z0.600 F1000.0
G1 X-15.400 Y-13.700
G0 Z2.000
G0 X-11.000 Y-13.700 Z2.000
G1 Z0.300 F1000.0
G1 X-11.000 Y-13.700
G0 Z2.000
G0 X-10.900 Y-13.700 Z2.000
G1 Z0.000 F1000.0
G1 X-10.900 Y-13.700
G0 Z2.000
G0 X-10.800 Y-13.700 Z2.000
G1 Z0.300 F1000.0
G1 X-10.700 Y-13.700
G0 Z2.000
G0 X-10.600 Y-13.700 Z2.000
G1 Z0.600 F1000.0
G1 X-10.600 Y-13.700
G0 Z2.000
G0 X-9.800 Y-13.700 Z2.000
G1 Z0.600 F1000.0
G1 X-9.800 Y-13.700
G0 Z2.000
G0 X-9.700 Y-13.700 Z2.000
G1 Z0.300 F1000.0
G1 X-9.700 Y-13.700
G0 Z2.000
G0 X-9.600 Y-13.700 Z2.000
G1 Z0.000 F1000.0
G1 X-9.600 Y-13.700
G0 Z2.000
G0 X-9.500 Y-13.700 Z2.000
G1 Z0.300 F1000.0
G1 X-9.500 Y-13.700
G0 Z2.000
G0 X-9.400 Y-13.700 Z2.000
G1 Z0.600 F1000.0
G1 X-9.400 Y-13.700
G0 Z2.000
G0 X4.700 Y-13.700 Z2.000
G1 Z0.600 F1000.0
G1 X4.700 Y-13.700
G0 Z2.000
G0 X4.800 Y-13.700 Z2.000
G1 Z0.300 F1000.0
G1 X4.800 Y-13.700
G0 Z2.000
G0 X4.900 Y-13.700 Z2.000
G1 Z0.000 F1000.0
G1 X4.900 Y-13.700
G0 Z2.000
G0 X5.000 Y-13.700 Z2.000
G1 Z0.300 F1000.0
G1 X5.000 Y-13.700
G0 Z2.000
G0 X5.100 Y-13.700 Z2.000
G1 Z0.600 F1000.0
G1 X5.200 Y-13.700
G0 Z2.000
G0 X5.300 Y-13.700 Z2.000
G1 Z0.300 F1000.0
G1 X5.500 Y-13.700
G0 Z2.000
G0 X5.600 Y-13.700 Z2.000
G1 Z0.000 F1000.0
G1 X6.000 Y-13.700
G0 Z2.000
G0 X6.100 Y-13.700 Z2.000
G1 Z0.300 F1000.0
G1 X6.200 Y-13.700
G0 Z2.000
G0 X6.300 Y-13.700 Z2.000
G1 Z0.600 F1000.0
G1 X6.300 Y-13.700
G0 Z2.000
G0 X9.600 Y-13.700 Z2.000
G1 Z0.600 F1000.0
G1 X9.700 Y-13.700
G0 Z2.000
G0 X9.800 Y-13.700 Z2.000
G1 Z0.300 F1000.0
G1 X10.000 Y-13.700
G0 Z2.000
G0 X10.100 Y-13.700 Z2.000
G1 Z0.600 F1000.0
G1 X10.100 Y-13.700
G0 Z2.000
G0 X-15.700 Y-13.600 Z2.000
G1 Z0.600 F1000.0
G1 X-15.700 Y-13.600
G0 Z2.000
G0 X-15.600 Y-13.600 Z2.000
G1 Z0.300 F1000.0
G1 X-15.500 Y-13.600
G0 Z2.000
G0 X-15.400 Y-13.600 Z2.000
G1 Z0.600 F1000.0
G1 X-15.400 Y-13.600
G0 Z2.000
G0 X-11.100 Y-13.600 Z2.000
G1 Z0.600 F1000.0
G1 X-11.100 Y-13.600
G0 Z2.000
G0 X-11.000 Y-13.600 Z2.000
G1 Z0.300 F1000.0
G1 X-11.000 Y-13.600
G0 Z2.000
G0 X-10.900 Y-13.600 Z2.000
G1 Z0.000 F1000.0
G1 X-10.900 Y-13.600
G0 Z2.000
G0 X-10.800 Y-13.600 Z2.000
G1 Z0.300 F1000.0
G1 X-10.800 Y-13.600
G0 Z2.000
G0 X-10.700 Y-13.600 Z2.000
G1 Z0.600 F1000.0
G1 X-10.700 Y-13.600
G0 Z2.000
G0 X-9.800 Y-13.600 Z2.000
G1 Z0.300 F1000.0
G1 X-9.800 Y-13.600
G0 Z2.000
G0 X-9.700 Y-13.600 Z2.000
G1 Z0.000 F1000.0
G1 X-9.700 Y-13.600
G0 Z2.000
G0 X-9.600 Y-13.600 Z2.000
G1 Z0.300 F1000.0
G1 X-9.500 Y-13.600
G0 Z2.000
G0 X4.600 Y-13.600 Z2.000
G1 Z0.600 F1000.0
G1 X4.600 Y-13.600
G0 Z2.000
G0 X4.700 Y-13.600 Z2.000
G1 Z0.300 F1000.0
G1 X4.800 Y-13.600
G0 Z2.000
G0 X4.900 Y-13.600 Z2.000
G1 Z0.000 F1000.0
G1 X4.900 Y-13.600
G0 Z2.000
G0 X5.000 Y-13.600 Z2.000
G1 Z0.300 F1000.0
G1 X5.000 Y-13.600
G0 Z2.000
G0 X5.100 Y-13.600 Z2.000
G1 Z0.600 F1000.0
G1 X5.200 Y-13.600
G0 Z2.000
G0 X5.300 Y-13.600 Z2.000
G1 Z0.300 F1000.0
G1 X5.500 Y-13.600
G0 Z2.000
G0 X5.600 Y-13.600 Z2.000
G1 Z0.000 F1000.0
G1 X5.600 Y-13.600
G0 Z2.000
G0 X5.700 Y-13.600 Z2.000
G1 Z0.300 F1000.0
G1 X5.800 Y-13.600
G0 Z2.000
G0 X5.900 Y-13.600 Z2.000
G1 Z0.000 F1000.0
G1 X6.000 Y-13.600
G0 Z2.000
G0 X6.100 Y-13.600 Z2.000
G1 Z0.300 F1000.0
G1 X6.200 Y-13.600
G0 Z2.000
G0 X6.300 Y-13.600 Z2.000
G1 Z0.600 F1000.0
G1 X6.300 Y-13.600
G0 Z2.000
G0 X9.700 Y-13.600 Z2.000
G1 Z0.600 F1000.0
G1 X9.700 Y-13.600
G0 Z2.000
G0 X9.800 Y-13.600 Z2.000
G1 Z0.300 F1000.0
G1 X10.100 Y-13.600
G0 Z2.000
G0 X10.200 Y-13.600 Z2.000
G1 Z0.600 F1000.0
G1 X10.200 Y-13.600
G0 Z2.000
G0 X-15.700 Y-13.500 Z2.000
G1 Z0.600 F1000.0
G1 X-15.700 Y-13.500
G0 Z2.000
G0 X-15.600 Y-13.500 Z2.000
G1 Z0.300 F1000.0
G1 X-15.600 Y-13.500
G0 Z2.000
G0 X-15.500 Y-13.500 Z2.000
G1 Z0.600 F1000.0
G1 X-15.500 Y-13.500
G0 Z2.000
G0 X-11.100 Y-13.500 Z2.000
G1 Z0.300 F1000.0
G1 X-11.100 Y-13.500
G0 Z2.000
G0 X-11.000 Y-13.500 Z2.000
G1 Z0.000 F1000.0
G1 X-10.900 Y-13.500
G0 Z2.000
G0 X-10.800 Y-13.500 Z2.000
G1 Z0.600 F1000.0
G1 X-10.800 Y-13.500
G0 Z2.000
G0 X-9.800 Y-13.500 Z2.000
G1 Z0.300 F1000.0
G1 X-9.600 Y-13.500
G0 Z2.000
G0 X-9.500 Y-13.500 Z2.000
G1 Z0.600 F1000.0
G1 X-9.500 Y-13.500
G0 Z2.000
G0 X4.500 Y-13.500 Z2.000
G1 Z0.600 F1000.0
G1 X4.500 Y-13.500
G0 Z2.000
G0 X4.600 Y-13.500 Z2.000
G1 Z0.300 F1000.0
G1 X4.900 Y-13.500
G0 Z2.000
G0 X5.000 Y-13.500 Z2.000
G1 Z0.600 F1000.0
G1 X5.100 Y-13.500
G0 Z2.000
G0 X5.200 Y-13.500 Z2.000
G1 Z0.300 F1000.0
G1 X5.800 Y-13.500
G0 Z2.000
G0 X5.900 Y-13.500 Z2.000
G1 Z0.000 F1000.0
G1 X5.900 Y-13.500
G0 Z2.000
G0 X6.000 Y-13.500 Z2.000
G1 Z0.300 F1000.0
G1 X6.200 Y-13.500
G0 Z2.000
G0 X6.300 Y-13.500 Z2.000
G1 Z0.600 F1000.0
G1 X6.400 Y-13.500
G0 Z2.000
G0 X9.800 Y-13.500 Z2.000
G1 Z0.600 F1000.0
G1 X9.800 Y-13.500
G0 Z2.000
G0 X9.900 Y-13.500 Z2.000
G1 Z0.300 F1000.0
G1 X9.900 Y-13.500
G0 Z2.000
G0 X10.000 Y-13.500 Z2.000
G1 Z0.000 F1000.0
G1 X10.000 Y-13.500
G0 Z2.000
G0 X10.100 Y-13.500 Z2.000
G1 Z0.300 F1000.0
G1 X10.100 Y-13.500
G0 Z2.000
G0 X10.200 Y-13.500 Z2.000
G1 Z0.600 F1000.0
G1 X10.200 Y-13.500
G0 Z2.000
G0 X-15.800 Y-13.400 Z2.000
G1 Z0.600 F1000.0
G1 X-15.800 Y-13.400
G0 Z2.000
G0 X-15.700 Y-13.400 Z2.000
G1 Z0.300 F1000.0
G1 X-15.600 Y-13.400
G0 Z2.000
G0 X-11.200 Y-13.400 Z2.000
G1 Z0.600 F1000.0
G1 X-11.200 Y-13.400
G0 Z2.000
G0 X-11.100 Y-13.400 Z2.000
G1 Z0.300 F1000.0
G1 X-11.100 Y-13.400
G0 Z2.000
G0 X-11.000 Y-13.400 Z2.000
G1 Z0.000 F1000.0
G1 X-11.000 Y-13.400
G0 Z2.000
G0 X-10.900 Y-13.400 Z2.000
G1 Z0.300 F1000.0
G1 X-10.900 Y-13.400
G0 Z2.000
G0 X-9.900 Y-13.400 Z2.000
G1 Z0.600 F1000.0
G1 X-9.900 Y-13.400
G0 Z2.000
G0 X-9.800 Y-13.400 Z2.000
G1 Z0.300 F1000.0
G1 X-9.600 Y-13.400
G0 Z2.000
G0 X-9.500 Y-13.400 Z2.000
G1 Z0.600 F1000.0
G1 X-9.500 Y-13.400
G0 Z2.000
G0 X4.400 Y-13.400 Z2.000
G1 Z0.600 F1000.0
G1 X4.400 Y-13.400
G0 Z2.000
G0 X4.500 Y-13.400 Z2.000
G1 Z0.300 F1000.0
G1 X4.800 Y-13.400
G0 Z2.000
G0 X4.900 Y-13.400 Z2.000
G1 Z0.600 F1000.0
G1 X4.900 Y-13.400
G0 Z2.000
G0 X5.100 Y-13.400 Z2.000
G1 Z0.600 F1000.0
G1 X5.100 Y-13.400
G0 Z2.000
G0 X5.200 Y-13.400 Z2.000
G1 Z0.300 F1000.0
G1 X6.400 Y-13.400
G0 Z2.000
G0 X6.500 Y-13.400 Z2.000
G1 Z0.600 F1000.0
G1 X6.500 Y-13.400
G0 Z2.000
G0 X9.900 Y-13.400 Z2.000
G1 Z0.300 F1000.0
G1 X10.200 Y-13.400
G0 Z2.000
G0 X10.300 Y-13.400 Z2.000
G1 Z0.600 F1000.0
G1 X10.300 Y-13.400
G0 Z2.000
G0 X-15.900 Y-13.300 Z2.000
G1 Z0.600 F1000.0
G1 X-15.900 Y-13.300
G0 Z2.000
G0 X-15.800 Y-13.300 Z2.000
G1 Z0.300 F1000.0
G1 X-15.700 Y-13.300
G0 Z2.000
G0 X-15.600 Y-13.300 Z2.000
G1 Z0.600 F1000.0
G1 X-15.600 Y-13.300
G0 Z2.000
G0 X-11.200 Y-13.300 Z2.000
G1 Z0.300 F1000.0
G1 X-11.200 Y-13.300
G0 Z2.000
G0 X-11.100 Y-13.300 Z2.000
G1 Z0.000 F1000.0
G1 X-11.100 Y-13.300
G0 Z2.000
G0 X-11.000 Y-13.300 Z2.000
G1 Z0.300 F1000.0
G1 X-11.000 Y-13.300
G0 Z2.000
G0 X-10.900 Y-13.300 Z2.000
G1 Z0.600 F1000.0
G1 X-10.900 Y-13.300
G0 Z2.000
G0 X-9.900 Y-13.300 Z2.000
G1 Z0.600 F1000.0
G1 X-9.900 Y-13.300
G0 Z2.000
G0 X-9.800 Y-13.300 Z2.000
G1 Z0.300 F1000.0
G1 X-9.600 Y-13.300
G0 Z2.000
G0 X-9.500 Y-13.300 Z2.000
G1 Z0.600 F1000.0
G1 X-9.500 Y-13.300
G0 Z2.000
G0 X4.400 Y-13.300 Z2.000
G1 Z0.600 F1000.0
G1 X4.400 Y-13.300
G0 Z2.000
G0 X4.500 Y-13.300 Z2.000
G1 Z0.300 F1000.0
G1 X4.700 Y-13.300
G0 Z2.000
G0 X4.800 Y-13.300 Z2.000
G1 Z0.600 F1000.0
G1 X4.800 Y-13.300
G0 Z2.000
G0 X5.100 Y-13.300 Z2.000
G1 Z0.600 F1000.0
G1 X5.100 Y-13.300
G0 Z2.000
G0 X5.200 Y-13.300 Z2.000
G1 Z0.300 F1000.0
G1 X6.400 Y-13.300
G0 Z2.000
G0 X6.500 Y-13.300 Z2.000
G1 Z0.600 F1000.0
G1 X6.500 Y-13.300
G0 Z2.000
G0 X9.900 Y-13.300 Z2.000
G1 Z0.600 F1000.0
G1 X9.900 Y-13.300
G0 Z2.000
G0 X10.000 Y-13.300 Z2.000
G1 Z0.300 F1000.0
G1 X10.200 Y-13.300
G0 Z2.000
G0 X10.300 Y-13.300 Z2.000
G1 Z0.600 F1000.0
G1 X10.300 Y-13.300
G0 Z2.000
G0 X-15.900 Y-13.200 Z2.000
G1 Z0.600 F1000.0
G1 X-15.900 Y-13.200
G0 Z2.000
G0 X-15.800 Y-13.200 Z2.000
G1 Z0.300 F1000.0
G1 X-15.800 Y-13.200
G0 Z2.000
G0 X-15.700 Y-13.200 Z2.000
G1 Z0.600 F1000.0
G1 X-15.700 Y-13.200
G0 Z2.000
G0 X-11.200 Y-13.200 Z2.000
G1 Z0.000 F1000.0
G1 X-11.100 Y-13.200
G0 Z2.000
G0 X-11.000 Y-13.200 Z2.000
G1 Z0.300 F1000.0
G1 X-11.000 Y-13.200
G0 Z2.000
G0 X-10.000 Y-13.200 Z2.000
G1 Z0.600 F1000.0
G1 X-10.000 Y-13.200
G0 Z2.000
G0 X-9.900 Y-13.200 Z2.000
G1 Z0.300 F1000.0
G1 X-9.600 Y-13.200
G0 Z2.000
G0 X-9.500 Y-13.200 Z2.000
G1 Z0.600 F1000.0
G1 X-9.500 Y-13.200
G0 Z2.000
G0 X4.300 Y-13.200 Z2.000
G1 Z0.600 F1000.0
G1 X4.300 Y-13.200
G0 Z2.000
G0 X4.400 Y-13.200 Z2.000
G1 Z0.300 F1000.0
G1 X4.500 Y-13.200
G0 Z2.000
G0 X4.600 Y-13.200 Z2.000
G1 Z0.000 F1000.0
G1 X4.600 Y-13.200
G0 Z2.000
G0 X4.700 Y-13.200 Z2.000
G1 Z0.300 F1000.0
G1 X4.700 Y-13.200
G0 Z2.000
G0 X5.100 Y-13.200 Z2.000
G1 Z0.600 F1000.0
G1 X5.100 Y-13.200
G0 Z2.000
G0 X5.200 Y-13.200 Z2.000
G1 Z0.300 F1000.0
G1 X6.500 Y-13.200
G0 Z2.000
G0 X6.600 Y-13.200 Z2.000
G1 Z0.600 F1000.0
G1 X6.600 Y-13.200
G0 Z2.000
G0 X10.000 Y-13.200 Z2.000
G1 Z0.300 F1000.0
G1 X10.000 Y-13.200
G0 Z2.000
G0 X10.100 Y-13.200 Z2.000
G1 Z0.000 F1000.0
G1 X10.100 Y-13.200
G0 Z2.000
G0 X10.200 Y-13.200 Z2.000
G1 Z0.300 F1000.0
G1 X10.300 Y-13.200
G0 Z2.000
G0 X10.400 Y-13.200 Z2.000
G1 Z0.600 F1000.0
G1 X10.400 Y-13.200
G0 Z2.000
G0 X-16.000 Y-13.100 Z2.000
G1 Z0.600 F1000.0
G1 X-16.000 Y-13.100
G0 Z2.000
G0 X-15.900 Y-13.100 Z2.000
G1 Z0.300 F1000.0
G1 X-15.900 Y-13.100
G0 Z2.000
G0 X-15.800 Y-13.100 Z2.000
G1 Z0.600 F1000.0
G1 X-15.700 Y-13.100
G0 Z2.000
G0 X-11.300 Y-13.100 Z2.000
G1 Z0.600 F1000.0
G1 X-11.300 Y-13.100
G0 Z2.000
G0 X-11.200 Y-13.100 Z2.000
G1 Z0.300 F1000.0
G1 X-11.100 Y-13.100
G0 Z2.000
G0 X-11.000 Y-13.100 Z2.000
G1 Z0.600 F1000.0
G1 X-11.000 Y-13.100
G0 Z2.000
G0 X-10.000 Y-13.100 Z2.000
G1 Z0.600 F1000.0
G1 X-10.000 Y-13.100
G0 Z2.000
G0 X-9.900 Y-13.100 Z2.000
G1 Z0.300 F1000.0
G1 X-9.700 Y-13.100
G0 Z2.000
G0 X-9.600 Y-13.100 Z2.000
G1 Z0.600 F1000.0
G1 X-9.600 Y-13.100
G0 Z2.000
G0 X4.200 Y-13.100 Z2.000
G1 Z0.600 F1000.0
G1 X4.200 Y-13.100
G0 Z2.000
G0 X4.300 Y-13.100 Z2.000
G1 Z0.300 F1000.0
G1 X4.500 Y-13.100
G0 Z2.000
G0 X4.600 Y-13.100 Z2.000
G1 Z0.000 F1000.0
G1 X4.600 Y-13.100
G0 Z2.000
G0 X4.700 Y-13.100 Z2.000
G1 Z0.600 F1000.0
G1 X4.700 Y-13.100
G0 Z2.000
G0 X5.000 Y-13.100 Z2.000
G1 Z0.600 F1000.0
G1 X5.000 Y-13.100
G0 Z2.000
G0 X5.100 Y-13.100 Z2.000
G1 Z0.300 F1000.0
G1 X5.600 Y-13.100
G0 Z2.000
G0 X5.700 Y-13.100 Z2.000
G1 Z0.000 F1000.0
G1 X5.700 Y-13.100
G0 Z2.000
G0 X5.800 Y-13.100 Z2.000
G1 Z0.300 F1000.0
G1 X6.600 Y-13.100
G0 Z2.000
G0 X6.700 Y-13.100 Z2.000
G1 Z0.600 F1000.0
G1 X6.700 Y-13.100
G0 Z2.000
G0 X10.000 Y-13.100 Z2.000
G1 Z0.600 F1000.0
G1 X10.000 Y-13.100
G0 Z2.000
G0 X10.100 Y-13.100 Z2.000
G1 Z0.000 F1000.0
G1 X10.200 Y-13.100
G0 Z2.000
G0 X10.300 Y-13.100 Z2.000
G1 Z0.300 F1000.0
G1 X10.300 Y-13.100
G0 Z2.000
G0 X10.400 Y-13.100 Z2.000
G1 Z0.600 F1000.0
G1 X10.400 Y-13.100
G0 Z2.000
G0 X-16.100 Y-13.000 Z2.000
G1 Z0.600 F1000.0
G1 X-16.100 Y-13.000
G0 Z2.000
G0 X-16.000 Y-13.000 Z2.000
G1 Z0.300 F1000.0
G1 X-15.900 Y-13.000
G0 Z2.000
G0 X-15.800 Y-13.000 Z2.000
G1 Z0.600 F1000.0
G1 X-15.800 Y-13.000
G0 Z2.000
G0 X-11.300 Y-13.000 Z2.000
G1 Z0.300 F1000.0
G1 X-11.100 Y-13.000
G0 Z2.000
G0 X-11.000 Y-13.000 Z2.000
G1 Z0.600 F1000.0
G1 X-11.000 Y-13.000
G0 Z2.000
G0 X-10.000 Y-13.000 Z2.000
G1 Z0.600 F1000.0
G1 X-10.000 Y-13.000
G0 Z2.000
G0 X-9.900 Y-13.000 Z2.000
G1 Z0.300 F1000.0
G1 X-9.700 Y-13.000
G0 Z2.000
G0 X-9.600 Y-13.000 Z2.000
G1 Z0.600 F1000.0
G1 X-9.600 Y-13.000
G0 Z2.000
G0 X4.200 Y-13.000 Z2.000
G1 Z0.600 F1000.0
G1 X4.200 Y-13.000
G0 Z2.000
G0 X4.300 Y-13.000 Z2.000
G1 Z0.300 F1000.0
G1 X4.500 Y-13.000
G0 Z2.000
G0 X4.600 Y-13.000 Z2.000
G1 Z0.600 F1000.0
G1 X4.600 Y-13.000
G0 Z2.000
G0 X5.000 Y-13.000 Z2.000
G1 Z0.300 F1000.0
G1 X5.300 Y-13.000
G0 Z2.000
G0 X5.400 Y-13.000 Z2.000
G1 Z0.600 F1000.0
G1 X5.400 Y-13.000
G0 Z2.000
G0 X5.500 Y-13.000 Z2.000
G1 Z0.300 F1000.0
G1 X6.600 Y-13.000
G0 Z2.000
G0 X6.700 Y-13.000 Z2.000
G1 Z0.600 F1000.0
G1 X6.700 Y-13.000
G0 Z2.000
G0 X10.100 Y-13.000 Z2.000
G1 Z0.000 F1000.0
G1 X10.300 Y-13.000
G0 Z2.000
G0 X10.400 Y-13.000 Z2.000
G1 Z0.300 F1000.0
G1 X10.400 Y-13.000
G0 Z2.000
G0 X10.500 Y-13.000 Z2.000
G1 Z0.600 F1000.0
G1 X10.500 Y-13.000
G0 Z2.000
G0 X-16.200 Y-12.900 Z2.000
G1 Z0.600 F1000.0
G1 X-16.200 Y-12.900
G0 Z2.000
G0 X-16.100 Y-12.900 Z2.000
G1 Z0.300 F1000.0
G1 X-16.000 Y-12.900
G0 Z2.000
G0 X-15.900 Y-12.900 Z2.000
G1 Z0.600 F1000.0
G1 X-15.900 Y-12.900
G0 Z2.000
G0 X-11.400 Y-12.900 Z2.000
G1 Z0.600 F1000.0
G1 X-11.400 Y-12.900
G0 Z2.000
G0 X-11.300 Y-12.900 Z2.000
G1 Z0.000 F1000.0
G1 X-11.300 Y-12.900
G0 Z2.000
G0 X-11.200 Y-12.900 Z2.000
G1 Z0.300 F1000.0
G1 X-11.200 Y-12.900
G0 Z2.000
G0 X-11.100 Y-12.900 Z2.000
G1 Z0.600 F1000.0
G1 X-11.100 Y-12.900
G0 Z2.000
G0 X-10.000 Y-12.900 Z2.000
G1 Z0.600 F1000.0
G1 X-10.000 Y-12.900
G0 Z2.000
G0 X-9.900 Y-12.900 Z2.000
G1 Z0.300 F1000.0
G1 X-9.700 Y-12.900
G0 Z2.000
G0 X4.000 Y-12.900 Z2.000
G1 Z0.600 F1000.0
G1 X4.100 Y-12.900
G0 Z2.000
G0 X4.200 Y-12.900 Z2.000
G1 Z0.300 F1000.0
G1 X4.400 Y-12.900
G0 Z2.000
G0 X4.500 Y-12.900 Z2.000
G1 Z0.600 F1000.0
G1 X4.500 Y-12.900
G0 Z2.000
G0 X5.000 Y-12.900 Z2.000
G1 Z0.300 F1000.0
G1 X5.000 Y-12.900
G0 Z2.000
G0 X5.100 Y-12.900 Z2.000
G1 Z0.000 F1000.0
G1 X5.200 Y-12.900
G0 Z2.000
G0 X5.300 Y-12.900 Z2.000
G1 Z0.300 F1000.0
G1 X6.600 Y-12.900
G0 Z2.000
G0 X6.700 Y-12.900 Z2.000
G1 Z0.600 F1000.0
G1 X6.700 Y-12.900
G0 Z2.000
G0 X10.100 Y-12.900 Z2.000
G1 Z0.600 F1000.0
G1 X10.100 Y-12.900
G0 Z2.000
G0 X10.200 Y-12.900 Z2.000
G1 Z0.000 F1000.0
G1 X10.300 Y-12.900
G0 Z2.000
G0 X10.400 Y-12.900 Z2.000
G1 Z0.300 F1000.0
G1 X10.400 Y-12.900
G0 Z2.000
G0 X10.500 Y-12.900 Z2.000
G1 Z0.600 F1000.0
G1 X10.500 Y-12.900
G0 Z2.000
G0 X-16.200 Y-12.800 Z2.000
G1 Z0.600 F1000.0
G1 X-16.200 Y-12.800
G0 Z2.000
G0 X-16.100 Y-12.800 Z2.000
G1 Z0.300 F1000.0
G1 X-16.000 Y-12.800
G0 Z2.000
G0 X-15.900 Y-12.800 Z2.000
G1 Z0.600 F1000.0
G1 X-15.900 Y-12.800
G0 Z2.000
G0 X-11.400 Y-12.800 Z2.000
G1 Z0.600 F1000.0
G1 X-11.400 Y-12.800
G0 Z2.000
G0 X-11.300 Y-12.800 Z2.000
G1 Z0.000 F1000.0
G1 X-11.300 Y-12.800
G0 Z2.000
G0 X-11.200 Y-12.800 Z2.000
G1 Z0.300 F1000.0
G1 X-11.200 Y-12.800
G0 Z2.000
G0 X-11.100 Y-12.800 Z2.000
G1 Z0.600 F1000.0
G1 X-11.100 Y-12.800
G0 Z2.000
G0 X-10.000 Y-12.800 Z2.000
G1 Z0.600 F1000.0
G1 X-10.000 Y-12.800
G0 Z2.000
G0 X-9.900 Y-12.800 Z2.000
G1 Z0.300 F1000.0
G1 X-9.800 Y-12.800
G0 Z2.000
G0 X-9.700 Y-12.800 Z2.000
G1 Z0.600 F1000.0
G1 X-9.700 Y-12.800
G0 Z2.000
G0 X4.000 Y-12.800 Z2.000
G1 Z0.600 F1000.0
G1 X4.000 Y-12.800
G0 Z2.000
G0 X4.100 Y-12.800 Z2.000
G1 Z0.300 F1000.0
G1 X4.300 Y-12.800
G0 Z2.000
G0 X4.400 Y-12.800 Z2.000
G1 Z0.600 F1000.0
G1 X4.400 Y-12.800
G0 Z2.000
G0 X4.900 Y-12.800 Z2.000
G1 Z0.600 F1000.0
G1 X4.900 Y-12.800
G0 Z2.000
G0 X5.000 Y-12.800 Z2.000
G1 Z0.000 F1000.0
G1 X5.200 Y-12.800
G0 Z2.000
G0 X5.300 Y-12.800 Z2.000
G1 Z0.300 F1000.0
G1 X6.300 Y-12.800
G0 Z2.000
G0 X6.400 Y-12.800 Z2.000
G1 Z0.600 F1000.0
G1 X6.400 Y-12.800
G0 Z2.000
G0 X6.500 Y-12.800 Z2.000
G1 Z0.300 F1000.0
G1 X6.700 Y-12.800
G0 Z2.000
G0 X6.800 Y-12.800 Z2.000
G1 Z0.600 F1000.0
G1 X6.800 Y-12.800
G0 Z2.000
G0 X10.200 Y-12.800 Z2.000
G1 Z0.300 F1000.0
G1 X10.300 Y-12.800
G0 Z2.000
G0 X10.400 Y-12.800 Z2.000
G1 Z0.000 F1000.0
G1 X10.400 Y-12.800
G0 Z2.000
G0 X10.500 Y-12.800 Z2.000
G1 Z0.300 F1000.0
G1 X10.500 Y-12.800
G0 Z2.000
G0 X10.600 Y-12.800 Z2.000
G1 Z0.600 F1000.0
G1 X10.600 Y-12.800
G0 Z2.000
G0 X-16.300 Y-12.700 Z2.000
G1 Z0.600 F1000.0
G1 X-16.300 Y-12.700
G0 Z2.000
G0 X-16.200 Y-12.700 Z2.000
G1 Z0.300 F1000.0
G1 X-16.100 Y-12.700
G0 Z2.000
G0 X-16.000 Y-12.700 Z2.000
G1 Z0.600 F1000.0
G1 X-16.000 Y-12.700
G0 Z2.000
G0 X-11.400 Y-12.700 Z2.000
G1 Z0.600 F1000.0
G1 X-11.400 Y-12.700
G0 Z2.000
G0 X-11.300 Y-12.700 Z2.000
G1 Z0.000 F1000.0
G1 X-11.300 Y-12.700
G0 Z2.000
G0 X-11.200 Y-12.700 Z2.000
G1 Z0.300 F1000.0
G1 X-11.200 Y-12.700
G0 Z2.000
G0 X-10.000 Y-12.700 Z2.000
G1 Z0.600 F1000.0
G1 X-10.000 Y-12.700
G0 Z2.000
G0 X-9.900 Y-12.700 Z2.000
G1 Z0.300 F1000.0
G1 X-9.800 Y-12.700
G0 Z2.000
G0 X-9.700 Y-12.700 Z2.000
G1 Z0.600 F1000.0
G1 X-9.700 Y-12.700
G0 Z2.000
G0 X3.900 Y-12.700 Z2.000
G1 Z0.600 F1000.0
G1 X3.900 Y-12.700
G0 Z2.000
G0 X4.000 Y-12.700 Z2.000
G1 Z0.300 F1000.0
G1 X4.200 Y-12.700
G0 Z2.000
G0 X4.300 Y-12.700 Z2.000
G1 Z0.600 F1000.0
G1 X4.300 Y-12.700
G0 Z2.000
G0 X4.900 Y-12.700 Z2.000
G1 Z0.300 F1000.0
G1 X4.900 Y-12.700
G0 Z2.000
G0 X5.000 Y-12.700 Z2.000
G1 Z0.000 F1000.0
G1 X5.200 Y-12.700
G0 Z2.000
G0 X5.300 Y-12.700 Z2.000
G1 Z0.300 F1000.0
G1 X5.600 Y-12.700
G0 Z2.000
G0 X5.700 Y-12.700 Z2.000
G1 Z0.000 F1000.0
G1 X5.700 Y-12.700
G0 Z2.000
G0 X5.800 Y-12.700 Z2.000
G1 Z0.300 F1000.0
G1 X6.300 Y-12.700
G0 Z2.000
G0 X6.400 Y-12.700 Z2.000
G1 Z0.600 F1000.0
G1 X6.400 Y-12.700
G0 Z2.000
G0 X6.500 Y-12.700 Z2.000
G1 Z0.300 F1000.0
G1 X6.700 Y-12.700
G0 Z2.000
G0 X6.800 Y-12.700 Z2.000
G1 Z0.600 F1000.0
G1 X6.800 Y-12.700
G0 Z2.000
G0 X10.200 Y-12.700 Z2.000
G1 Z0.600 F1000.0
G1 X10.200 Y-12.700
G0 Z2.000
G0 X10.300 Y-12.700 Z2.000
G1 Z0.300 F1000.0
G1 X10.300 Y-12.700
G0 Z2.000
G0 X10.400 Y-12.700 Z2.000
G1 Z0.000 F1000.0
G1 X10.400 Y-12.700
G0 Z2.000
G0 X10.500 Y-12.700 Z2.000
G1 Z0.300 F1000.0
G1 X10.500 Y-12.700
G0 Z2.000
G0 X10.600 Y-12.700 Z2.000
G1 Z0.600 F1000.0
G1 X10.600 Y-12.700
G0 Z2.000
G0 X-16.400 Y-12.600 Z2.000
G1 Z0.600 F1000.0
G1 X-16.400 Y-12.600
G0 Z2.000
G0 X-16.300 Y-12.600 Z2.000
G1 Z0.300 F1000.0
G1 X-16.100 Y-12.600
G0 Z2.000
G0 X-11.400 Y-12.600 Z2.000
G1 Z0.300 F1000.0
G1 X-11.400 Y-12.600
G0 Z2.000
G0 X-11.300 Y-12.600 Z2.000
G1 Z0.000 F1000.0
G1 X-11.300 Y-12.600
G0 Z2.000
G0 X-11.200 Y-12.600 Z2.000
G1 Z0.300 F1000.0
G1 X-11.200 Y-12.600
G0 Z2.000
G0 X-10.000 Y-12.600 Z2.000
G1 Z0.300 F1000.0
G1 X-9.800 Y-12.600
G0 Z2.000
G0 X-9.700 Y-12.600 Z2.000
G1 Z0.600 F1000.0
G1 X-9.700 Y-12.600
G0 Z2.000
G0 X3.800 Y-12.600 Z2.000
G1 Z0.600 F1000.0
G1 X3.800 Y-12.600
G0 Z2.000
G0 X3.900 Y-12.600 Z2.000
G1 Z0.300 F1000.0
G1 X4.200 Y-12.600
G0 Z2.000
G0 X4.300 Y-12.600 Z2.000
G1 Z0.600 F1000.0
G1 X4.300 Y-12.600
G0 Z2.000
G0 X4.900 Y-12.600 Z2.000
G1 Z0.000 F1000.0
G1 X5.000 Y-12.600
G0 Z2.000
G0 X5.100 Y-12.600 Z2.000
G1 Z0.300 F1000.0
G1 X5.500 Y-12.600
G0 Z2.000
G0 X5.600 Y-12.600 Z2.000
G1 Z0.000 F1000.0
G1 X5.900 Y-12.600
G0 Z2.000
G0 X6.000 Y-12.600 Z2.000
G1 Z0.300 F1000.0
G1 X6.000 Y-12.600
G0 Z2.000
G0 X6.100 Y-12.600 Z2.000
G1 Z0.000 F1000.0
G1 X6.200 Y-12.600
G0 Z2.000
G0 X6.300 Y-12.600 Z2.000
G1 Z0.300 F1000.0
G1 X6.800 Y-12.600
G0 Z2.000
G0 X6.900 Y-12.600 Z2.000
G1 Z0.600 F1000.0
G1 X6.900 Y-12.600
G0 Z2.000
G0 X10.300 Y-12.600 Z2.000
G1 Z0.300 F1000.0
G1 X10.400 Y-12.600
G0 Z2.000
G0 X10.500 Y-12.600 Z2.000
G1 Z0.000 F1000.0
G1 X10.500 Y-12.600
G0 Z2.000
G0 X10.600 Y-12.600 Z2.000
G1 Z0.300 F1000.0
G1 X10.600 Y-12.600
G0 Z2.000
G0 X10.700 Y-12.600 Z2.000
G1 Z0.600 F1000.0
G1 X10.700 Y-12.600
G0 Z2.000
G0 X-16.400 Y-12.500 Z2.000
G1 Z0.600 F1000.0
G1 X-16.400 Y-12.500
G0 Z2.000
G0 X-16.300 Y-12.500 Z2.000
G1 Z0.300 F1000.0
G1 X-16.200 Y-12.500
G0 Z2.000
G0 X-16.100 Y-12.500 Z2.000
G1 Z0.600 F1000.0
G1 X-16.100 Y-12.500
G0 Z2.000
G0 X-11.400 Y-12.500 Z2.000
G1 Z0.300 F1000.0
G1 X-11.400 Y-12.500
G0 Z2.000
G0 X-11.300 Y-12.500 Z2.000
G1 Z0.000 F1000.0
G1 X-11.300 Y-12.500
G0 Z2.000
G0 X-11.200 Y-12.500 Z2.000
G1 Z0.600 F1000.0
G1 X-11.200 Y-12.500
G0 Z2.000
G0 X-10.100 Y-12.500 Z2.000
G1 Z0.600 F1000.0
G1 X-10.100 Y-12.500
G0 Z2.000
G0 X-10.000 Y-12.500 Z2.000
G1 Z0.300 F1000.0
G1 X-9.800 Y-12.500
G0 Z2.000
G0 X-9.700 Y-12.500 Z2.000
G1 Z0.600 F1000.0
G1 X-9.700 Y-12.500
G0 Z2.000
G0 X3.800 Y-12.500 Z2.000
G1 Z0.600 F1000.0
G1 X3.800 Y-12.500
G0 Z2.000
G0 X3.900 Y-12.500 Z2.000
G1 Z0.300 F1000.0
G1 X4.100 Y-12.500
G0 Z2.000
G0 X4.200 Y-12.500 Z2.000
G1 Z0.600 F1000.0
G1 X4.200 Y-12.500
G0 Z2.000
G0 X4.800 Y-12.500 Z2.000
G1 Z0.600 F1000.0
G1 X4.800 Y-12.500
G0 Z2.000
G0 X4.900 Y-12.500 Z2.000
G1 Z0.000 F1000.0
G1 X5.000 Y-12.500
G0 Z2.000
G0 X5.100 Y-12.500 Z2.000
G1 Z0.300 F1000.0
G1 X5.400 Y-12.500
G0 Z2.000
G0 X5.500 Y-12.500 Z2.000
G1 Z0.000 F1000.0
G1 X5.800 Y-12.500
G0 Z2.000
G0 X5.900 Y-12.500 Z2.000
G1 Z0.300 F1000.0
G1 X6.000 Y-12.500
G0 Z2.000
G0 X6.100 Y-12.500 Z2.000
G1 Z0.000 F1000.0
G1 X6.400 Y-12.500
G0 Z2.000
G0 X6.500 Y-12.500 Z2.000
G1 Z0.300 F1000.0
G1 X6.800 Y-12.500
G0 Z2.000
G0 X6.900 Y-12.500 Z2.000
G1 Z0.600 F1000.0
G1 X6.900 Y-12.500
G0 Z2.000
G0 X10.400 Y-12.500 Z2.000
G1 Z0.600 F1000.0
G1 X10.400 Y-12.500
G0 Z2.000
G0 X10.500 Y-12.500 Z2.000
G1 Z0.300 F1000.0
G1 X10.700 Y-12.500
G0 Z2.000
G0 X-16.500 Y-12.400 Z2.000
G1 Z0.600 F1000.0
G1 X-16.500 Y-12.400
G0 Z2.000
G0 X-16.400 Y-12.400 Z2.000
G1 Z0.300 F1000.0
G1 X-16.300 Y-12.400
G0 Z2.000
G0 X-16.200 Y-12.400 Z2.000
G1 Z0.600 F1000.0
G1 X-16.200 Y-12.400
G0 Z2.000
G0 X-11.500 Y-12.400 Z2.000
G1 Z0.600 F1000.0
G1 X-11.500 Y-12.400
G0 Z2.000
G0 X-11.400 Y-12.400 Z2.000
G1 Z0.300 F1000.0
G1 X-11.300 Y-12.400
G0 Z2.000
G0 X-11.200 Y-12.400 Z2.000
G1 Z0.600 F1000.0
G1 X-11.200 Y-12.400
G0 Z2.000
G0 X-10.100 Y-12.400 Z2.000
G1 Z0.600 F1000.0
G1 X-10.100 Y-12.400
G0 Z2.000
G0 X-10.000 Y-12.400 Z2.000
G1 Z0.300 F1000.0
G1 X-9.800 Y-12.400
G0 Z2.000
G0 X3.800 Y-12.400 Z2.000
G1 Z0.600 F1000.0
G1 X3.800 Y-12.400
G0 Z2.000
G0 X3.900 Y-12.400 Z2.000
G1 Z0.300 F1000.0
G1 X4.100 Y-12.400
G0 Z2.000
G0 X4.800 Y-12.400 Z2.000
G1 Z0.600 F1000.0
G1 X4.800 Y-12.400
G0 Z2.000
G0 X4.900 Y-12.400 Z2.000
G1 Z0.000 F1000.0
G1 X5.100 Y-12.400
G0 Z2.000
G0 X5.200 Y-12.400 Z2.000
G1 Z0.300 F1000.0
G1 X5.300 Y-12.400
G0 Z2.000
G0 X5.400 Y-12.400 Z2.000
G1 Z0.000 F1000.0
G1 X5.700 Y-12.400
G0 Z2.000
G0 X5.800 Y-12.400 Z2.000
G1 Z0.300 F1000.0
G1 X6.000 Y-12.400
G0 Z2.000
G0 X6.100 Y-12.400 Z2.000
G1 Z0.000 F1000.0
G1 X6.400 Y-12.400
G0 Z2.000
G0 X6.500 Y-12.400 Z2.000
G1 Z0.300 F1000.0
G1 X6.800 Y-12.400
G0 Z2.000
G0 X6.900 Y-12.400 Z2.000
G1 Z0.600 F1000.0
G1 X6.900 Y-12.400
G0 Z2.000
G0 X10.500 Y-12.400 Z2.000
G1 Z0.600 F1000.0
G1 X10.500 Y-12.400
G0 Z2.000
G0 X10.600 Y-12.400 Z2.000
G1 Z0.300 F1000.0
G1 X10.700 Y-12.400
G0 Z2.000
G0 X10.800 Y-12.400 Z2.000
G1 Z0.600 F1000.0
G1 X10.800 Y-12.400
G0 Z2.000
G0 X-16.500 Y-12.300 Z2.000
G1 Z0.600 F1000.0
G1 X-16.500 Y-12.300
G0 Z2.000
G0 X-16.400 Y-12.300 Z2.000
G1 Z0.300 F1000.0
G1 X-16.300 Y-12.300
G0 Z2.000
G0 X-16.200 Y-12.300 Z2.000
G1 Z0.600 F1000.0
G1 X-16.200 Y-12.300
G0 Z2.000
G0 X-11.500 Y-12.300 Z2.000
G1 Z0.600 F1000.0
G1 X-11.500 Y-12.300
G0 Z2.000
G0 X-11.400 Y-12.300 Z2.000
G1 Z0.000 F1000.0
G1 X-11.400 Y-12.300
G0 Z2.000
G0 X-11.300 Y-12.300 Z2.000
G1 Z0.300 F1000.0
G1 X-11.300 Y-12.300
G0 Z2.000
G0 X-11.200 Y-12.300 Z2.000
G1 Z0.600 F1000.0
G1 X-11.200 Y-12.300
G0 Z2.000
G0 X-10.100 Y-12.300 Z2.000
G1 Z0.600 F1000.0
G1 X-10.100 Y-12.300
G0 Z2.000
G0 X-10.000 Y-12.300 Z2.000
G1 Z0.300 F1000.0
G1 X-9.900 Y-12.300
G0 Z2.000
G0 X-9.800 Y-12.300 Z2.000
G1 Z0.600 F1000.0
G1 X-9.800 Y-12.300
G0 Z2.000
G0 X3.700 Y-12.300 Z2.000
G1 Z0.600 F1000.0
G1 X3.700 Y-12.300
G0 Z2.000
G0 X3.800 Y-12.300 Z2.000
G1 Z0.300 F1000.0
G1 X4.000 Y-12.300
G0 Z2.000
G0 X4.100 Y-12.300 Z2.000
G1 Z0.600 F1000.0
G1 X4.100 Y-12.300
G0 Z2.000
G0 X4.800 Y-12.300 Z2.000
G1 Z0.300 F1000.0
G1 X4.800 Y-12.300
G0 Z2.000
G0 X4.900 Y-12.300 Z2.000
G1 Z0.000 F1000.0
G1 X5.000 Y-12.300
G0 Z2.000
G0 X5.100 Y-12.300 Z2.000
G1 Z0.300 F1000.0
G1 X5.300 Y-12.300
G0 Z2.000
G0 X5.400 Y-12.300 Z2.000
G1 Z0.000 F1000.0
G1 X5.700 Y-12.300
G0 Z2.000
G0 X5.800 Y-12.300 Z2.000
G1 Z0.300 F1000.0
G1 X6.100 Y-12.300
G0 Z2.000
G0 X6.200 Y-12.300 Z2.000
G1 Z0.000 F1000.0
G1 X6.300 Y-12.300
G0 Z2.000
G0 X6.400 Y-12.300 Z2.000
G1 Z0.300 F1000.0
G1 X6.900 Y-12.300
G0 Z2.000
G0 X7.000 Y-12.300 Z2.000
G1 Z0.600 F1000.0
G1 X7.000 Y-12.300
G0 Z2.000
G0 X10.500 Y-12.300 Z2.000
G1 Z0.600 F1000.0
G1 X10.500 Y-12.300
G0 Z2.000
G0 X10.600 Y-12.300 Z2.000
G1 Z0.300 F1000.0
G1 X10.800 Y-12.300
G0 Z2.000
G0 X10.900 Y-12.300 Z2.000
G1 Z0.600 F1000.0
G1 X10.900 Y-12.300
G0 Z2.000
G0 X-16.600 Y-12.200 Z2.000
G1 Z0.600 F1000.0
G1 X-16.600 Y-12.200
G0 Z2.000
G0 X-16.500 Y-12.200 Z2.000
G1 Z0.300 F1000.0
G1 X-16.400 Y-12.200
G0 Z2.000
G0 X-16.300 Y-12.200 Z2.000
G1 Z0.600 F1000.0
G1 X-16.300 Y-12.200
G0 Z2.000
G0 X-11.500 Y-12.200 Z2.000
G1 Z0.600 F1000.0
G1 X-11.500 Y-12.200
G0 Z2.000
G0 X-11.400 Y-12.200 Z2.000
G1 Z0.000 F1000.0
G1 X-11.400 Y-12.200
G0 Z2.000
G0 X-11.300 Y-12.200 Z2.000
G1 Z0.300 F1000.0
G1 X-11.300 Y-12.200
G0 Z2.000
G0 X-11.200 Y-12.200 Z2.000
G1 Z0.600 F1000.0
G1 X-11.200 Y-12.200
G0 Z2.000
G0 X-10.100 Y-12.200 Z2.000
G1 Z0.600 F1000.0
G1 X-10.100 Y-12.200
G0 Z2.000
G0 X-10.000 Y-12.200 Z2.000
G1 Z0.300 F1000.0
G1 X-9.900 Y-12.200
G0 Z2.000
G0 X-9.800 Y-12.200 Z2.000
G1 Z0.600 F1000.0
G1 X-9.800 Y-12.200
G0 Z2.000
G0 X3.700 Y-12.200 Z2.000
G1 Z0.600 F1000.0
G1 X3.700 Y-12.200
G0 Z2.000
G0 X3.800 Y-12.200 Z2.000
G1 Z0.300 F1000.0
G1 X3.900 Y-12.200
G0 Z2.000
G0 X4.000 Y-12.200 Z2.000
G1 Z0.600 F1000.0
G1 X4.100 Y-12.200
G0 Z2.000
G0 X4.800 Y-12.200 Z2.000
G1 Z0.000 F1000.0
G1 X4.900 Y-12.200
G0 Z2.000
G0 X5.000 Y-12.200 Z2.000
G1 Z0.300 F1000.0
G1 X5.300 Y-12.200
G0 Z2.000
G0 X5.400 Y-12.200 Z2.000
G1 Z0.000 F1000.0
G1 X5.400 Y-12.200
G0 Z2.000
G0 X5.500 Y-12.200 Z2.000
G1 Z0.300 F1000.0
G1 X5.700 Y-12.200
G0 Z2.000
G0 X5.800 Y-12.200 Z2.000
G1 Z0.600 F1000.0
G1 X5.900 Y-12.200
G0 Z2.000
G0 X6.000 Y-12.200 Z2.000
G1 Z0.300 F1000.0
G1 X6.100 Y-12.200
G0 Z2.000
G0 X6.200 Y-12.200 Z2.000
G1 Z0.000 F1000.0
G1 X6.200 Y-12.200
G0 Z2.000
G0 X6.300 Y-12.200 Z2.000
G1 Z0.300 F1000.0
G1 X7.000 Y-12.200
G0 Z2.000
G0 X7.100 Y-12.200 Z2.000
G1 Z0.600 F1000.0
G1 X7.100 Y-12.200
G0 Z2.000
G0 X10.600 Y-12.200 Z2.000
G1 Z0.600 F1000.0
G1 X10.600 Y-12.200
G0 Z2.000
G0 X10.700 Y-12.200 Z2.000
G1 Z0.300 F1000.0
G1 X10.800 Y-12.200
G0 Z2.000
G0 X10.900 Y-12.200 Z2.000
G1 Z0.600 F1000.0
G1 X10.900 Y-12.200
G0 Z2.000
G0 X-16.600 Y-12.100 Z2.000
G1 Z0.600 F1000.0
G1 X-16.600 Y-12.100
G0 Z2.000
G0 X-16.500 Y-12.100 Z2.000
G1 Z0.300 F1000.0
G1 X-16.500 Y-12.100
G0 Z2.000
G0 X-16.400 Y-12.100 Z2.000
G1 Z0.600 F1000.0
G1 X-16.400 Y-12.100
G0 Z2.000
G0 X-11.500 Y-12.100 Z2.000
G1 Z0.300 F1000.0
G1 X-11.300 Y-12.100
G0 Z2.000
G0 X-11.200 Y-12.100 Z2.000
G1 Z0.600 F1000.0
G1 X-11.200 Y-12.100
G0 Z2.000
G0 X-10.100 Y-12.100 Z2.000
G1 Z0.600 F1000.0
G1 X-10.100 Y-12.100
G0 Z2.000
G0 X-10.000 Y-12.100 Z2.000
G1 Z0.300 F1000.0
G1 X-9.900 Y-12.100
G0 Z2.000
G0 X-9.800 Y-12.100 Z2.000
G1 Z0.600 F1000.0
G1 X-9.800 Y-12.100
G0 Z2.000
G0 X3.600 Y-12.100 Z2.000
G1 Z0.600 F1000.0
G1 X3.600 Y-12.100
G0 Z2.000
G0 X3.700 Y-12.100 Z2.000
G1 Z0.300 F1000.0
G1 X3.900 Y-12.100
G0 Z2.000
G0 X4.000 Y-12.100 Z2.000
G1 Z0.600 F1000.0
G1 X4.000 Y-12.100
G0 Z2.000
G0 X4.700 Y-12.100 Z2.000
G1 Z0.600 F1000.0
G1 X4.700 Y-12.100
G0 Z2.000
G0 X4.800 Y-12.100 Z2.000
G1 Z0.000 F1000.0
G1 X4.900 Y-12.100
G0 Z2.000
G0 X5.000 Y-12.100 Z2.000
G1 Z0.300 F1000.0
G1 X5.100 Y-12.100
G0 Z2.000
G0 X5.200 Y-12.100 Z2.000
G1 Z0.000 F1000.0
G1 X5.500 Y-12.100
G0 Z2.000
G0 X5.600 Y-12.100 Z2.000
G1 Z0.300 F1000.0
G1 X5.800 Y-12.100
G0 Z2.000
G0 X5.900 Y-12.100 Z2.000
G1 Z0.600 F1000.0
G1 X5.900 Y-12.100
G0 Z2.000
G0 X6.000 Y-12.100 Z2.000
G1 Z0.300 F1000.0
G1 X7.000 Y-12.100
G0 Z2.000
G0 X7.100 Y-12.100 Z2.000
G1 Z0.600 F1000.0
G1 X7.100 Y-12.100
G0 Z2.000
G0 X10.600 Y-12.100 Z2.000
G1 Z0.600 F1000.0
G1 X10.600 Y-12.100
G0 Z2.000
G0 X10.700 Y-12.100 Z2.000
G1 Z0.300 F1000.0
G1 X10.700 Y-12.100
G0 Z2.000
G0 X10.800 Y-12.100 Z2.000
G1 Z0.000 F1000.0
G1 X10.800 Y-12.100
G0 Z2.000
G0 X10.900 Y-12.100 Z2.000
G1 Z0.300 F1000.0
G1 X10.900 Y-12.100
G0 Z2.000
G0 X11.000 Y-12.100 Z2.000
G1 Z0.600 F1000.0
G1 X11.000 Y-12.100
G0 Z2.000
G0 X-16.700 Y-12.000 Z2.000
G1 Z0.600 F1000.0
G1 X-16.700 Y-12.000
G0 Z2.000
G0 X-16.600 Y-12.000 Z2.000
G1 Z0.300 F1000.0
G1 X-16.500 Y-12.000
G0 Z2.000
G0 X-16.400 Y-12.000 Z2.000
G1 Z0.600 F1000.0
G1 X-16.400 Y-12.000
G0 Z2.000
G0 X-11.500 Y-12.000 Z2.000
G1 Z0.300 F1000.0
G1 X-11.300 Y-12.000
G0 Z2.000
G0 X-11.200 Y-12.000 Z2.000
G1 Z0.600 F1000.0
G1 X-11.200 Y-12.000
G0 Z2.000
G0 X-10.100 Y-12.000 Z2.000
G1 Z0.600 F1000.0
G1 X-10.100 Y-12.000
G0 Z2.000
G0 X-10.000 Y-12.000 Z2.000
G1 Z0.300 F1000.0
G1 X-9.900 Y-12.000
G0 Z2.000
G0 X-9.800 Y-12.000 Z2.000
G1 Z0.600 F1000.0
G1 X-9.800 Y-12.000
G0 Z2.000
G0 X3.600 Y-12.000 Z2.000
G1 Z0.600 F1000.0
G1 X3.600 Y-12.000
G0 Z2.000
G0 X3.700 Y-12.000 Z2.000
G1 Z0.300 F1000.0
G1 X3.900 Y-12.000
G0 Z2.000
G0 X4.000 Y-12.000 Z2.000
G1 Z0.600 F1000.0
G1 X4.000 Y-12.000
G0 Z2.000
G0 X4.700 Y-12.000 Z2.000
G1 Z0.000 F1000.0
G1 X4.900 Y-12.000
G0 Z2.000
G0 X5.000 Y-12.000 Z2.000
G1 Z0.300 F1000.0
G1 X5.100 Y-12.000
G0 Z2.000
G0 X5.200 Y-12.000 Z2.000
G1 Z0.000 F1000.0
G1 X5.500 Y-12.000
G0 Z2.000
G0 X5.600 Y-12.000 Z2.000
G1 Z0.300 F1000.0
G1 X6.400 Y-12.000
G0 Z2.000
G0 X6.500 Y-12.000 Z2.000
G1 Z0.600 F1000.0
G1 X6.600 Y-12.000
G0 Z2.000
G0 X6.700 Y-12.000 Z2.000
G1 Z0.300 F1000.0
G1 X7.000 Y-12.000
G0 Z2.000
G0 X7.100 Y-12.000 Z2.000
G1 Z0.600 F1000.0
G1 X7.100 Y-12.000
G0 Z2.000
G0 X10.700 Y-12.000 Z2.000
G1 Z0.300 F1000.0
G1 X10.900 Y-12.000
G0 Z2.000
G0 X11.000 Y-12.000 Z2.000
G1 Z0.600 F1000.0
G1 X11.000 Y-12.000
G0 Z2.000
G0 X-16.700 Y-11.900 Z2.000
G1 Z0.600 F1000.0
G1 X-16.700 Y-11.900
G0 Z2.000
G0 X-16.600 Y-11.900 Z2.000
G1 Z0.300 F1000.0
G1 X-16.500 Y-11.900
G0 Z2.000
G0 X-16.400 Y-11.900 Z2.000
G1 Z0.600 F1000.0
G1 X-16.400 Y-11.900
G0 Z2.000
G0 X-11.600 Y-11.900 Z2.000
G1 Z0.600 F1000.0
G1 X-11.600 Y-11.900
G0 Z2.000
G0 X-11.500 Y-11.900 Z2.000
G1 Z0.300 F1000.0
G1 X-11.300 Y-11.900
G0 Z2.000
G0 X-10.100 Y-11.900 Z2.000
G1 Z0.600 F1000.0
G1 X-10.100 Y-11.900
G0 Z2.000
G0 X-10.000 Y-11.900 Z2.000
G1 Z0.300 F1000.0
G1 X-9.900 Y-11.900
G0 Z2.000
G0 X-9.800 Y-11.900 Z2.000
G1 Z0.600 F1000.0
G1 X-9.800 Y-11.900
G0 Z2.000
G0 X3.500 Y-11.900 Z2.000
G1 Z0.600 F1000.0
G1 X3.500 Y-11.900
G0 Z2.000
G0 X3.600 Y-11.900 Z2.000
G1 Z0.300 F1000.0
G1 X3.800 Y-11.900
G0 Z2.000
G0 X3.900 Y-11.900 Z2.000
G1 Z0.600 F1000.0
G1 X4.000 Y-11.900
G0 Z2.000
G0 X4.600 Y-11.900 Z2.000
G1 Z0.600 F1000.0
G1 X4.600 Y-11.900
G0 Z2.000
G0 X4.700 Y-11.900 Z2.000
G1 Z0.000 F1000.0
G1 X4.900 Y-11.900
G0 Z2.000
G0 X5.000 Y-11.900 Z2.000
G1 Z0.300 F1000.0
G1 X5.000 Y-11.900
G0 Z2.000
G0 X5.100 Y-11.900 Z2.000
G1 Z0.000 F1000.0
G1 X5.400 Y-11.900
G0 Z2.000
G0 X5.500 Y-11.900 Z2.000
G1 Z0.300 F1000.0
G1 X5.600 Y-11.900
G0 Z2.000
G0 X5.700 Y-11.900 Z2.000
G1 Z0.000 F1000.0
G1 X5.800 Y-11.900
G0 Z2.000
G0 X5.900 Y-11.900 Z2.000
G1 Z0.300 F1000.0
G1 X6.100 Y-11.900
G0 Z2.000
G0 X6.200 Y-11.900 Z2.000
G1 Z0.600 F1000.0
G1 X6.200 Y-11.900
G0 Z2.000
G0 X6.300 Y-11.900 Z2.000
G1 Z0.300 F1000.0
G1 X6.700 Y-11.900
G0 Z2.000
G0 X6.800 Y-11.900 Z2.000
G1 Z0.600 F1000.0
G1 X6.800 Y-11.900
G0 Z2.000
G0 X6.900 Y-11.900 Z2.000
G1 Z0.300 F1000.0
G1 X7.100 Y-11.900
G0 Z2.000
G0 X7.200 Y-11.900 Z2.000
G1 Z0.600 F1000.0
G1 X7.200 Y-11.900
G0 Z2.000
G0 X10.700 Y-11.900 Z2.000
G1 Z0.600 F1000.0
G1 X10.700 Y-11.900
G0 Z2.000
G0 X10.800 Y-11.900 Z2.000
G1 Z0.300 F1000.0
G1 X11.000 Y-11.900
G0 Z2.000
G0 X11.100 Y-11.900 Z2.000
G1 Z0.600 F1000.0
G1 X11.100 Y-11.900
G0 Z2.000
G0 X-16.800 Y-11.800 Z2.000
G1 Z0.600 F1000.0
G1 X-16.800 Y-11.800
G0 Z2.000
G0 X-16.700 Y-11.800 Z2.000
G1 Z0.300 F1000.0
G1 X-16.600 Y-11.800
G0 Z2.000
G0 X-16.500 Y-11.800 Z2.000
G1 Z0.600 F1000.0
G1 X-16.500 Y-11.800
G0 Z2.000
G0 X-11.600 Y-11.800 Z2.000
G1 Z0.600 F1000.0
G1 X-11.600 Y-11.800
G0 Z2.000
G0 X-11.500 Y-11.800 Z2.000
G1 Z0.300 F1000.0
G1 X-11.300 Y-11.800
G0 Z2.000
G0 X-10.100 Y-11.800 Z2.000
G1 Z0.600 F1000.0
G1 X-10.100 Y-11.800
G0 Z2.000
G0 X-10.000 Y-11.800 Z2.000
G1 Z0.300 F1000.0
G1 X-9.900 Y-11.800
G0 Z2.000
G0 X-9.800 Y-11.800 Z2.000
G1 Z0.600 F1000.0
G1 X-9.800 Y-11.800
G0 Z2.000
G0 X3.400 Y-11.800 Z2.000
G1 Z0.600 F1000.0
G1 X3.400 Y-11.800
G0 Z2.000
G0 X3.500 Y-11.800 Z2.000
G1 Z0.300 F1000.0
G1 X3.800 Y-11.800
G0 Z2.000
G0 X3.900 Y-11.800 Z2.000
G1 Z0.600 F1000.0
G1 X3.900 Y-11.800
G0 Z2.000
G0 X4.600 Y-11.800 Z2.000
G1 Z0.600 F1000.0
G1 X4.600 Y-11.800
G0 Z2.000
G0 X4.700 Y-11.800 Z2.000
G1 Z0.000 F1000.0
G1 X5.200 Y-11.800
G0 Z2.000
G0 X5.300 Y-11.800 Z2.000
G1 Z0.300 F1000.0
G1 X5.600 Y-11.800
G0 Z2.000
G0 X5.700 Y-11.800 Z2.000
G1 Z0.000 F1000.0
G1 X5.700 Y-11.800
G0 Z2.000
G0 X5.800 Y-11.800 Z2.000
G1 Z0.300 F1000.0
G1 X6.300 Y-11.800
G0 Z2.000
G0 X6.400 Y-11.800 Z2.000
G1 Z0.000 F1000.0
G1 X6.400 Y-11.800
G0 Z2.000
G0 X6.500 Y-11.800 Z2.000
G1 Z0.300 F1000.0
G1 X7.100 Y-11.800
G0 Z2.000
G0 X7.200 Y-11.800 Z2.000
G1 Z0.600 F1000.0
G1 X7.200 Y-11.800
G0 Z2.000
G0 X10.700 Y-11.800 Z2.000
G1 Z0.600 F1000.0
G1 X10.700 Y-11.800
G0 Z2.000
G0 X10.800 Y-11.800 Z2.000
G1 Z0.300 F1000.0
G1 X11.100 Y-11.800
G0 Z2.000
G0 X-16.800 Y-11.700 Z2.000
G1 Z0.300 F1000.0
G1 X-16.600 Y-11.700
G0 Z2.000
G0 X-16.500 Y-11.700 Z2.000
G1 Z0.600 F1000.0
G1 X-16.500 Y-11.700
G0 Z2.000
G0 X-11.600 Y-11.700 Z2.000
G1 Z0.600 F1000.0
G1 X-11.600 Y-11.700
G0 Z2.000
G0 X-11.500 Y-11.700 Z2.000
G1 Z0.300 F1000.0
G1 X-11.300 Y-11.700
G0 Z2.000
G0 X-10.100 Y-11.700 Z2.000
G1 Z0.600 F1000.0
G1 X-10.100 Y-11.700
G0 Z2.000
G0 X-10.000 Y-11.700 Z2.000
G1 Z0.300 F1000.0
G1 X-9.900 Y-11.700
G0 Z2.000
G0 X-9.800 Y-11.700 Z2.000
G1 Z0.600 F1000.0
G1 X-9.800 Y-11.700
G0 Z2.000
G0 X3.300 Y-11.700 Z2.000
G1 Z0.600 F1000.0
G1 X3.400 Y-11.700
G0 Z2.000
G0 X3.500 Y-11.700 Z2.000
G1 Z0.300 F1000.0
G1 X3.700 Y-11.700
G0 Z2.000
G0 X3.800 Y-11.700 Z2.000
G1 Z0.600 F1000.0
G1 X3.800 Y-11.700
G0 Z2.000
G0 X4.600 Y-11.700 Z2.000
G1 Z0.600 F1000.0
G1 X4.600 Y-11.700
G0 Z2.000
G0 X4.700 Y-11.700 Z2.000
G1 Z0.000 F1000.0
G1 X4.800 Y-11.700
G0 Z2.000
G0 X4.900 Y-11.700 Z2.000
G1 Z0.300 F1000.0
G1 X5.000 Y-11.700
G0 Z2.000
G0 X5.100 Y-11.700 Z2.000
G1 Z0.000 F1000.0
G1 X5.200 Y-11.700
G0 Z2.000
G0 X5.300 Y-11.700 Z2.000
G1 Z0.300 F1000.0
G1 X5.800 Y-11.700
G0 Z2.000
G0 X5.900 Y-11.700 Z2.000
G1 Z0.600 F1000.0
G1 X5.900 Y-11.700
G0 Z2.000
G0 X6.000 Y-11.700 Z2.000
G1 Z0.300 F1000.0
G1 X6.300 Y-11.700
G0 Z2.000
G0 X6.400 Y-11.700 Z2.000
G1 Z0.000 F1000.0
G1 X6.500 Y-11.700
G0 Z2.000
G0 X6.600 Y-11.700 Z2.000
G1 Z0.300 F1000.0
G1 X6.700 Y-11.700
G0 Z2.000
G0 X6.800 Y-11.700 Z2.000
G1 Z0.000 F1000.0
G1 X6.900 Y-11.700
G0 Z2.000
G0 X7.000 Y-11.700 Z2.000
G1 Z0.300 F1000.0
G1 X7.200 Y-11.700
G0 Z2.000
G0 X7.300 Y-11.700 Z2.000
G1 Z0.600 F1000.0
G1 X7.300 Y-11.700
G0 Z2.000
G0 X10.800 Y-11.700 Z2.000
G1 Z0.600 F1000.0
G1 X10.800 Y-11.700
G0 Z2.000
G0 X10.900 Y-11.700 Z2.000
G1 Z0.300 F1000.0
G1 X11.100 Y-11.700
G0 Z2.000
G0 X11.200 Y-11.700 Z2.000
G1 Z0.600 F1000.0
G1 X11.200 Y-11.700
G0 Z2.000
G0 X-16.900 Y-11.600 Z2.000
G1 Z0.600 F1000.0
G1 X-16.900 Y-11.600
G0 Z2.000
G0 X-16.800 Y-11.600 Z2.000
G1 Z0.300 F1000.0
G1 X-16.700 Y-11.600
G0 Z2.000
G0 X-16.600 Y-11.600 Z2.000
G1 Z0.600 F1000.0
G1 X-16.600 Y-11.600
G0 Z2.000
G0 X-11.500 Y-11.600 Z2.000
G1 Z0.300 F1000.0
G1 X-11.300 Y-11.600
G0 Z2.000
G0 X-10.100 Y-11.600 Z2.000
G1 Z0.600 F1000.0
G1 X-10.100 Y-11.600
G0 Z2.000
G0 X-10.000 Y-11.600 Z2.000
G1 Z0.300 F1000.0
G1 X-9.900 Y-11.600
G0 Z2.000
G0 X-9.800 Y-11.600 Z2.000
G1 Z0.600 F1000.0
G1 X-9.800 Y-11.600
G0 Z2.000
G0 X3.300 Y-11.600 Z2.000
G1 Z0.300 F1000.0
G1 X3.600 Y-11.600
G0 Z2.000
G0 X3.700 Y-11.600 Z2.000
G1 Z0.600 F1000.0
G1 X3.800 Y-11.600
G0 Z2.000
G0 X4.600 Y-11.600 Z2.000
G1 Z0.300 F1000.0
G1 X4.600 Y-11.600
G0 Z2.000
G0 X4.700 Y-11.600 Z2.000
G1 Z0.000 F1000.0
G1 X4.700 Y-11.600
G0 Z2.000
G0 X4.800 Y-11.600 Z2.000
G1 Z0.300 F1000.0
G1 X5.300 Y-11.600
G0 Z2.000
G0 X5.400 Y-11.600 Z2.000
G1 Z0.000 F1000.0
G1 X5.600 Y-11.600
G0 Z2.000
G0 X5.700 Y-11.600 Z2.000
G1 Z0.300 F1000.0
G1 X5.700 Y-11.600
G0 Z2.000
G0 X5.800 Y-11.600 Z2.000
G1 Z0.600 F1000.0
G1 X5.900 Y-11.600
G0 Z2.000
G0 X6.000 Y-11.600 Z2.000
G1 Z0.300 F1000.0
G1 X6.100 Y-11.600
G0 Z2.000
G0 X6.200 Y-11.600 Z2.000
G1 Z0.000 F1000.0
G1 X6.600 Y-11.600
G0 Z2.000
G0 X6.700 Y-11.600 Z2.000
G1 Z0.300 F1000.0
G1 X6.700 Y-11.600
G0 Z2.000
G0 X6.800 Y-11.600 Z2.000
G1 Z0.000 F1000.0
G1 X6.900 Y-11.600
G0 Z2.000
G0 X7.000 Y-11.600 Z2.000
G1 Z0.300 F1000.0
G1 X7.300 Y-11.600
G0 Z2.000
G0 X7.400 Y-11.600 Z2.000
G1 Z0.600 F1000.0
G1 X7.400 Y-11.600
G0 Z2.000
G0 X10.900 Y-11.600 Z2.000
G1 Z0.600 F1000.0
G1 X10.900 Y-11.600
G0 Z2.000
G0 X11.000 Y-11.600 Z2.000
G1 Z0.300 F1000.0
G1 X11.100 Y-11.600
G0 Z2.000
G0 X11.200 Y-11.600 Z2.000
G1 Z0.600 F1000.0
G1 X11.200 Y-11.600
G0 Z2.000
G0 X-16.900 Y-11.500 Z2.000
G1 Z0.600 F1000.0
G1 X-16.900 Y-11.500
G0 Z2.000
G0 X-16.800 Y-11.500 Z2.000
G1 Z0.300 F1000.0
G1 X-16.700 Y-11.500
G0 Z2.000
G0 X-11.500 Y-11.500 Z2.000
G1 Z0.300 F1000.0
G1 X-11.300 Y-11.500
G0 Z2.000
G0 X-10.100 Y-11.500 Z2.000
G1 Z0.600 F1000.0
G1 X-10.100 Y-11.500
G0 Z2.000
G0 X-10.000 Y-11.500 Z2.000
G1 Z0.300 F1000.0
G1 X-9.900 Y-11.500
G0 Z2.000
G0 X-9.800 Y-11.500 Z2.000
G1 Z0.600 F1000.0
G1 X-9.800 Y-11.500
G0 Z2.000
G0 X3.200 Y-11.500 Z2.000
G1 Z0.600 F1000.0
G1 X3.200 Y-11.500
G0 Z2.000
G0 X3.300 Y-11.500 Z2.000
G1 Z0.300 F1000.0
G1 X3.600 Y-11.500
G0 Z2.000
G0 X4.600 Y-11.500 Z2.000
G1 Z0.300 F1000.0
G1 X5.000 Y-11.500
G0 Z2.000
G0 X5.100 Y-11.500 Z2.000
G1 Z0.000 F1000.0
G1 X5.100 Y-11.500
G0 Z2.000
G0 X5.200 Y-11.500 Z2.000
G1 Z0.300 F1000.0
G1 X5.400 Y-11.500
G0 Z2.000
G0 X5.500 Y-11.500 Z2.000
G1 Z0.000 F1000.0
G1 X5.600 Y-11.500
G0 Z2.000
G0 X5.700 Y-11.500 Z2.000
G1 Z0.300 F1000.0
G1 X6.100 Y-11.500
G0 Z2.000
G0 X6.200 Y-11.500 Z2.000
G1 Z0.000 F1000.0
G1 X6.200 Y-11.500
G0 Z2.000
G0 X6.300 Y-11.500 Z2.000
G1 Z0.300 F1000.0
G1 X6.300 Y-11.500
G0 Z2.000
G0 X6.400 Y-11.500 Z2.000
G1 Z0.000 F1000.0
G1 X6.500 Y-11.500
G0 Z2.000
G0 X6.600 Y-11.500 Z2.000
G1 Z0.300 F1000.0
G1 X7.300 Y-11.500
G0 Z2.000
G0 X7.400 Y-11.500 Z2.000
G1 Z0.600 F1000.0
G1 X7.400 Y-11.500
G0 Z2.000
G0 X10.900 Y-11.500 Z2.000
G1 Z0.600 F1000.0
G1 X10.900 Y-11.500
G0 Z2.000
G0 X11.000 Y-11.500 Z2.000
G1 Z0.300 F1000.0
G1 X11.100 Y-11.500
G0 Z2.000
G0 X11.200 Y-11.500 Z2.000
G1 Z0.600 F1000.0
G1 X11.200 Y-11.500
G0 Z2.000
G0 X-17.000 Y-11.400 Z2.000
G1 Z0.600 F1000.0
G1 X-17.000 Y-11.400
G0 Z2.000
G0 X-16.900 Y-11.400 Z2.000
G1 Z0.300 F1000.0
G1 X-16.800 Y-11.400
G0 Z2.000
G0 X-16.700 Y-11.400 Z2.000
G1 Z0.600 F1000.0
G1 X-16.700 Y-11.400
G0 Z2.000
G0 X-11.500 Y-11.400 Z2.000
G1 Z0.300 F1000.0
G1 X-11.400 Y-11.400
G0 Z2.000
G0 X-11.300 Y-11.400 Z2.000
G1 Z0.600 F1000.0
G1 X-11.300 Y-11.400
G0 Z2.000
G0 X-10.100 Y-11.400 Z2.000
G1 Z0.600 F1000.0
G1 X-10.100 Y-11.400
G0 Z2.000
G0 X-10.000 Y-11.400 Z2.000
G1 Z0.300 F1000.0
G1 X-9.900 Y-11.400
G0 Z2.000
G0 X-9.800 Y-11.400 Z2.000
G1 Z0.600 F1000.0
G1 X-9.800 Y-11.400
G0 Z2.000
G0 X3.100 Y-11.400 Z2.000
G1 Z0.600 F1000.0
G1 X3.100 Y-11.400
G0 Z2.000
G0 X3.200 Y-11.400 Z2.000
G1 Z0.300 F1000.0
G1 X3.500 Y-11.400
G0 Z2.000
G0 X3.600 Y-11.400 Z2.000
G1 Z0.600 F1000.0
G1 X3.600 Y-11.400
G0 Z2.000
G0 X4.500 Y-11.400 Z2.000
G1 Z0.600 F1000.0
G1 X4.500 Y-11.400
G0 Z2.000
G0 X4.600 Y-11.400 Z2.000
G1 Z0.300 F1000.0
G1 X4.900 Y-11.400
G0 Z2.000
G0 X5.000 Y-11.400 Z2.000
G1 Z0.000 F1000.0
G1 X5.300 Y-11.400
G0 Z2.000
G0 X5.400 Y-11.400 Z2.000
G1 Z0.300 F1000.0
G1 X6.500 Y-11.400
G0 Z2.000
G0 X6.600 Y-11.400 Z2.000
G1 Z0.600 F1000.0
G1 X6.600 Y-11.400
G0 Z2.000
G0 X6.700 Y-11.400 Z2.000
G1 Z0.300 F1000.0
G1 X7.400 Y-11.400
G0 Z2.000
G0 X7.500 Y-11.400 Z2.000
G1 Z0.600 F1000.0
G1 X7.500 Y-11.400
G0 Z2.000
G0 X10.900 Y-11.400 Z2.000
G1 Z0.600 F1000.0
G1 X10.900 Y-11.400
G0 Z2.000
G0 X11.000 Y-11.400 Z2.000
G1 Z0.300 F1000.0
G1 X11.200 Y-11.400
G0 Z2.000
G0 X11.300 Y-11.400 Z2.000
G1 Z0.600 F1000.0
G1 X11.300 Y-11.400
G0 Z2.000
G0 X-17.000 Y-11.300 Z2.000
G1 Z0.600 F1000.0
G1 X-17.000 Y-11.300
G0 Z2.000
G0 X-16.900 Y-11.300 Z2.000
G1 Z0.300 F1000.0
G1 X-16.800 Y-11.300
G0 Z2.000
G0 X-16.700 Y-11.300 Z2.000
G1 Z0.600 F1000.0
G1 X-16.700 Y-11.300
G0 Z2.000
G0 X-11.500 Y-11.300 Z2.000
G1 Z0.300 F1000.0
G1 X-11.400 Y-11.300
G0 Z2.000
G0 X-11.300 Y-11.300 Z2.000
G1 Z0.600 F1000.0
G1 X-11.300 Y-11.300
G0 Z2.000
G0 X-10.100 Y-11.300 Z2.000
G1 Z0.600 F1000.0
G1 X-10.000 Y-11.300
G0 Z2.000
G0 X-9.900 Y-11.300 Z2.000
G1 Z0.300 F1000.0
G1 X-9.900 Y-11.300
G0 Z2.000
G0 X-9.800 Y-11.300 Z2.000
G1 Z0.600 F1000.0
G1 X-9.800 Y-11.300
G0 Z2.000
G0 X3.000 Y-11.300 Z2.000
G1 Z0.600 F1000.0
G1 X3.000 Y-11.300
G0 Z2.000
G0 X3.100 Y-11.300 Z2.000
G1 Z0.300 F1000.0
G1 X3.400 Y-11.300
G0 Z2.000
G0 X3.500 Y-11.300 Z2.000
G1 Z0.600 F1000.0
G1 X3.500 Y-11.300
G0 Z2.000
G0 X4.500 Y-11.300 Z2.000
G1 Z0.600 F1000.0
G1 X4.500 Y-11.300
G0 Z2.000
G0 X4.600 Y-11.300 Z2.000
G1 Z0.300 F1000.0
G1 X4.700 Y-11.300
G0 Z2.000
G0 X4.800 Y-11.300 Z2.000
G1 Z0.000 F1000.0
G1 X5.300 Y-11.300
G0 Z2.000
G0 X5.400 Y-11.300 Z2.000
G1 Z0.300 F1000.0
G1 X5.400 Y-11.300
G0 Z2.000
G0 X5.500 Y-11.300 Z2.000
G1 Z0.000 F1000.0
G1 X5.500 Y-11.300
G0 Z2.000
G0 X5.600 Y-11.300 Z2.000
G1 Z0.300 F1000.0
G1 X6.400 Y-11.300
G0 Z2.000
G0 X6.500 Y-11.300 Z2.000
G1 Z0.600 F1000.0
G1 X6.600 Y-11.300
G0 Z2.000
G0 X6.700 Y-11.300 Z2.000
G1 Z0.300 F1000.0
G1 X7.200 Y-11.300
G0 Z2.000
G0 X7.300 Y-11.300 Z2.000
G1 Z0.000 F1000.0
G1 X7.400 Y-11.300
G0 Z2.000
G0 X7.500 Y-11.300 Z2.000
G1 Z0.300 F1000.0
G1 X7.500 Y-11.300
G0 Z2.000
G0 X11.000 Y-11.300 Z2.000
G1 Z0.600 F1000.0
G1 X11.000 Y-11.300
G0 Z2.000
G0 X11.100 Y-11.300 Z2.000
G1 Z0.300 F1000.0
G1 X11.200 Y-11.300
G0 Z2.000
G0 X11.300 Y-11.300 Z2.000
G1 Z0.600 F1000.0
G1 X11.300 Y-11.300
G0 Z2.000
G0 X-17.100 Y-11.200 Z2.000
G1 Z0.600 F1000.0
G1 X-17.100 Y-11.200
G0 Z2.000
G0 X-17.000 Y-11.200 Z2.000
G1 Z0.300 F1000.0
G1 X-16.900 Y-11.200
G0 Z2.000
G0 X-16.800 Y-11.200 Z2.000
G1 Z0.600 F1000.0
G1 X-16.800 Y-11.200
G0 Z2.000
G0 X-11.500 Y-11.200 Z2.000
G1 Z0.300 F1000.0
G1 X-11.400 Y-11.200
G0 Z2.000
G0 X-11.300 Y-11.200 Z2.000
G1 Z0.600 F1000.0
G1 X-11.300 Y-11.200
G0 Z2.000
G0 X-10.100 Y-11.200 Z2.000
G1 Z0.600 F1000.0
G1 X-10.100 Y-11.200
G0 Z2.000
G0 X-10.000 Y-11.200 Z2.000
G1 Z0.300 F1000.0
G1 X-9.800 Y-11.200
G0 Z2.000
G0 X-9.700 Y-11.200 Z2.000
G1 Z0.600 F1000.0
G1 X-9.700 Y-11.200
G0 Z2.000
G0 X2.900 Y-11.200 Z2.000
G1 Z0.600 F1000.0
G1 X3.000 Y-11.200
G0 Z2.000
G0 X3.100 Y-11.200 Z2.000
G1 Z0.300 F1000.0
G1 X3.300 Y-11.200
G0 Z2.000
G0 X3.400 Y-11.200 Z2.000
G1 Z0.600 F1000.0
G1 X3.400 Y-11.200
G0 Z2.000
G0 X4.500 Y-11.200 Z2.000
G1 Z0.600 F1000.0
G1 X4.500 Y-11.200
G0 Z2.000
G0 X4.600 Y-11.200 Z2.000
G1 Z0.300 F1000.0
G1 X4.800 Y-11.200
G0 Z2.000
G0 X4.900 Y-11.200 Z2.000
G1 Z0.000 F1000.0
G1 X5.200 Y-11.200
G0 Z2.000
G0 X5.300 Y-11.200 Z2.000
G1 Z0.300 F1000.0
G1 X5.400 Y-11.200
G0 Z2.000
G0 X5.500 Y-11.200 Z2.000
G1 Z0.000 F1000.0
G1 X5.800 Y-11.200
G0 Z2.000
G0 X5.900 Y-11.200 Z2.000
G1 Z0.300 F1000.0
G1 X6.600 Y-11.200
G0 Z2.000
G0 X6.700 Y-11.200 Z2.000
G1 Z0.000 F1000.0
G1 X6.700 Y-11.200
G0 Z2.000
G0 X6.800 Y-11.200 Z2.000
G1 Z0.300 F1000.0
G1 X7.100 Y-11.200
G0 Z2.000
G0 X7.200 Y-11.200 Z2.000
G1 Z0.000 F1000.0
G1 X7.500 Y-11.200
G0 Z2.000
G0 X7.600 Y-11.200 Z2.000
G1 Z0.600 F1000.0
G1 X7.600 Y-11.200
G0 Z2.000
G0 X11.000 Y-11.200 Z2.000
G1 Z0.600 F1000.0
G1 X11.000 Y-11.200
G0 Z2.000
G0 X11.100 Y-11.200 Z2.000
G1 Z0.300 F1000.0
G1 X11.300 Y-11.200
G0 Z2.000
G0 X11.400 Y-11.200 Z2.000
G1 Z0.600 F1000.0
G1 X11.400 Y-11.200
G0 Z2.000
G0 X-17.100 Y-11.100 Z2.000
G1 Z0.600 F1000.0
G1 X-17.100 Y-11.100
G0 Z2.000
G0 X-17.000 Y-11.100 Z2.000
G1 Z0.300 F1000.0
G1 X-16.900 Y-11.100
G0 Z2.000
G0 X-16.800 Y-11.100 Z2.000
G1 Z0.600 F1000.0
G1 X-16.800 Y-11.100
G0 Z2.000
G0 X-11.500 Y-11.100 Z2.000
G1 Z0.600 F1000.0
G1 X-11.500 Y-11.100
G0 Z2.000
G0 X-11.400 Y-11.100 Z2.000
G1 Z0.300 F1000.0
G1 X-11.300 Y-11.100
G0 Z2.000
G0 X-11.200 Y-11.100 Z2.000
G1 Z0.600 F1000.0
G1 X-11.200 Y-11.100
G0 Z2.000
G0 X-10.100 Y-11.100 Z2.000
G1 Z0.600 F1000.0
G1 X-10.100 Y-11.100
G0 Z2.000
G0 X-10.000 Y-11.100 Z2.000
G1 Z0.300 F1000.0
G1 X-9.800 Y-11.100
G0 Z2.000
G0 X-9.700 Y-11.100 Z2.000
G1 Z0.600 F1000.0
G1 X-9.700 Y-11.100
G0 Z2.000
G0 X2.900 Y-11.100 Z2.000
G1 Z0.600 F1000.0
G1 X2.900 Y-11.100
G0 Z2.000
G0 X3.000 Y-11.100 Z2.000
G1 Z0.300 F1000.0
G1 X3.100 Y-11.100
G0 Z2.000
G0 X3.200 Y-11.100 Z2.000
G1 Z0.600 F1000.0
G1 X3.300 Y-11.100
G0 Z2.000
G0 X4.400 Y-11.100 Z2.000
G1 Z0.600 F1000.0
G1 X4.400 Y-11.100
G0 Z2.000
G0 X4.500 Y-11.100 Z2.000
G1 Z0.300 F1000.0
G1 X4.700 Y-11.100
G0 Z2.000
G0 X4.800 Y-11.100 Z2.000
G1 Z0.000 F1000.0
G1 X5.800 Y-11.100
G0 Z2.000
G0 X5.900 Y-11.100 Z2.000
G1 Z0.300 F1000.0
G1 X6.000 Y-11.100
G0 Z2.000
G0 X6.100 Y-11.100 Z2.000
G1 Z0.000 F1000.0
G1 X6.100 Y-11.100
G0 Z2.000
G0 X6.200 Y-11.100 Z2.000
G1 Z0.300 F1000.0
G1 X6.400 Y-11.100
G0 Z2.000
G0 X6.500 Y-11.100 Z2.000
G1 Z0.000 F1000.0
G1 X6.700 Y-11.100
G0 Z2.000
G0 X6.800 Y-11.100 Z2.000
G1 Z0.300 F1000.0
G1 X7.000 Y-11.100
G0 Z2.000
G0 X7.100 Y-11.100 Z2.000
G1 Z0.000 F1000.0
G1 X7.400 Y-11.100
G0 Z2.000
G0 X7.500 Y-11.100 Z2.000
G1 Z0.300 F1000.0
G1 X7.600 Y-11.100
G0 Z2.000
G0 X7.700 Y-11.100 Z2.000
G1 Z0.600 F1000.0
G1 X7.700 Y-11.100
G0 Z2.000
G0 X11.100 Y-11.100 Z2.000
G1 Z0.600 F1000.0
G1 X11.100 Y-11.100
G0 Z2.000
G0 X11.200 Y-11.100 Z2.000
G1 Z0.300 F1000.0
G1 X11.300 Y-11.100
G0 Z2.000
G0 X11.400 Y-11.100 Z2.000
G1 Z0.600 F1000.0
G1 X11.400 Y-11.100
G0 Z2.000
G0 X-17.100 Y-11.000 Z2.000
G1 Z0.600 F1000.0
G1 X-17.100 Y-11.000
G0 Z2.000
G0 X-17.000 Y-11.000 Z2.000
G1 Z0.300 F1000.0
G1 X-17.000 Y-11.000
G0 Z2.000
G0 X-16.900 Y-11.000 Z2.000
G1 Z0.600 F1000.0
G1 X-16.900 Y-11.000
G0 Z2.000
G0 X-11.500 Y-11.000 Z2.000
G1 Z0.600 F1000.0
G1 X-11.500 Y-11.000
G0 Z2.000
G0 X-11.400 Y-11.000 Z2.000
G1 Z0.300 F1000.0
G1 X-11.300 Y-11.000
G0 Z2.000
G0 X-11.200 Y-11.000 Z2.000
G1 Z0.600 F1000.0
G1 X-11.200 Y-11.000
G0 Z2.000
G0 X-10.000 Y-11.000 Z2.000
G1 Z0.600 F1000.0
G1 X-10.000 Y-11.000
G0 Z2.000
G0 X-9.900 Y-11.000 Z2.000
G1 Z0.300 F1000.0
G1 X-9.800 Y-11.000
G0 Z2.000
G0 X-9.700 Y-11.000 Z2.000
G1 Z0.600 F1000.0
G1 X-9.700 Y-11.000
G0 Z2.000
G0 X2.800 Y-11.000 Z2.000
G1 Z0.600 F1000.0
G1 X2.800 Y-11.000
G0 Z2.000
G0 X2.900 Y-11.000 Z2.000
G1 Z0.300 F1000.0
G1 X3.100 Y-11.000
G0 Z2.000
G0 X3.200 Y-11.000 Z2.000
G1 Z0.600 F1000.0
G1 X3.200 Y-11.000
G0 Z2.000
G0 X4.400 Y-11.000 Z2.000
G1 Z0.600 F1000.0
G1 X4.400 Y-11.000
G0 Z2.000
G0 X4.500 Y-11.000 Z2.000
G1 Z0.000 F1000.0
G1 X4.800 Y-11.000
G0 Z2.000
G0 X4.900 Y-11.000 Z2.000
G1 Z0.300 F1000.0
G1 X4.900 Y-11.000
G0 Z2.000
G0 X5.000 Y-11.000 Z2.000
G1 Z0.000 F1000.0
G1 X5.100 Y-11.000
G0 Z2.000
G0 X5.200 Y-11.000 Z2.000
G1 Z0.300 F1000.0
G1 X6.300 Y-11.000
G0 Z2.000
G0 X6.400 Y-11.000 Z2.000
G1 Z0.000 F1000.0
G1 X6.600 Y-11.000
G0 Z2.000
G0 X6.700 Y-11.000 Z2.000
G1 Z0.300 F1000.0
G1 X7.100 Y-11.000
G0 Z2.000
G0 X7.200 Y-11.000 Z2.000
G1 Z0.000 F1000.0
G1 X7.200 Y-11.000
G0 Z2.000
G0 X7.300 Y-11.000 Z2.000
G1 Z0.300 F1000.0
G1 X7.600 Y-11.000
G0 Z2.000
G0 X7.700 Y-11.000 Z2.000
G1 Z0.600 F1000.0
G1 X7.700 Y-11.000
G0 Z2.000
G0 X8.400 Y-11.000 Z2.000
G1 Z0.600 F1000.0
G1 X8.600 Y-11.000
G0 Z2.000
G0 X11.100 Y-11.000 Z2.000
G1 Z0.600 F1000.0
G1 X11.100 Y-11.000
G0 Z2.000
G0 X11.200 Y-11.000 Z2.000
G1 Z0.300 F1000.0
G1 X11.300 Y-11.000
G0 Z2.000
G0 X11.400 Y-11.000 Z2.000
G1 Z0.600 F1000.0
G1 X11.500 Y-11.000
G0 Z2.000
G0 X-17.200 Y-10.900 Z2.000
G1 Z0.600 F1000.0
G1 X-17.200 Y-10.900
G0 Z2.000
G0 X-17.100 Y-10.900 Z2.000
G1 Z0.300 F1000.0
G1 X-17.000 Y-10.900
G0 Z2.000
G0 X-16.900 Y-10.900 Z2.000
G1 Z0.600 F1000.0
G1 X-16.900 Y-10.900
G0 Z2.000
G0 X-11.500 Y-10.900 Z2.000
G1 Z0.600 F1000.0
G1 X-11.500 Y-10.900
G0 Z2.000
G0 X-11.400 Y-10.900 Z2.000
G1 Z0.300 F1000.0
G1 X-11.300 Y-10.900
G0 Z2.000
G0 X-11.200 Y-10.900 Z2.000
G1 Z0.600 F1000.0
G1 X-11.200 Y-10.900
G0 Z2.000
G0 X-10.000 Y-10.900 Z2.000
G1 Z0.600 F1000.0
G1 X-10.000 Y-10.900
G0 Z2.000
G0 X-9.900 Y-10.900 Z2.000
G1 Z0.300 F1000.0
G1 X-9.700 Y-10.900
G0 Z2.000
G0 X-9.600 Y-10.900 Z2.000
G1 Z0.600 F1000.0
G1 X-9.600 Y-10.900
G0 Z2.000
G0 X2.700 Y-10.900 Z2.000
G1 Z0.600 F1000.0
G1 X2.700 Y-10.900
G0 Z2.000
G0 X2.800 Y-10.900 Z2.000
G1 Z0.300 F1000.0
G1 X3.000 Y-10.900
G0 Z2.000
G0 X3.100 Y-10.900 Z2.000
G1 Z0.600 F1000.0
G1 X3.100 Y-10.900
G0 Z2.000
G0 X4.300 Y-10.900 Z2.000
G1 Z0.600 F1000.0
G1 X4.300 Y-10.900
G0 Z2.000
G0 X4.400 Y-10.900 Z2.000
G1 Z0.300 F1000.0
G1 X4.400 Y-10.900
G0 Z2.000
G0 X4.500 Y-10.900 Z2.000
G1 Z0.000 F1000.0
G1 X4.700 Y-10.900
G0 Z2.000
G0 X4.800 Y-10.900 Z2.000
G1 Z0.300 F1000.0
G1 X4.800 Y-10.900
G0 Z2.000
G0 X4.900 Y-10.900 Z2.000
G1 Z0.000 F1000.0
G1 X5.100 Y-10.900
G0 Z2.000
G0 X5.200 Y-10.900 Z2.000
G1 Z0.300 F1000.0
G1 X6.100 Y-10.900
G0 Z2.000
G0 X6.200 Y-10.900 Z2.000
G1 Z0.000 F1000.0
G1 X6.200 Y-10.900
G0 Z2.000
G0 X6.300 Y-10.900 Z2.000
G1 Z0.300 F1000.0
G1 X6.900 Y-10.900
G0 Z2.000
G0 X7.000 Y-10.900 Z2.000
G1 Z0.600 F1000.0
G1 X7.000 Y-10.900
G0 Z2.000
G0 X7.100 Y-10.900 Z2.000
G1 Z0.300 F1000.0
G1 X7.700 Y-10.900
G0 Z2.000
G0 X8.100 Y-10.900 Z2.000
G1 Z0.600 F1000.0
G1 X8.200 Y-10.900
G0 Z2.000
G0 X8.300 Y-10.900 Z2.000
G1 Z0.300 F1000.0
G1 X8.700 Y-10.900
G0 Z2.000
G0 X8.800 Y-10.900 Z2.000
G1 Z0.600 F1000.0
G1 X8.800 Y-10.900
G0 Z2.000
G0 X11.100 Y-10.900 Z2.000
G1 Z0.600 F1000.0
G1 X11.100 Y-10.900
G0 Z2.000
G0 X11.200 Y-10.900 Z2.000
G1 Z0.300 F1000.0
G1 X11.400 Y-10.900
G0 Z2.000
G0 X11.500 Y-10.900 Z2.000
G1 Z0.600 F1000.0
G1 X11.500 Y-10.900
G0 Z2.000
G0 X-17.300 Y-10.800 Z2.000
G1 Z0.600 F1000.0
G1 X-17.300 Y-10.800
G0 Z2.000
G0 X-17.200 Y-10.800 Z2.000
G1 Z0.300 F1000.0
G1 X-17.000 Y-10.800
G0 Z2.000
G0 X-11.500 Y-10.800 Z2.000
G1 Z0.300 F1000.0
G1 X-11.500 Y-10.800
G0 Z2.000
G0 X-11.400 Y-10.800 Z2.000
G1 Z0.000 F1000.0
G1 X-11.300 Y-10.800
G0 Z2.000
G0 X-11.200 Y-10.800 Z2.000
G1 Z0.600 F1000.0
G1 X-11.200 Y-10.800
G0 Z2.000
G0 X-9.900 Y-10.800 Z2.000
G1 Z0.600 F1000.0
G1 X-9.900 Y-10.800
G0 Z2.000
G0 X-9.800 Y-10.800 Z2.000
G1 Z0.300 F1000.0
G1 X-9.700 Y-10.800
G0 Z2.000
G0 X-9.600 Y-10.800 Z2.000
G1 Z0.600 F1000.0
G1 X-9.600 Y-10.800
G0 Z2.000
G0 X2.600 Y-10.800 Z2.000
G1 Z0.600 F1000.0
G1 X2.600 Y-10.800
G0 Z2.000
G0 X2.700 Y-10.800 Z2.000
G1 Z0.300 F1000.0
G1 X3.000 Y-10.800
G0 Z2.000
G0 X3.100 Y-10.800 Z2.000
G1 Z0.600 F1000.0
G1 X3.100 Y-10.800
G0 Z2.000
G0 X4.300 Y-10.800 Z2.000
G1 Z0.600 F1000.0
G1 X4.300 Y-10.800
G0 Z2.000
G0 X4.400 Y-10.800 Z2.000
G1 Z0.000 F1000.0
G1 X4.700 Y-10.800
G0 Z2.000
G0 X4.800 Y-10.800 Z2.000
G1 Z0.300 F1000.0
G1 X4.800 Y-10.800
G0 Z2.000
G0 X4.900 Y-10.800 Z2.000
G1 Z0.000 F1000.0
G1 X5.500 Y-10.800
G0 Z2.000
G0 X5.600 Y-10.800 Z2.000
G1 Z0.300 F1000.0
G1 X5.700 Y-10.800
G0 Z2.000
G0 X5.800 Y-10.800 Z2.000
G1 Z0.000 F1000.0
G1 X6.300 Y-10.800
G0 Z2.000
G0 X6.400 Y-10.800 Z2.000
G1 Z0.300 F1000.0
G1 X6.700 Y-10.800
G0 Z2.000
G0 X6.800 Y-10.800 Z2.000
G1 Z0.000 F1000.0
G1 X6.800 Y-10.800
G0 Z2.000
G0 X6.900 Y-10.800 Z2.000
G1 Z0.300 F1000.0
G1 X7.400 Y-10.800
G0 Z2.000
G0 X7.500 Y-10.800 Z2.000
G1 Z0.000 F1000.0
G1 X7.700 Y-10.800
G0 Z2.000
G0 X7.800 Y-10.800 Z2.000
G1 Z0.300 F1000.0
G1 X8.900 Y-10.800
G0 Z2.000
G0 X9.000 Y-10.800 Z2.000
G1 Z0.600 F1000.0
G1 X9.000 Y-10.800
G0 Z2.000
G0 X11.200 Y-10.800 Z2.000
G1 Z0.600 F1000.0
G1 X11.200 Y-10.800
G0 Z2.000
G0 X11.300 Y-10.800 Z2.000
G1 Z0.300 F1000.0
G1 X11.400 Y-10.800
G0 Z2.000
G0 X11.500 Y-10.800 Z2.000
G1 Z0.600 F1000.0
G1 X11.500 Y-10.800
G0 Z2.000
G0 X-17.300 Y-10.700 Z2.000
G1 Z0.600 F1000.0
G1 X-17.300 Y-10.700
G0 Z2.000
G0 X-17.200 Y-10.700 Z2.000
G1 Z0.300 F1000.0
G1 X-17.100 Y-10.700
G0 Z2.000
G0 X-17.000 Y-10.700 Z2.000
G1 Z0.600 F1000.0
G1 X-17.000 Y-10.700
G0 Z2.000
G0 X-11.500 Y-10.700 Z2.000
G1 Z0.600 F1000.0
G1 X-11.500 Y-10.700
G0 Z2.000
G0 X-11.400 Y-10.700 Z2.000
G1 Z0.300 F1000.0
G1 X-11.300 Y-10.700
G0 Z2.000
G0 X-11.200 Y-10.700 Z2.000
G1 Z0.600 F1000.0
G1 X-11.200 Y-10.700
G0 Z2.000
G0 X-9.900 Y-10.700 Z2.000
G1 Z0.600 F1000.0
G1 X-9.900 Y-10.700
G0 Z2.000
G0 X-9.800 Y-10.700 Z2.000
G1 Z0.300 F1000.0
G1 X-9.600 Y-10.700
G0 Z2.000
G0 X-9.500 Y-10.700 Z2.000
G1 Z0.600 F1000.0
G1 X-9.500 Y-10.700
G0 Z2.000
G0 X2.600 Y-10.700 Z2.000
G1 Z0.300 F1000.0
G1 X2.900 Y-10.700
G0 Z2.000
G0 X3.000 Y-10.700 Z2.000
G1 Z0.600 F1000.0
G1 X3.000 Y-10.700
G0 Z2.000
G0 X4.300 Y-10.700 Z2.000
G1 Z0.600 F1000.0
G1 X4.300 Y-10.700
G0 Z2.000
G0 X4.400 Y-10.700 Z2.000
G1 Z0.000 F1000.0
G1 X4.700 Y-10.700
G0 Z2.000
G0 X4.800 Y-10.700 Z2.000
G1 Z0.300 F1000.0
G1 X4.800 Y-10.700
G0 Z2.000
G0 X4.900 Y-10.700 Z2.000
G1 Z0.000 F1000.0
G1 X5.500 Y-10.700
G0 Z2.000
G0 X5.600 Y-10.700 Z2.000
G1 Z0.300 F1000.0
G1 X5.700 Y-10.700
G0 Z2.000
G0 X5.800 Y-10.700 Z2.000
G1 Z0.000 F1000.0
G1 X7.900 Y-10.700
G0 Z2.000
G0 X8.000 Y-10.700 Z2.000
G1 Z0.300 F1000.0
G1 X8.400 Y-10.700
G0 Z2.000
G0 X8.500 Y-10.700 Z2.000
G1 Z0.000 F1000.0
G1 X8.600 Y-10.700
G0 Z2.000
G0 X8.700 Y-10.700 Z2.000
G1 Z0.300 F1000.0
G1 X8.900 Y-10.700
G0 Z2.000
G0 X9.000 Y-10.700 Z2.000
G1 Z0.600 F1000.0
G1 X9.100 Y-10.700
G0 Z2.000
G0 X11.200 Y-10.700 Z2.000
G1 Z0.600 F1000.0
G1 X11.200 Y-10.700
G0 Z2.000
G0 X11.300 Y-10.700 Z2.000
G1 Z0.300 F1000.0
G1 X11.500 Y-10.700
G0 Z2.000
G0 X11.600 Y-10.700 Z2.000
G1 Z0.600 F1000.0
G1 X11.600 Y-10.700
G0 Z2.000
G0 X-17.400 Y-10.600 Z2.000
G1 Z0.600 F1000.0
G1 X-17.400 Y-10.600
G0 Z2.000
G0 X-17.300 Y-10.600 Z2.000
G1 Z0.300 F1000.0
G1 X-17.100 Y-10.600
G0 Z2.000
G0 X-11.500 Y-10.600 Z2.000
G1 Z0.600 F1000.0
G1 X-11.500 Y-10.600
G0 Z2.000
G0 X-11.400 Y-10.600 Z2.000
G1 Z0.300 F1000.0
G1 X-11.300 Y-10.600
G0 Z2.000
G0 X-11.200 Y-10.600 Z2.000
G1 Z0.600 F1000.0
G1 X-11.200 Y-10.600
G0 Z2.000
G0 X-9.900 Y-10.600 Z2.000
G1 Z0.600 F1000.0
G1 X-9.800 Y-10.600
G0 Z2.000
G0 X-9.700 Y-10.600 Z2.000
G1 Z0.300 F1000.0
G1 X-9.600 Y-10.600
G0 Z2.000
G0 X-9.500 Y-10.600 Z2.000
G1 Z0.600 F1000.0
G1 X-9.500 Y-10.600
G0 Z2.000
G0 X2.500 Y-10.600 Z2.000
G1 Z0.600 F1000.0
G1 X2.500 Y-10.600
G0 Z2.000
G0 X2.600 Y-10.600 Z2.000
G1 Z0.300 F1000.0
G1 X2.800 Y-10.600
G0 Z2.000
G0 X2.900 Y-10.600 Z2.000
G1 Z0.600 F1000.0
G1 X3.000 Y-10.600
G0 Z2.000
G0 X4.300 Y-10.600 Z2.000
G1 Z0.600 F1000.0
G1 X4.300 Y-10.600
G0 Z2.000
G0 X4.400 Y-10.600 Z2.000
G1 Z0.000 F1000.0
G1 X7.800 Y-10.600
G0 Z2.000
G0 X7.900 Y-10.600 Z2.000
G1 Z0.300 F1000.0
