; Generated from plant.mem
; Image size: 100 x 100 pixels
; Center on origin: false
G21        ; mm units
G90        ; absolute coords
G0 Z2.000   ; pen up
G0 X25.50 Y4.00 Z2.00
G1 Z0.00 F1000.0
G1 X26.00 Y4.00
G0 Z2.00
G0 X25.00 Y4.50 Z2.00
G1 Z0.60 F1000.0
G1 X25.00 Y4.50
G0 Z2.00
G0 X29.00 Y4.50 Z2.00
G1 Z0.00 F1000.0
G1 X29.50 Y4.50
G0 Z2.00
G0 X34.50 Y4.50 Z2.00
G1 Z0.00 F1000.0
G1 X34.50 Y4.50
G0 Z2.00
G0 X25.00 Y5.00 Z2.00
G1 Z0.00 F1000.0
G1 X25.00 Y5.00
G0 Z2.00
G0 X25.50 Y5.00 Z2.00
G1 Z0.60 F1000.0
G1 X26.00 Y5.00
G0 Z2.00
G0 X26.50 Y5.00 Z2.00
G1 Z0.00 F1000.0
G1 X26.50 Y5.00
G0 Z2.00
G0 X28.50 Y5.00 Z2.00
G1 Z0.00 F1000.0
G1 X28.50 Y5.00
G0 Z2.00
G0 X29.00 Y5.00 Z2.00
G1 Z0.60 F1000.0
G1 X29.00 Y5.00
G0 Z2.00
G0 X34.00 Y5.00 Z2.00
G1 Z0.00 F1000.0
G1 X34.00 Y5.00
G0 Z2.00
G0 X35.00 Y5.00 Z2.00
G1 Z0.00 F1000.0
G1 X35.00 Y5.00
G0 Z2.00
G0 X25.00 Y5.50 Z2.00
G1 Z0.00 F1000.0
G1 X25.00 Y5.50
G0 Z2.00
G0 X25.50 Y5.50 Z2.00
G1 Z0.60 F1000.0
G1 X26.00 Y5.50
G0 Z2.00
G0 X26.50 Y5.50 Z2.00
G1 Z0.00 F1000.0
G1 X26.50 Y5.50
G0 Z2.00
G0 X28.50 Y5.50 Z2.00
G1 Z0.60 F1000.0
G1 X29.00 Y5.50
G0 Z2.00
G0 X30.00 Y5.50 Z2.00
G1 Z0.00 F1000.0
G1 X30.00 Y5.50
G0 Z2.00
G0 X34.00 Y5.50 Z2.00
G1 Z0.60 F1000.0
G1 X34.50 Y5.50
G0 Z2.00
G0 X35.00 Y5.50 Z2.00
G1 Z0.00 F1000.0
G1 X35.00 Y5.50
G0 Z2.00
G0 X25.00 Y6.00 Z2.00
G1 Z0.60 F1000.0
G1 X26.00 Y6.00
G0 Z2.00
G0 X26.50 Y6.00 Z2.00
G1 Z0.00 F1000.0
G1 X26.50 Y6.00
G0 Z2.00
G0 X28.00 Y6.00 Z2.00
G1 Z0.30 F1000.0
G1 X28.00 Y6.00
G0 Z2.00
G0 X28.50 Y6.00 Z2.00
G1 Z0.60 F1000.0
G1 X29.00 Y6.00
G0 Z2.00
G0 X33.50 Y6.00 Z2.00
G1 Z0.30 F1000.0
G1 X33.50 Y6.00
G0 Z2.00
G0 X34.00 Y6.00 Z2.00
G1 Z0.60 F1000.0
G1 X34.50 Y6.00
G0 Z2.00
G0 X35.00 Y6.00 Z2.00
G1 Z0.00 F1000.0
G1 X35.00 Y6.00
G0 Z2.00
G0 X25.50 Y6.50 Z2.00
G1 Z0.60 F1000.0
G1 X26.00 Y6.50
G0 Z2.00
G0 X26.50 Y6.50 Z2.00
G1 Z0.00 F1000.0
G1 X26.50 Y6.50
G0 Z2.00
G0 X28.00 Y6.50 Z2.00
G1 Z0.00 F1000.0
G1 X28.00 Y6.50
G0 Z2.00
G0 X28.50 Y6.50 Z2.00
G1 Z0.60 F1000.0
G1 X29.00 Y6.50
G0 Z2.00
G0 X29.50 Y6.50 Z2.00
G1 Z0.30 F1000.0
G1 X29.50 Y6.50
G0 Z2.00
G0 X33.50 Y6.50 Z2.00
G1 Z0.00 F1000.0
G1 X33.50 Y6.50
G0 Z2.00
G0 X34.00 Y6.50 Z2.00
G1 Z0.60 F1000.0
G1 X34.50 Y6.50
G0 Z2.00
G0 X25.50 Y7.00 Z2.00
G1 Z0.00 F1000.0
G1 X25.50 Y7.00
G0 Z2.00
G0 X26.00 Y7.00 Z2.00
G1 Z0.60 F1000.0
G1 X26.00 Y7.00
G0 Z2.00
G0 X26.50 Y7.00 Z2.00
G1 Z0.00 F1000.0
G1 X26.50 Y7.00
G0 Z2.00
G0 X28.00 Y7.00 Z2.00
G1 Z0.30 F1000.0
G1 X28.00 Y7.00
G0 Z2.00
G0 X28.50 Y7.00 Z2.00
G1 Z0.60 F1000.0
G1 X29.00 Y7.00
G0 Z2.00
G0 X29.50 Y7.00 Z2.00
G1 Z0.00 F1000.0
G1 X29.50 Y7.00
G0 Z2.00
G0 X33.50 Y7.00 Z2.00
G1 Z0.00 F1000.0
G1 X33.50 Y7.00
G0 Z2.00
G0 X34.00 Y7.00 Z2.00
G1 Z0.60 F1000.0
G1 X34.50 Y7.00
G0 Z2.00
G0 X25.50 Y7.50 Z2.00
G1 Z0.00 F1000.0
G1 X25.50 Y7.50
G0 Z2.00
G0 X26.00 Y7.50 Z2.00
G1 Z0.30 F1000.0
G1 X26.50 Y7.50
G0 Z2.00
G0 X27.50 Y7.50 Z2.00
G1 Z0.00 F1000.0
G1 X27.50 Y7.50
G0 Z2.00
G0 X28.00 Y7.50 Z2.00
G1 Z0.30 F1000.0
G1 X28.00 Y7.50
G0 Z2.00
G0 X28.50 Y7.50 Z2.00
G1 Z0.60 F1000.0
G1 X28.50 Y7.50
G0 Z2.00
G0 X29.00 Y7.50 Z2.00
G1 Z0.00 F1000.0
G1 X29.00 Y7.50
G0 Z2.00
G0 X33.50 Y7.50 Z2.00
G1 Z0.60 F1000.0
G1 X34.00 Y7.50
G0 Z2.00
G0 X34.50 Y7.50 Z2.00
G1 Z0.00 F1000.0
G1 X34.50 Y7.50
G0 Z2.00
G0 X38.50 Y7.50 Z2.00
G1 Z0.60 F1000.0
G1 X38.50 Y7.50
G0 Z2.00
G0 X15.50 Y8.00 Z2.00
G1 Z0.00 F1000.0
G1 X16.00 Y8.00
G0 Z2.00
G0 X26.00 Y8.00 Z2.00
G1 Z0.30 F1000.0
G1 X26.50 Y8.00
G0 Z2.00
G0 X27.00 Y8.00 Z2.00
G1 Z0.00 F1000.0
G1 X27.00 Y8.00
G0 Z2.00
G0 X27.50 Y8.00 Z2.00
G1 Z0.30 F1000.0
G1 X28.50 Y8.00
G0 Z2.00
G0 X33.50 Y8.00 Z2.00
G1 Z0.60 F1000.0
G1 X33.50 Y8.00
G0 Z2.00
G0 X34.50 Y8.00 Z2.00
G1 Z0.00 F1000.0
G1 X34.50 Y8.00
G0 Z2.00
G0 X37.50 Y8.00 Z2.00
G1 Z0.00 F1000.0
G1 X37.50 Y8.00
G0 Z2.00
G0 X38.00 Y8.00 Z2.00
G1 Z0.60 F1000.0
G1 X38.00 Y8.00
G0 Z2.00
G0 X39.00 Y8.00 Z2.00
G1 Z0.30 F1000.0
G1 X39.00 Y8.00
G0 Z2.00
G0 X15.00 Y8.50 Z2.00
G1 Z0.00 F1000.0
G1 X15.00 Y8.50
G0 Z2.00
G0 X15.50 Y8.50 Z2.00
G1 Z0.60 F1000.0
G1 X16.00 Y8.50
G0 Z2.00
G0 X16.50 Y8.50 Z2.00
G1 Z0.00 F1000.0
G1 X16.50 Y8.50
G0 Z2.00
G0 X26.00 Y8.50 Z2.00
G1 Z0.00 F1000.0
G1 X26.00 Y8.50
G0 Z2.00
G0 X26.50 Y8.50 Z2.00
G1 Z0.30 F1000.0
G1 X28.00 Y8.50
G0 Z2.00
G0 X28.50 Y8.50 Z2.00
G1 Z0.00 F1000.0
G1 X28.50 Y8.50
G0 Z2.00
G0 X33.50 Y8.50 Z2.00
G1 Z0.60 F1000.0
G1 X34.00 Y8.50
G0 Z2.00
G0 X37.00 Y8.50 Z2.00
G1 Z0.00 F1000.0
G1 X37.00 Y8.50
G0 Z2.00
G0 X37.50 Y8.50 Z2.00
G1 Z0.60 F1000.0
G1 X38.50 Y8.50
G0 Z2.00
G0 X39.00 Y8.50 Z2.00
G1 Z0.00 F1000.0
G1 X39.00 Y8.50
G0 Z2.00
G0 X10.50 Y9.00 Z2.00
G1 Z0.60 F1000.0
G1 X10.50 Y9.00
G0 Z2.00
G0 X11.00 Y9.00 Z2.00
G1 Z0.30 F1000.0
G1 X11.00 Y9.00
G0 Z2.00
G0 X15.00 Y9.00 Z2.00
G1 Z0.60 F1000.0
G1 X16.00 Y9.00
G0 Z2.00
G0 X16.50 Y9.00 Z2.00
G1 Z0.30 F1000.0
G1 X16.50 Y9.00
G0 Z2.00
G0 X26.00 Y9.00 Z2.00
G1 Z0.30 F1000.0
G1 X28.00 Y9.00
G0 Z2.00
G0 X33.00 Y9.00 Z2.00
G1 Z0.30 F1000.0
G1 X33.00 Y9.00
G0 Z2.00
G0 X33.50 Y9.00 Z2.00
G1 Z0.60 F1000.0
G1 X33.50 Y9.00
G0 Z2.00
G0 X34.00 Y9.00 Z2.00
G1 Z0.30 F1000.0
G1 X34.00 Y9.00
G0 Z2.00
G0 X36.50 Y9.00 Z2.00
G1 Z0.30 F1000.0
G1 X36.50 Y9.00
G0 Z2.00
G0 X37.00 Y9.00 Z2.00
G1 Z0.60 F1000.0
G1 X38.50 Y9.00
G0 Z2.00
G0 X39.00 Y9.00 Z2.00
G1 Z0.30 F1000.0
G1 X39.00 Y9.00
G0 Z2.00
G0 X10.00 Y9.50 Z2.00
G1 Z0.00 F1000.0
G1 X10.00 Y9.50
G0 Z2.00
G0 X10.50 Y9.50 Z2.00
G1 Z0.60 F1000.0
G1 X11.00 Y9.50
G0 Z2.00
G0 X11.50 Y9.50 Z2.00
G1 Z0.00 F1000.0
G1 X11.50 Y9.50
G0 Z2.00
G0 X14.50 Y9.50 Z2.00
G1 Z0.60 F1000.0
G1 X16.50 Y9.50
G0 Z2.00
G0 X26.50 Y9.50 Z2.00
G1 Z0.30 F1000.0
G1 X27.50 Y9.50
G0 Z2.00
G0 X28.00 Y9.50 Z2.00
G1 Z0.00 F1000.0
G1 X28.00 Y9.50
G0 Z2.00
G0 X33.00 Y9.50 Z2.00
G1 Z0.00 F1000.0
G1 X33.00 Y9.50
G0 Z2.00
G0 X33.50 Y9.50 Z2.00
G1 Z0.60 F1000.0
G1 X33.50 Y9.50
G0 Z2.00
G0 X34.00 Y9.50 Z2.00
G1 Z0.00 F1000.0
G1 X34.00 Y9.50
G0 Z2.00
G0 X36.00 Y9.50 Z2.00
G1 Z0.00 F1000.0
G1 X36.00 Y9.50
G0 Z2.00
G0 X36.50 Y9.50 Z2.00
G1 Z0.60 F1000.0
G1 X38.50 Y9.50
G0 Z2.00
G0 X39.00 Y9.50 Z2.00
G1 Z0.00 F1000.0
G1 X39.00 Y9.50
G0 Z2.00
G0 X10.00 Y10.00 Z2.00
G1 Z0.00 F1000.0
G1 X10.00 Y10.00
G0 Z2.00
G0 X11.00 Y10.00 Z2.00
G1 Z0.60 F1000.0
G1 X11.00 Y10.00
G0 Z2.00
G0 X11.50 Y10.00 Z2.00
G1 Z0.30 F1000.0
G1 X11.50 Y10.00
G0 Z2.00
G0 X14.50 Y10.00 Z2.00
G1 Z0.00 F1000.0
G1 X14.50 Y10.00
G0 Z2.00
G0 X15.00 Y10.00 Z2.00
G1 Z0.60 F1000.0
G1 X16.00 Y10.00
G0 Z2.00
G0 X16.50 Y10.00 Z2.00
G1 Z0.30 F1000.0
G1 X16.50 Y10.00
G0 Z2.00
G0 X26.50 Y10.00 Z2.00
G1 Z0.30 F1000.0
G1 X26.50 Y10.00
G0 Z2.00
G0 X27.00 Y10.00 Z2.00
G1 Z0.60 F1000.0
G1 X27.50 Y10.00
G0 Z2.00
G0 X33.00 Y10.00 Z2.00
G1 Z0.00 F1000.0
G1 X33.00 Y10.00
G0 Z2.00
G0 X33.50 Y10.00 Z2.00
G1 Z0.60 F1000.0
G1 X33.50 Y10.00
G0 Z2.00
G0 X34.00 Y10.00 Z2.00
G1 Z0.00 F1000.0
G1 X34.00 Y10.00
G0 Z2.00
G0 X35.50 Y10.00 Z2.00
G1 Z0.00 F1000.0
G1 X35.50 Y10.00
G0 Z2.00
G0 X36.00 Y10.00 Z2.00
G1 Z0.60 F1000.0
G1 X38.00 Y10.00
G0 Z2.00
G0 X38.50 Y10.00 Z2.00
G1 Z0.00 F1000.0
G1 X38.50 Y10.00
G0 Z2.00
G0 X10.00 Y10.50 Z2.00
G1 Z0.00 F1000.0
G1 X10.00 Y10.50
G0 Z2.00
G0 X10.50 Y10.50 Z2.00
G1 Z0.60 F1000.0
G1 X11.00 Y10.50
G0 Z2.00
G0 X14.50 Y10.50 Z2.00
G1 Z0.00 F1000.0
G1 X14.50 Y10.50
G0 Z2.00
G0 X15.00 Y10.50 Z2.00
G1 Z0.60 F1000.0
G1 X16.00 Y10.50
G0 Z2.00
G0 X16.50 Y10.50 Z2.00
G1 Z0.00 F1000.0
G1 X16.50 Y10.50
G0 Z2.00
G0 X26.50 Y10.50 Z2.00
G1 Z0.30 F1000.0
G1 X26.50 Y10.50
G0 Z2.00
G0 X27.00 Y10.50 Z2.00
G1 Z0.60 F1000.0
G1 X27.00 Y10.50
G0 Z2.00
G0 X27.50 Y10.50 Z2.00
G1 Z0.30 F1000.0
G1 X27.50 Y10.50
G0 Z2.00
G0 X33.00 Y10.50 Z2.00
G1 Z0.00 F1000.0
G1 X33.00 Y10.50
G0 Z2.00
G0 X33.50 Y10.50 Z2.00
G1 Z0.60 F1000.0
G1 X33.50 Y10.50
G0 Z2.00
G0 X34.00 Y10.50 Z2.00
G1 Z0.00 F1000.0
G1 X35.00 Y10.50
G0 Z2.00
G0 X35.50 Y10.50 Z2.00
G1 Z0.30 F1000.0
G1 X35.50 Y10.50
G0 Z2.00
G0 X36.00 Y10.50 Z2.00
G1 Z0.60 F1000.0
G1 X37.50 Y10.50
G0 Z2.00
G0 X38.00 Y10.50 Z2.00
G1 Z0.00 F1000.0
G1 X38.00 Y10.50
G0 Z2.00
G0 X10.00 Y11.00 Z2.00
G1 Z0.00 F1000.0
G1 X10.00 Y11.00
G0 Z2.00
G0 X10.50 Y11.00 Z2.00
G1 Z0.60 F1000.0
G1 X11.50 Y11.00
G0 Z2.00
G0 X12.00 Y11.00 Z2.00
G1 Z0.30 F1000.0
G1 X12.00 Y11.00
G0 Z2.00
G0 X14.50 Y11.00 Z2.00
G1 Z0.30 F1000.0
G1 X14.50 Y11.00
G0 Z2.00
G0 X15.00 Y11.00 Z2.00
G1 Z0.60 F1000.0
G1 X16.00 Y11.00
G0 Z2.00
G0 X16.50 Y11.00 Z2.00
G1 Z0.00 F1000.0
G1 X16.50 Y11.00
G0 Z2.00
G0 X26.50 Y11.00 Z2.00
G1 Z0.60 F1000.0
G1 X27.00 Y11.00
G0 Z2.00
G0 X27.50 Y11.00 Z2.00
G1 Z0.00 F1000.0
G1 X27.50 Y11.00
G0 Z2.00
G0 X33.00 Y11.00 Z2.00
G1 Z0.60 F1000.0
G1 X33.50 Y11.00
G0 Z2.00
G0 X34.00 Y11.00 Z2.00
G1 Z0.30 F1000.0
G1 X35.00 Y11.00
G0 Z2.00
G0 X35.50 Y11.00 Z2.00
G1 Z0.60 F1000.0
G1 X36.50 Y11.00
G0 Z2.00
G0 X37.00 Y11.00 Z2.00
G1 Z0.30 F1000.0
G1 X37.00 Y11.00
G0 Z2.00
G0 X37.50 Y11.00 Z2.00
G1 Z0.00 F1000.0
G1 X37.50 Y11.00
G0 Z2.00
G0 X10.50 Y11.50 Z2.00
G1 Z0.60 F1000.0
G1 X11.50 Y11.50
G0 Z2.00
G0 X12.00 Y11.50 Z2.00
G1 Z0.00 F1000.0
G1 X12.00 Y11.50
G0 Z2.00
G0 X14.50 Y11.50 Z2.00
G1 Z0.60 F1000.0
G1 X16.00 Y11.50
G0 Z2.00
G0 X26.50 Y11.50 Z2.00
G1 Z0.60 F1000.0
G1 X27.00 Y11.50
G0 Z2.00
G0 X27.50 Y11.50 Z2.00
G1 Z0.00 F1000.0
G1 X27.50 Y11.50
G0 Z2.00
G0 X33.00 Y11.50 Z2.00
G1 Z0.60 F1000.0
G1 X33.50 Y11.50
G0 Z2.00
G0 X34.00 Y11.50 Z2.00
G1 Z0.30 F1000.0
G1 X35.50 Y11.50
G0 Z2.00
G0 X36.00 Y11.50 Z2.00
G1 Z0.00 F1000.0
G1 X36.00 Y11.50
G0 Z2.00
G0 X36.50 Y11.50 Z2.00
G1 Z0.30 F1000.0
G1 X36.50 Y11.50
G0 Z2.00
G0 X10.50 Y12.00 Z2.00
G1 Z0.30 F1000.0
G1 X10.50 Y12.00
G0 Z2.00
G0 X11.00 Y12.00 Z2.00
G1 Z0.60 F1000.0
G1 X11.00 Y12.00
G0 Z2.00
G0 X12.00 Y12.00 Z2.00
G1 Z0.30 F1000.0
G1 X12.00 Y12.00
G0 Z2.00
G0 X14.50 Y12.00 Z2.00
G1 Z0.60 F1000.0
G1 X15.50 Y12.00
G0 Z2.00
G0 X16.00 Y12.00 Z2.00
G1 Z0.00 F1000.0
G1 X16.00 Y12.00
G0 Z2.00
G0 X26.50 Y12.00 Z2.00
G1 Z0.60 F1000.0
G1 X27.00 Y12.00
G0 Z2.00
G0 X27.50 Y12.00 Z2.00
G1 Z0.00 F1000.0
G1 X27.50 Y12.00
G0 Z2.00
G0 X33.00 Y12.00 Z2.00
G1 Z0.60 F1000.0
G1 X34.50 Y12.00
G0 Z2.00
G0 X35.00 Y12.00 Z2.00
G1 Z0.00 F1000.0
G1 X35.00 Y12.00
G0 Z2.00
G0 X10.50 Y12.50 Z2.00
G1 Z0.00 F1000.0
G1 X10.50 Y12.50
G0 Z2.00
G0 X11.00 Y12.50 Z2.00
G1 Z0.60 F1000.0
G1 X12.00 Y12.50
G0 Z2.00
G0 X14.00 Y12.50 Z2.00
G1 Z0.60 F1000.0
G1 X15.50 Y12.50
G0 Z2.00
G0 X16.00 Y12.50 Z2.00
G1 Z0.00 F1000.0
G1 X16.00 Y12.50
G0 Z2.00
G0 X26.50 Y12.50 Z2.00
G1 Z0.60 F1000.0
G1 X27.00 Y12.50
G0 Z2.00
G0 X27.50 Y12.50 Z2.00
G1 Z0.00 F1000.0
G1 X27.50 Y12.50
G0 Z2.00
G0 X32.50 Y12.50 Z2.00
G1 Z0.30 F1000.0
G1 X32.50 Y12.50
G0 Z2.00
G0 X33.00 Y12.50 Z2.00
G1 Z0.60 F1000.0
G1 X33.50 Y12.50
G0 Z2.00
G0 X34.50 Y12.50 Z2.00
G1 Z0.00 F1000.0
G1 X34.50 Y12.50
G0 Z2.00
G0 X11.00 Y13.00 Z2.00
G1 Z0.60 F1000.0
G1 X12.50 Y13.00
G0 Z2.00
G0 X14.00 Y13.00 Z2.00
G1 Z0.00 F1000.0
G1 X14.00 Y13.00
G0 Z2.00
G0 X14.50 Y13.00 Z2.00
G1 Z0.60 F1000.0
G1 X15.50 Y13.00
G0 Z2.00
G0 X26.50 Y13.00 Z2.00
G1 Z0.60 F1000.0
G1 X27.00 Y13.00
G0 Z2.00
G0 X27.50 Y13.00 Z2.00
G1 Z0.00 F1000.0
G1 X27.50 Y13.00
G0 Z2.00
G0 X32.50 Y13.00 Z2.00
G1 Z0.00 F1000.0
G1 X32.50 Y13.00
G0 Z2.00
G0 X33.00 Y13.00 Z2.00
G1 Z0.60 F1000.0
G1 X34.00 Y13.00
G0 Z2.00
G0 X11.00 Y13.50 Z2.00
G1 Z0.00 F1000.0
G1 X11.00 Y13.50
G0 Z2.00
G0 X11.50 Y13.50 Z2.00
G1 Z0.60 F1000.0
G1 X12.00 Y13.50
G0 Z2.00
G0 X12.50 Y13.50 Z2.00
G1 Z0.00 F1000.0
G1 X12.50 Y13.50
G0 Z2.00
G0 X14.00 Y13.50 Z2.00
G1 Z0.00 F1000.0
G1 X14.00 Y13.50
G0 Z2.00
G0 X14.50 Y13.50 Z2.00
G1 Z0.60 F1000.0
G1 X15.00 Y13.50
G0 Z2.00
G0 X15.50 Y13.50 Z2.00
G1 Z0.00 F1000.0
G1 X15.50 Y13.50
G0 Z2.00
G0 X19.00 Y13.50 Z2.00
G1 Z0.00 F1000.0
G1 X19.00 Y13.50
G0 Z2.00
G0 X26.50 Y13.50 Z2.00
G1 Z0.60 F1000.0
G1 X27.00 Y13.50
G0 Z2.00
G0 X27.50 Y13.50 Z2.00
G1 Z0.00 F1000.0
G1 X27.50 Y13.50
G0 Z2.00
G0 X32.50 Y13.50 Z2.00
G1 Z0.60 F1000.0
G1 X33.50 Y13.50
G0 Z2.00
G0 X34.00 Y13.50 Z2.00
G1 Z0.00 F1000.0
G1 X34.00 Y13.50
G0 Z2.00
G0 X11.00 Y14.00 Z2.00
G1 Z0.30 F1000.0
G1 X11.00 Y14.00
G0 Z2.00
G0 X11.50 Y14.00 Z2.00
G1 Z0.60 F1000.0
G1 X12.00 Y14.00
G0 Z2.00
G0 X12.50 Y14.00 Z2.00
G1 Z0.30 F1000.0
G1 X12.50 Y14.00
G0 Z2.00
G0 X14.00 Y14.00 Z2.00
G1 Z0.00 F1000.0
G1 X14.00 Y14.00
G0 Z2.00
G0 X14.50 Y14.00 Z2.00
G1 Z0.60 F1000.0
G1 X15.00 Y14.00
G0 Z2.00
G0 X15.50 Y14.00 Z2.00
G1 Z0.00 F1000.0
G1 X15.50 Y14.00
G0 Z2.00
G0 X18.50 Y14.00 Z2.00
G1 Z0.00 F1000.0
G1 X18.50 Y14.00
G0 Z2.00
G0 X19.50 Y14.00 Z2.00
G1 Z0.00 F1000.0
G1 X19.50 Y14.00
G0 Z2.00
G0 X26.50 Y14.00 Z2.00
G1 Z0.60 F1000.0
G1 X27.00 Y14.00
G0 Z2.00
G0 X27.50 Y14.00 Z2.00
G1 Z0.00 F1000.0
G1 X27.50 Y14.00
G0 Z2.00
G0 X32.00 Y14.00 Z2.00
G1 Z0.60 F1000.0
G1 X33.00 Y14.00
G0 Z2.00
G0 X33.50 Y14.00 Z2.00
G1 Z0.30 F1000.0
G1 X33.50 Y14.00
G0 Z2.00
G0 X39.00 Y14.00 Z2.00
G1 Z0.00 F1000.0
G1 X39.00 Y14.00
G0 Z2.00
G0 X11.50 Y14.50 Z2.00
G1 Z0.00 F1000.0
G1 X11.50 Y14.50
G0 Z2.00
G0 X12.00 Y14.50 Z2.00
G1 Z0.60 F1000.0
G1 X12.50 Y14.50
G0 Z2.00
G0 X14.00 Y14.50 Z2.00
G1 Z0.00 F1000.0
G1 X14.00 Y14.50
G0 Z2.00
G0 X14.50 Y14.50 Z2.00
G1 Z0.30 F1000.0
G1 X14.50 Y14.50
G0 Z2.00
G0 X15.00 Y14.50 Z2.00
G1 Z0.60 F1000.0
G1 X15.00 Y14.50
G0 Z2.00
G0 X15.50 Y14.50 Z2.00
G1 Z0.30 F1000.0
G1 X15.50 Y14.50
G0 Z2.00
G0 X18.50 Y14.50 Z2.00
G1 Z0.30 F1000.0
G1 X18.50 Y14.50
G0 Z2.00
G0 X19.00 Y14.50 Z2.00
G1 Z0.60 F1000.0
G1 X19.00 Y14.50
G0 Z2.00
G0 X19.50 Y14.50 Z2.00
G1 Z0.00 F1000.0
G1 X19.50 Y14.50
G0 Z2.00
G0 X26.50 Y14.50 Z2.00
G1 Z0.60 F1000.0
G1 X27.00 Y14.50
G0 Z2.00
G0 X27.50 Y14.50 Z2.00
G1 Z0.00 F1000.0
G1 X27.50 Y14.50
G0 Z2.00
G0 X32.00 Y14.50 Z2.00
G1 Z0.00 F1000.0
G1 X32.00 Y14.50
G0 Z2.00
G0 X32.50 Y14.50 Z2.00
G1 Z0.60 F1000.0
G1 X33.00 Y14.50
G0 Z2.00
G0 X33.50 Y14.50 Z2.00
G1 Z0.00 F1000.0
G1 X33.50 Y14.50
G0 Z2.00
G0 X38.50 Y14.50 Z2.00
G1 Z0.00 F1000.0
G1 X38.50 Y14.50
G0 Z2.00
G0 X39.00 Y14.50 Z2.00
G1 Z0.60 F1000.0
G1 X39.00 Y14.50
G0 Z2.00
G0 X39.50 Y14.50 Z2.00
G1 Z0.00 F1000.0
G1 X39.50 Y14.50
G0 Z2.00
G0 X11.50 Y15.00 Z2.00
G1 Z0.60 F1000.0
G1 X12.00 Y15.00
G0 Z2.00
G0 X12.50 Y15.00 Z2.00
G1 Z0.30 F1000.0
G1 X12.50 Y15.00
G0 Z2.00
G0 X13.00 Y15.00 Z2.00
G1 Z0.00 F1000.0
G1 X13.00 Y15.00
G0 Z2.00
G0 X14.00 Y15.00 Z2.00
G1 Z0.00 F1000.0
G1 X14.00 Y15.00
G0 Z2.00
G0 X14.50 Y15.00 Z2.00
G1 Z0.30 F1000.0
G1 X14.50 Y15.00
G0 Z2.00
G0 X15.00 Y15.00 Z2.00
G1 Z0.60 F1000.0
G1 X15.00 Y15.00
G0 Z2.00
G0 X18.50 Y15.00 Z2.00
G1 Z0.30 F1000.0
G1 X18.50 Y15.00
G0 Z2.00
G0 X19.00 Y15.00 Z2.00
G1 Z0.60 F1000.0
G1 X19.00 Y15.00
G0 Z2.00
G0 X26.50 Y15.00 Z2.00
G1 Z0.60 F1000.0
G1 X27.00 Y15.00
G0 Z2.00
G0 X27.50 Y15.00 Z2.00
G1 Z0.00 F1000.0
G1 X27.50 Y15.00
G0 Z2.00
G0 X32.00 Y15.00 Z2.00
G1 Z0.60 F1000.0
G1 X32.50 Y15.00
G0 Z2.00
G0 X33.00 Y15.00 Z2.00
G1 Z0.00 F1000.0
G1 X33.00 Y15.00
G0 Z2.00
G0 X38.50 Y15.00 Z2.00
G1 Z0.60 F1000.0
G1 X39.00 Y15.00
G0 Z2.00
G0 X39.50 Y15.00 Z2.00
G1 Z0.00 F1000.0
G1 X39.50 Y15.00
G0 Z2.00
G0 X12.00 Y15.50 Z2.00
G1 Z0.00 F1000.0
G1 X12.00 Y15.50
G0 Z2.00
G0 X12.50 Y15.50 Z2.00
G1 Z0.60 F1000.0
G1 X12.50 Y15.50
G0 Z2.00
G0 X13.00 Y15.50 Z2.00
G1 Z0.30 F1000.0
G1 X13.00 Y15.50
G0 Z2.00
G0 X13.50 Y15.50 Z2.00
G1 Z0.00 F1000.0
G1 X13.50 Y15.50
G0 Z2.00
G0 X14.00 Y15.50 Z2.00
G1 Z0.30 F1000.0
G1 X14.00 Y15.50
G0 Z2.00
G0 X14.50 Y15.50 Z2.00
G1 Z0.60 F1000.0
G1 X15.00 Y15.50
G0 Z2.00
G0 X18.50 Y15.50 Z2.00
G1 Z0.60 F1000.0
G1 X19.00 Y15.50
G0 Z2.00
G0 X23.50 Y15.50 Z2.00
G1 Z0.60 F1000.0
G1 X23.50 Y15.50
G0 Z2.00
G0 X26.50 Y15.50 Z2.00
G1 Z0.30 F1000.0
G1 X26.50 Y15.50
G0 Z2.00
G0 X27.00 Y15.50 Z2.00
G1 Z0.60 F1000.0
G1 X27.00 Y15.50
G0 Z2.00
G0 X27.50 Y15.50 Z2.00
G1 Z0.00 F1000.0
G1 X27.50 Y15.50
G0 Z2.00
G0 X31.50 Y15.50 Z2.00
G1 Z0.00 F1000.0
G1 X31.50 Y15.50
G0 Z2.00
G0 X32.00 Y15.50 Z2.00
G1 Z0.60 F1000.0
G1 X33.00 Y15.50
G0 Z2.00
G0 X38.00 Y15.50 Z2.00
G1 Z0.00 F1000.0
G1 X38.00 Y15.50
G0 Z2.00
G0 X38.50 Y15.50 Z2.00
G1 Z0.60 F1000.0
G1 X39.00 Y15.50
G0 Z2.00
G0 X12.50 Y16.00 Z2.00
G1 Z0.30 F1000.0
G1 X14.00 Y16.00
G0 Z2.00
G0 X14.50 Y16.00 Z2.00
G1 Z0.60 F1000.0
G1 X15.00 Y16.00
G0 Z2.00
G0 X18.50 Y16.00 Z2.00
G1 Z0.00 F1000.0
G1 X18.50 Y16.00
G0 Z2.00
G0 X19.00 Y16.00 Z2.00
G1 Z0.60 F1000.0
G1 X19.50 Y16.00
G0 Z2.00
G0 X23.00 Y16.00 Z2.00
G1 Z0.60 F1000.0
G1 X23.00 Y16.00
G0 Z2.00
G0 X26.50 Y16.00 Z2.00
G1 Z0.00 F1000.0
G1 X26.50 Y16.00
G0 Z2.00
G0 X27.00 Y16.00 Z2.00
G1 Z0.60 F1000.0
G1 X27.00 Y16.00
G0 Z2.00
G0 X27.50 Y16.00 Z2.00
G1 Z0.00 F1000.0
G1 X27.50 Y16.00
G0 Z2.00
G0 X31.00 Y16.00 Z2.00
G1 Z0.30 F1000.0
G1 X31.00 Y16.00
G0 Z2.00
G0 X31.50 Y16.00 Z2.00
G1 Z0.60 F1000.0
G1 X32.00 Y16.00
G0 Z2.00
G0 X32.50 Y16.00 Z2.00
G1 Z0.00 F1000.0
G1 X32.50 Y16.00
G0 Z2.00
G0 X38.00 Y16.00 Z2.00
G1 Z0.60 F1000.0
G1 X38.50 Y16.00
G0 Z2.00
G0 X39.00 Y16.00 Z2.00
G1 Z0.00 F1000.0
G1 X39.00 Y16.00
G0 Z2.00
G0 X12.50 Y16.50 Z2.00
G1 Z0.60 F1000.0
G1 X15.00 Y16.50
G0 Z2.00
G0 X18.50 Y16.50 Z2.00
G1 Z0.00 F1000.0
G1 X18.50 Y16.50
G0 Z2.00
G0 X19.00 Y16.50 Z2.00
G1 Z0.60 F1000.0
G1 X19.50 Y16.50
G0 Z2.00
G0 X20.00 Y16.50 Z2.00
G1 Z0.30 F1000.0
G1 X20.00 Y16.50
G0 Z2.00
G0 X22.50 Y16.50 Z2.00
G1 Z0.00 F1000.0
G1 X22.50 Y16.50
G0 Z2.00
G0 X23.00 Y16.50 Z2.00
G1 Z0.60 F1000.0
G1 X23.50 Y16.50
G0 Z2.00
G0 X24.00 Y16.50 Z2.00
G1 Z0.00 F1000.0
G1 X24.00 Y16.50
G0 Z2.00
G0 X26.50 Y16.50 Z2.00
G1 Z0.00 F1000.0
G1 X26.50 Y16.50
G0 Z2.00
G0 X27.00 Y16.50 Z2.00
G1 Z0.60 F1000.0
G1 X27.00 Y16.50
G0 Z2.00
G0 X27.50 Y16.50 Z2.00
G1 Z0.00 F1000.0
G1 X27.50 Y16.50
G0 Z2.00
G0 X31.00 Y16.50 Z2.00
G1 Z0.00 F1000.0
G1 X31.00 Y16.50
G0 Z2.00
G0 X31.50 Y16.50 Z2.00
G1 Z0.60 F1000.0
G1 X32.00 Y16.50
G0 Z2.00
G0 X32.50 Y16.50 Z2.00
G1 Z0.00 F1000.0
G1 X32.50 Y16.50
G0 Z2.00
G0 X38.00 Y16.50 Z2.00
G1 Z0.60 F1000.0
G1 X38.50 Y16.50
G0 Z2.00
G0 X13.00 Y17.00 Z2.00
G1 Z0.00 F1000.0
G1 X13.00 Y17.00
G0 Z2.00
G0 X13.50 Y17.00 Z2.00
G1 Z0.60 F1000.0
G1 X15.00 Y17.00
G0 Z2.00
G0 X18.50 Y17.00 Z2.00
G1 Z0.60 F1000.0
G1 X19.50 Y17.00
G0 Z2.00
G0 X20.00 Y17.00 Z2.00
G1 Z0.00 F1000.0
G1 X20.00 Y17.00
G0 Z2.00
G0 X22.50 Y17.00 Z2.00
G1 Z0.30 F1000.0
G1 X22.50 Y17.00
G0 Z2.00
G0 X23.00 Y17.00 Z2.00
G1 Z0.60 F1000.0
G1 X23.50 Y17.00
G0 Z2.00
G0 X24.00 Y17.00 Z2.00
G1 Z0.00 F1000.0
G1 X24.00 Y17.00
G0 Z2.00
G0 X26.50 Y17.00 Z2.00
G1 Z0.00 F1000.0
G1 X26.50 Y17.00
G0 Z2.00
G0 X27.00 Y17.00 Z2.00
G1 Z0.60 F1000.0
G1 X27.00 Y17.00
G0 Z2.00
G0 X27.50 Y17.00 Z2.00
G1 Z0.30 F1000.0
G1 X27.50 Y17.00
G0 Z2.00
G0 X30.50 Y17.00 Z2.00
G1 Z0.00 F1000.0
G1 X30.50 Y17.00
G0 Z2.00
G0 X31.00 Y17.00 Z2.00
G1 Z0.60 F1000.0
G1 X32.00 Y17.00
G0 Z2.00
G0 X37.50 Y17.00 Z2.00
G1 Z0.00 F1000.0
G1 X37.50 Y17.00
G0 Z2.00
G0 X38.00 Y17.00 Z2.00
G1 Z0.60 F1000.0
G1 X38.00 Y17.00
G0 Z2.00
G0 X38.50 Y17.00 Z2.00
G1 Z0.00 F1000.0
G1 X38.50 Y17.00
G0 Z2.00
G0 X13.50 Y17.50 Z2.00
G1 Z0.30 F1000.0
G1 X13.50 Y17.50
G0 Z2.00
G0 X14.00 Y17.50 Z2.00
G1 Z0.60 F1000.0
G1 X15.00 Y17.50
G0 Z2.00
G0 X19.00 Y17.50 Z2.00
G1 Z0.60 F1000.0
G1 X19.50 Y17.50
G0 Z2.00
G0 X20.00 Y17.50 Z2.00
G1 Z0.00 F1000.0
G1 X20.00 Y17.50
G0 Z2.00
G0 X22.50 Y17.50 Z2.00
G1 Z0.60 F1000.0
G1 X23.50 Y17.50
G0 Z2.00
G0 X24.00 Y17.50 Z2.00
G1 Z0.00 F1000.0
G1 X24.00 Y17.50
G0 Z2.00
G0 X26.50 Y17.50 Z2.00
G1 Z0.30 F1000.0
G1 X26.50 Y17.50
G0 Z2.00
G0 X27.00 Y17.50 Z2.00
G1 Z0.60 F1000.0
G1 X27.50 Y17.50
G0 Z2.00
G0 X30.00 Y17.50 Z2.00
G1 Z0.00 F1000.0
G1 X30.00 Y17.50
G0 Z2.00
G0 X30.50 Y17.50 Z2.00
G1 Z0.30 F1000.0
G1 X31.00 Y17.50
G0 Z2.00
G0 X31.50 Y17.50 Z2.00
G1 Z0.60 F1000.0
G1 X31.50 Y17.50
G0 Z2.00
G0 X32.00 Y17.50 Z2.00
G1 Z0.30 F1000.0
G1 X32.00 Y17.50
G0 Z2.00
G0 X37.50 Y17.50 Z2.00
G1 Z0.00 F1000.0
G1 X37.50 Y17.50
G0 Z2.00
G0 X38.00 Y17.50 Z2.00
G1 Z0.30 F1000.0
G1 X38.00 Y17.50
G0 Z2.00
G0 X40.00 Y17.50 Z2.00
G1 Z0.60 F1000.0
G1 X40.00 Y17.50
G0 Z2.00
G0 X40.50 Y17.50 Z2.00
G1 Z0.30 F1000.0
G1 X40.50 Y17.50
G0 Z2.00
G0 X13.50 Y18.00 Z2.00
G1 Z0.00 F1000.0
G1 X13.50 Y18.00
G0 Z2.00
G0 X14.00 Y18.00 Z2.00
G1 Z0.60 F1000.0
G1 X15.00 Y18.00
G0 Z2.00
G0 X19.00 Y18.00 Z2.00
G1 Z0.30 F1000.0
G1 X19.00 Y18.00
G0 Z2.00
G0 X19.50 Y18.00 Z2.00
G1 Z0.60 F1000.0
G1 X19.50 Y18.00
G0 Z2.00
G0 X20.00 Y18.00 Z2.00
G1 Z0.00 F1000.0
G1 X20.00 Y18.00
G0 Z2.00
G0 X22.00 Y18.00 Z2.00
G1 Z0.00 F1000.0
G1 X22.00 Y18.00
G0 Z2.00
G0 X22.50 Y18.00 Z2.00
G1 Z0.60 F1000.0
G1 X23.50 Y18.00
G0 Z2.00
G0 X26.50 Y18.00 Z2.00
G1 Z0.60 F1000.0
G1 X27.50 Y18.00
G0 Z2.00
G0 X30.00 Y18.00 Z2.00
G1 Z0.30 F1000.0
G1 X30.50 Y18.00
G0 Z2.00
G0 X31.00 Y18.00 Z2.00
G1 Z0.60 F1000.0
G1 X31.50 Y18.00
G0 Z2.00
G0 X32.00 Y18.00 Z2.00
G1 Z0.00 F1000.0
G1 X32.00 Y18.00
G0 Z2.00
G0 X37.50 Y18.00 Z2.00
G1 Z0.30 F1000.0
G1 X37.50 Y18.00
G0 Z2.00
G0 X38.00 Y18.00 Z2.00
G1 Z0.00 F1000.0
G1 X38.00 Y18.00
G0 Z2.00
G0 X39.50 Y18.00 Z2.00
G1 Z0.00 F1000.0
G1 X39.50 Y18.00
G0 Z2.00
G0 X40.00 Y18.00 Z2.00
G1 Z0.30 F1000.0
G1 X40.00 Y18.00
G0 Z2.00
G0 X40.50 Y18.00 Z2.00
G1 Z0.00 F1000.0
G1 X40.50 Y18.00
G0 Z2.00
G0 X14.00 Y18.50 Z2.00
G1 Z0.00 F1000.0
G1 X14.00 Y18.50
G0 Z2.00
G0 X14.50 Y18.50 Z2.00
G1 Z0.60 F1000.0
G1 X15.00 Y18.50
G0 Z2.00
G0 X15.50 Y18.50 Z2.00
G1 Z0.00 F1000.0
G1 X15.50 Y18.50
G0 Z2.00
G0 X19.00 Y18.50 Z2.00
G1 Z0.00 F1000.0
G1 X19.00 Y18.50
G0 Z2.00
G0 X19.50 Y18.50 Z2.00
G1 Z0.60 F1000.0
G1 X20.00 Y18.50
G0 Z2.00
G0 X22.00 Y18.50 Z2.00
G1 Z0.00 F1000.0
G1 X22.00 Y18.50
G0 Z2.00
G0 X22.50 Y18.50 Z2.00
G1 Z0.60 F1000.0
G1 X23.00 Y18.50
G0 Z2.00
G0 X23.50 Y18.50 Z2.00
G1 Z0.00 F1000.0
G1 X23.50 Y18.50
G0 Z2.00
G0 X27.00 Y18.50 Z2.00
G1 Z0.60 F1000.0
G1 X27.50 Y18.50
G0 Z2.00
G0 X28.00 Y18.50 Z2.00
G1 Z0.00 F1000.0
G1 X28.00 Y18.50
G0 Z2.00
G0 X29.50 Y18.50 Z2.00
G1 Z0.30 F1000.0
G1 X30.00 Y18.50
G0 Z2.00
G0 X30.50 Y18.50 Z2.00
G1 Z0.60 F1000.0
G1 X31.00 Y18.50
G0 Z2.00
G0 X31.50 Y18.50 Z2.00
G1 Z0.30 F1000.0
G1 X31.50 Y18.50
G0 Z2.00
G0 X37.00 Y18.50 Z2.00
G1 Z0.00 F1000.0
G1 X37.00 Y18.50
G0 Z2.00
G0 X37.50 Y18.50 Z2.00
G1 Z0.30 F1000.0
G1 X37.50 Y18.50
G0 Z2.00
G0 X38.00 Y18.50 Z2.00
G1 Z0.00 F1000.0
G1 X39.00 Y18.50
G0 Z2.00
G0 X39.50 Y18.50 Z2.00
G1 Z0.60 F1000.0
G1 X40.00 Y18.50
G0 Z2.00
G0 X14.00 Y19.00 Z2.00
G1 Z0.30 F1000.0
G1 X14.00 Y19.00
G0 Z2.00
G0 X14.50 Y19.00 Z2.00
G1 Z0.60 F1000.0
G1 X15.00 Y19.00
G0 Z2.00
G0 X15.50 Y19.00 Z2.00
G1 Z0.00 F1000.0
G1 X15.50 Y19.00
G0 Z2.00
G0 X19.50 Y19.00 Z2.00
G1 Z0.60 F1000.0
G1 X20.00 Y19.00
G0 Z2.00
G0 X22.00 Y19.00 Z2.00
G1 Z0.30 F1000.0
G1 X22.00 Y19.00
G0 Z2.00
G0 X22.50 Y19.00 Z2.00
G1 Z0.60 F1000.0
G1 X23.00 Y19.00
G0 Z2.00
G0 X23.50 Y19.00 Z2.00
G1 Z0.00 F1000.0
G1 X23.50 Y19.00
G0 Z2.00
G0 X27.00 Y19.00 Z2.00
G1 Z0.60 F1000.0
G1 X27.00 Y19.00
G0 Z2.00
G0 X27.50 Y19.00 Z2.00
G1 Z0.30 F1000.0
G1 X27.50 Y19.00
G0 Z2.00
G0 X28.00 Y19.00 Z2.00
G1 Z0.00 F1000.0
G1 X28.00 Y19.00
G0 Z2.00
G0 X29.00 Y19.00 Z2.00
G1 Z0.00 F1000.0
G1 X29.00 Y19.00
G0 Z2.00
G0 X29.50 Y19.00 Z2.00
G1 Z0.30 F1000.0
G1 X29.50 Y19.00
G0 Z2.00
G0 X30.00 Y19.00 Z2.00
G1 Z0.60 F1000.0
G1 X31.00 Y19.00
G0 Z2.00
G0 X31.50 Y19.00 Z2.00
G1 Z0.00 F1000.0
G1 X31.50 Y19.00
G0 Z2.00
G0 X37.00 Y19.00 Z2.00
G1 Z0.30 F1000.0
G1 X39.00 Y19.00
G0 Z2.00
G0 X39.50 Y19.00 Z2.00
G1 Z0.60 F1000.0
G1 X39.50 Y19.00
G0 Z2.00
G0 X40.50 Y19.00 Z2.00
G1 Z0.00 F1000.0
G1 X40.50 Y19.00
G0 Z2.00
G0 X14.50 Y19.50 Z2.00
G1 Z0.00 F1000.0
G1 X14.50 Y19.50
G0 Z2.00
G0 X15.00 Y19.50 Z2.00
G1 Z0.60 F1000.0
G1 X15.00 Y19.50
G0 Z2.00
G0 X15.50 Y19.50 Z2.00
G1 Z0.30 F1000.0
G1 X15.50 Y19.50
G0 Z2.00
G0 X19.50 Y19.50 Z2.00
G1 Z0.30 F1000.0
G1 X19.50 Y19.50
G0 Z2.00
G0 X20.00 Y19.50 Z2.00
G1 Z0.60 F1000.0
G1 X20.00 Y19.50
G0 Z2.00
G0 X22.00 Y19.50 Z2.00
G1 Z0.30 F1000.0
G1 X22.00 Y19.50
G0 Z2.00
G0 X22.50 Y19.50 Z2.00
G1 Z0.60 F1000.0
G1 X23.00 Y19.50
G0 Z2.00
G0 X27.00 Y19.50 Z2.00
G1 Z0.60 F1000.0
G1 X27.00 Y19.50
G0 Z2.00
G0 X27.50 Y19.50 Z2.00
G1 Z0.30 F1000.0
G1 X29.50 Y19.50
G0 Z2.00
G0 X30.00 Y19.50 Z2.00
G1 Z0.60 F1000.0
G1 X30.50 Y19.50
G0 Z2.00
G0 X31.00 Y19.50 Z2.00
G1 Z0.00 F1000.0
G1 X31.00 Y19.50
G0 Z2.00
G0 X37.00 Y19.50 Z2.00
G1 Z0.60 F1000.0
G1 X37.50 Y19.50
G0 Z2.00
G0 X38.00 Y19.50 Z2.00
G1 Z0.30 F1000.0
G1 X38.00 Y19.50
G0 Z2.00
G0 X38.50 Y19.50 Z2.00
G1 Z0.60 F1000.0
G1 X39.00 Y19.50
G0 Z2.00
G0 X39.50 Y19.50 Z2.00
G1 Z0.00 F1000.0
G1 X39.50 Y19.50
G0 Z2.00
G0 X40.00 Y19.50 Z2.00
G1 Z0.30 F1000.0
G1 X40.00 Y19.50
G0 Z2.00
G0 X14.50 Y20.00 Z2.00
G1 Z0.30 F1000.0
G1 X14.50 Y20.00
G0 Z2.00
G0 X15.00 Y20.00 Z2.00
G1 Z0.60 F1000.0
G1 X15.50 Y20.00
G0 Z2.00
G0 X19.50 Y20.00 Z2.00
G1 Z0.00 F1000.0
G1 X19.50 Y20.00
G0 Z2.00
G0 X20.00 Y20.00 Z2.00
G1 Z0.30 F1000.0
G1 X20.00 Y20.00
G0 Z2.00
G0 X20.50 Y20.00 Z2.00
G1 Z0.00 F1000.0
G1 X20.50 Y20.00
G0 Z2.00
G0 X22.00 Y20.00 Z2.00
G1 Z0.30 F1000.0
G1 X22.00 Y20.00
G0 Z2.00
G0 X22.50 Y20.00 Z2.00
G1 Z0.60 F1000.0
G1 X22.50 Y20.00
G0 Z2.00
G0 X23.00 Y20.00 Z2.00
G1 Z0.00 F1000.0
G1 X23.00 Y20.00
G0 Z2.00
G0 X27.00 Y20.00 Z2.00
G1 Z0.60 F1000.0
G1 X27.00 Y20.00
G0 Z2.00
G0 X27.50 Y20.00 Z2.00
G1 Z0.30 F1000.0
G1 X29.00 Y20.00
G0 Z2.00
G0 X29.50 Y20.00 Z2.00
G1 Z0.60 F1000.0
G1 X30.00 Y20.00
G0 Z2.00
G0 X30.50 Y20.00 Z2.00
G1 Z0.00 F1000.0
G1 X30.50 Y20.00
G0 Z2.00
G0 X36.50 Y20.00 Z2.00
G1 Z0.00 F1000.0
G1 X36.50 Y20.00
G0 Z2.00
G0 X37.00 Y20.00 Z2.00
G1 Z0.60 F1000.0
G1 X37.50 Y20.00
G0 Z2.00
G0 X38.00 Y20.00 Z2.00
G1 Z0.30 F1000.0
G1 X38.00 Y20.00
G0 Z2.00
G0 X38.50 Y20.00 Z2.00
G1 Z0.00 F1000.0
G1 X38.50 Y20.00
G0 Z2.00
G0 X9.00 Y20.50 Z2.00
G1 Z0.00 F1000.0
G1 X10.00 Y20.50
G0 Z2.00
G0 X15.00 Y20.50 Z2.00
G1 Z0.60 F1000.0
G1 X15.50 Y20.50
G0 Z2.00
G0 X16.00 Y20.50 Z2.00
G1 Z0.00 F1000.0
G1 X16.00 Y20.50
G0 Z2.00
G0 X20.00 Y20.50 Z2.00
G1 Z0.30 F1000.0
G1 X20.00 Y20.50
G0 Z2.00
G0 X20.50 Y20.50 Z2.00
G1 Z0.00 F1000.0
G1 X20.50 Y20.50
G0 Z2.00
G0 X21.50 Y20.50 Z2.00
G1 Z0.00 F1000.0
G1 X21.50 Y20.50
G0 Z2.00
G0 X22.00 Y20.50 Z2.00
G1 Z0.30 F1000.0
G1 X22.00 Y20.50
G0 Z2.00
G0 X22.50 Y20.50 Z2.00
G1 Z0.60 F1000.0
G1 X23.00 Y20.50
G0 Z2.00
G0 X27.00 Y20.50 Z2.00
G1 Z0.60 F1000.0
G1 X27.50 Y20.50
G0 Z2.00
G0 X28.00 Y20.50 Z2.00
G1 Z0.30 F1000.0
G1 X29.00 Y20.50
G0 Z2.00
G0 X29.50 Y20.50 Z2.00
G1 Z0.60 F1000.0
G1 X29.50 Y20.50
G0 Z2.00
G0 X30.00 Y20.50 Z2.00
G1 Z0.00 F1000.0
G1 X30.00 Y20.50
G0 Z2.00
G0 X36.50 Y20.50 Z2.00
G1 Z0.00 F1000.0
G1 X36.50 Y20.50
G0 Z2.00
G0 X37.00 Y20.50 Z2.00
G1 Z0.60 F1000.0
G1 X38.00 Y20.50
G0 Z2.00
G0 X9.00 Y21.00 Z2.00
G1 Z0.00 F1000.0
G1 X9.00 Y21.00
G0 Z2.00
G0 X9.50 Y21.00 Z2.00
G1 Z0.60 F1000.0
G1 X9.50 Y21.00
G0 Z2.00
G0 X11.00 Y21.00 Z2.00
G1 Z0.00 F1000.0
G1 X11.00 Y21.00
G0 Z2.00
G0 X15.00 Y21.00 Z2.00
G1 Z0.60 F1000.0
G1 X15.00 Y21.00
G0 Z2.00
G0 X15.50 Y21.00 Z2.00
G1 Z0.30 F1000.0
G1 X15.50 Y21.00
G0 Z2.00
G0 X16.00 Y21.00 Z2.00
G1 Z0.00 F1000.0
G1 X16.00 Y21.00
G0 Z2.00
G0 X20.00 Y21.00 Z2.00
G1 Z0.30 F1000.0
G1 X20.50 Y21.00
G0 Z2.00
G0 X21.00 Y21.00 Z2.00
G1 Z0.00 F1000.0
G1 X21.00 Y21.00
G0 Z2.00
G0 X21.50 Y21.00 Z2.00
G1 Z0.30 F1000.0
G1 X21.50 Y21.00
G0 Z2.00
G0 X22.00 Y21.00 Z2.00
G1 Z0.60 F1000.0
G1 X22.00 Y21.00
G0 Z2.00
G0 X22.50 Y21.00 Z2.00
G1 Z0.30 F1000.0
G1 X22.50 Y21.00
G0 Z2.00
G0 X26.50 Y21.00 Z2.00
G1 Z0.30 F1000.0
G1 X26.50 Y21.00
G0 Z2.00
G0 X27.00 Y21.00 Z2.00
G1 Z0.60 F1000.0
G1 X28.00 Y21.00
G0 Z2.00
G0 X28.50 Y21.00 Z2.00
G1 Z0.30 F1000.0
G1 X28.50 Y21.00
G0 Z2.00
G0 X29.00 Y21.00 Z2.00
G1 Z0.60 F1000.0
G1 X29.00 Y21.00
G0 Z2.00
G0 X29.50 Y21.00 Z2.00
G1 Z0.00 F1000.0
G1 X29.50 Y21.00
G0 Z2.00
G0 X36.50 Y21.00 Z2.00
G1 Z0.60 F1000.0
G1 X37.00 Y21.00
G0 Z2.00
G0 X37.50 Y21.00 Z2.00
G1 Z0.00 F1000.0
G1 X37.50 Y21.00
G0 Z2.00
G0 X41.00 Y21.00 Z2.00
G1 Z0.60 F1000.0
G1 X41.00 Y21.00
G0 Z2.00
G0 X9.00 Y21.50 Z2.00
G1 Z0.00 F1000.0
G1 X9.00 Y21.50
G0 Z2.00
G0 X10.00 Y21.50 Z2.00
G1 Z0.60 F1000.0
G1 X11.00 Y21.50
G0 Z2.00
G0 X11.50 Y21.50 Z2.00
G1 Z0.00 F1000.0
G1 X11.50 Y21.50
G0 Z2.00
G0 X15.00 Y21.50 Z2.00
G1 Z0.30 F1000.0
G1 X15.50 Y21.50
G0 Z2.00
G0 X16.00 Y21.50 Z2.00
G1 Z0.60 F1000.0
G1 X16.50 Y21.50
G0 Z2.00
G0 X20.00 Y21.50 Z2.00
G1 Z0.00 F1000.0
G1 X20.00 Y21.50
G0 Z2.00
G0 X20.50 Y21.50 Z2.00
G1 Z0.30 F1000.0
G1 X21.00 Y21.50
G0 Z2.00
G0 X21.50 Y21.50 Z2.00
G1 Z0.60 F1000.0
G1 X22.00 Y21.50
G0 Z2.00
G0 X22.50 Y21.50 Z2.00
G1 Z0.00 F1000.0
G1 X22.50 Y21.50
G0 Z2.00
G0 X26.50 Y21.50 Z2.00
G1 Z0.00 F1000.0
G1 X26.50 Y21.50
G0 Z2.00
G0 X27.00 Y21.50 Z2.00
G1 Z0.60 F1000.0
G1 X27.00 Y21.50
G0 Z2.00
G0 X27.50 Y21.50 Z2.00
G1 Z0.30 F1000.0
G1 X28.50 Y21.50
G0 Z2.00
G0 X29.00 Y21.50 Z2.00
G1 Z0.00 F1000.0
G1 X29.00 Y21.50
G0 Z2.00
G0 X36.50 Y21.50 Z2.00
G1 Z0.60 F1000.0
G1 X37.00 Y21.50
G0 Z2.00
G0 X41.00 Y21.50 Z2.00
G1 Z0.60 F1000.0
G1 X41.00 Y21.50
G0 Z2.00
G0 X41.50 Y21.50 Z2.00
G1 Z0.00 F1000.0
G1 X41.50 Y21.50
G0 Z2.00
G0 X9.00 Y22.00 Z2.00
G1 Z0.60 F1000.0
G1 X11.50 Y22.00
G0 Z2.00
G0 X12.00 Y22.00 Z2.00
G1 Z0.00 F1000.0
G1 X12.00 Y22.00
G0 Z2.00
G0 X15.00 Y22.00 Z2.00
G1 Z0.60 F1000.0
G1 X15.00 Y22.00
G0 Z2.00
G0 X15.50 Y22.00 Z2.00
G1 Z0.30 F1000.0
G1 X15.50 Y22.00
G0 Z2.00
G0 X16.00 Y22.00 Z2.00
G1 Z0.60 F1000.0
G1 X16.00 Y22.00
G0 Z2.00
G0 X16.50 Y22.00 Z2.00
G1 Z0.00 F1000.0
G1 X16.50 Y22.00
G0 Z2.00
G0 X20.00 Y22.00 Z2.00
G1 Z0.00 F1000.0
G1 X20.00 Y22.00
G0 Z2.00
G0 X20.50 Y22.00 Z2.00
G1 Z0.60 F1000.0
G1 X20.50 Y22.00
G0 Z2.00
G0 X21.00 Y22.00 Z2.00
G1 Z0.30 F1000.0
G1 X21.00 Y22.00
G0 Z2.00
G0 X21.50 Y22.00 Z2.00
G1 Z0.60 F1000.0
G1 X22.00 Y22.00
G0 Z2.00
G0 X26.00 Y22.00 Z2.00
G1 Z0.60 F1000.0
G1 X27.00 Y22.00
G0 Z2.00
G0 X27.50 Y22.00 Z2.00
G1 Z0.30 F1000.0
G1 X28.00 Y22.00
G0 Z2.00
G0 X28.50 Y22.00 Z2.00
G1 Z0.00 F1000.0
G1 X28.50 Y22.00
G0 Z2.00
G0 X36.00 Y22.00 Z2.00
G1 Z0.00 F1000.0
G1 X36.00 Y22.00
G0 Z2.00
G0 X36.50 Y22.00 Z2.00
G1 Z0.60 F1000.0
G1 X36.50 Y22.00
G0 Z2.00
G0 X37.00 Y22.00 Z2.00
G1 Z0.00 F1000.0
G1 X37.00 Y22.00
G0 Z2.00
G0 X40.50 Y22.00 Z2.00
G1 Z0.00 F1000.0
G1 X40.50 Y22.00
G0 Z2.00
G0 X41.00 Y22.00 Z2.00
G1 Z0.60 F1000.0
G1 X41.00 Y22.00
G0 Z2.00
G0 X9.50 Y22.50 Z2.00
G1 Z0.00 F1000.0
G1 X9.50 Y22.50
G0 Z2.00
G0 X10.00 Y22.50 Z2.00
G1 Z0.60 F1000.0
G1 X12.50 Y22.50
G0 Z2.00
G0 X13.00 Y22.50 Z2.00
G1 Z0.00 F1000.0
G1 X13.00 Y22.50
G0 Z2.00
G0 X14.50 Y22.50 Z2.00
G1 Z0.30 F1000.0
G1 X15.50 Y22.50
G0 Z2.00
G0 X16.00 Y22.50 Z2.00
G1 Z0.60 F1000.0
G1 X16.50 Y22.50
G0 Z2.00
G0 X20.00 Y22.50 Z2.00
G1 Z0.00 F1000.0
G1 X20.00 Y22.50
G0 Z2.00
G0 X20.50 Y22.50 Z2.00
G1 Z0.60 F1000.0
G1 X21.50 Y22.50
G0 Z2.00
G0 X22.00 Y22.50 Z2.00
G1 Z0.00 F1000.0
G1 X22.00 Y22.50
G0 Z2.00
G0 X26.00 Y22.50 Z2.00
G1 Z0.30 F1000.0
G1 X26.00 Y22.50
G0 Z2.00
G0 X26.50 Y22.50 Z2.00
G1 Z0.60 F1000.0
G1 X26.50 Y22.50
G0 Z2.00
G0 X27.00 Y22.50 Z2.00
G1 Z0.30 F1000.0
G1 X27.00 Y22.50
G0 Z2.00
G0 X27.50 Y22.50 Z2.00
G1 Z0.60 F1000.0
G1 X27.50 Y22.50
G0 Z2.00
G0 X28.00 Y22.50 Z2.00
G1 Z0.00 F1000.0
G1 X28.00 Y22.50
G0 Z2.00
G0 X36.00 Y22.50 Z2.00
G1 Z0.00 F1000.0
G1 X36.00 Y22.50
G0 Z2.00
G0 X36.50 Y22.50 Z2.00
G1 Z0.60 F1000.0
G1 X36.50 Y22.50
G0 Z2.00
G0 X37.00 Y22.50 Z2.00
G1 Z0.00 F1000.0
G1 X37.00 Y22.50
G0 Z2.00
G0 X40.50 Y22.50 Z2.00
G1 Z0.60 F1000.0
G1 X41.00 Y22.50
G0 Z2.00
G0 X7.50 Y23.00 Z2.00
G1 Z0.00 F1000.0
G1 X7.50 Y23.00
G0 Z2.00
G0 X10.00 Y23.00 Z2.00
G1 Z0.30 F1000.0
G1 X10.00 Y23.00
G0 Z2.00
G0 X10.50 Y23.00 Z2.00
G1 Z0.60 F1000.0
G1 X13.00 Y23.00
G0 Z2.00
G0 X13.50 Y23.00 Z2.00
G1 Z0.00 F1000.0
G1 X14.00 Y23.00
G0 Z2.00
G0 X14.50 Y23.00 Z2.00
G1 Z0.30 F1000.0
G1 X15.00 Y23.00
G0 Z2.00
G0 X15.50 Y23.00 Z2.00
G1 Z0.60 F1000.0
G1 X16.50 Y23.00
G0 Z2.00
G0 X20.00 Y23.00 Z2.00
G1 Z0.00 F1000.0
G1 X20.00 Y23.00
G0 Z2.00
G0 X20.50 Y23.00 Z2.00
G1 Z0.60 F1000.0
G1 X21.50 Y23.00
G0 Z2.00
G0 X22.00 Y23.00 Z2.00
G1 Z0.30 F1000.0
G1 X22.00 Y23.00
G0 Z2.00
G0 X25.50 Y23.00 Z2.00
G1 Z0.00 F1000.0
G1 X25.50 Y23.00
G0 Z2.00
G0 X26.00 Y23.00 Z2.00
G1 Z0.60 F1000.0
G1 X27.00 Y23.00
G0 Z2.00
G0 X27.50 Y23.00 Z2.00
G1 Z0.30 F1000.0
G1 X27.50 Y23.00
G0 Z2.00
G0 X30.50 Y23.00 Z2.00
G1 Z0.30 F1000.0
G1 X30.50 Y23.00
G0 Z2.00
G0 X31.00 Y23.00 Z2.00
G1 Z0.00 F1000.0
G1 X31.00 Y23.00
G0 Z2.00
G0 X36.00 Y23.00 Z2.00
G1 Z0.60 F1000.0
G1 X36.50 Y23.00
G0 Z2.00
G0 X40.50 Y23.00 Z2.00
G1 Z0.60 F1000.0
G1 X41.50 Y23.00
G0 Z2.00
G0 X7.00 Y23.50 Z2.00
G1 Z0.00 F1000.0
G1 X7.00 Y23.50
G0 Z2.00
G0 X10.50 Y23.50 Z2.00
G1 Z0.00 F1000.0
G1 X10.50 Y23.50
G0 Z2.00
G0 X11.00 Y23.50 Z2.00
G1 Z0.60 F1000.0
G1 X14.00 Y23.50
G0 Z2.00
G0 X14.50 Y23.50 Z2.00
G1 Z0.30 F1000.0
G1 X14.50 Y23.50
G0 Z2.00
G0 X15.00 Y23.50 Z2.00
G1 Z0.60 F1000.0
G1 X16.50 Y23.50
G0 Z2.00
G0 X17.00 Y23.50 Z2.00
G1 Z0.00 F1000.0
G1 X17.00 Y23.50
G0 Z2.00
G0 X20.00 Y23.50 Z2.00
G1 Z0.00 F1000.0
G1 X20.00 Y23.50
G0 Z2.00
G0 X20.50 Y23.50 Z2.00
G1 Z0.60 F1000.0
G1 X21.00 Y23.50
G0 Z2.00
G0 X21.50 Y23.50 Z2.00
G1 Z0.30 F1000.0
G1 X21.50 Y23.50
G0 Z2.00
G0 X25.50 Y23.50 Z2.00
G1 Z0.30 F1000.0
G1 X25.50 Y23.50
G0 Z2.00
G0 X26.00 Y23.50 Z2.00
G1 Z0.60 F1000.0
G1 X26.50 Y23.50
G0 Z2.00
G0 X27.00 Y23.50 Z2.00
G1 Z0.30 F1000.0
G1 X27.00 Y23.50
G0 Z2.00
G0 X27.50 Y23.50 Z2.00
G1 Z0.00 F1000.0
G1 X27.50 Y23.50
G0 Z2.00
G0 X30.00 Y23.50 Z2.00
G1 Z0.60 F1000.0
G1 X30.00 Y23.50
G0 Z2.00
G0 X31.00 Y23.50 Z2.00
G1 Z0.60 F1000.0
G1 X31.00 Y23.50
G0 Z2.00
G0 X36.00 Y23.50 Z2.00
G1 Z0.60 F1000.0
G1 X36.50 Y23.50
G0 Z2.00
G0 X40.00 Y23.50 Z2.00
G1 Z0.30 F1000.0
G1 X40.00 Y23.50
G0 Z2.00
G0 X41.00 Y23.50 Z2.00
G1 Z0.60 F1000.0
G1 X41.00 Y23.50
G0 Z2.00
G0 X41.50 Y23.50 Z2.00
G1 Z0.00 F1000.0
G1 X41.50 Y23.50
G0 Z2.00
G0 X7.00 Y24.00 Z2.00
G1 Z0.60 F1000.0
G1 X7.50 Y24.00
G0 Z2.00
G0 X8.00 Y24.00 Z2.00
G1 Z0.00 F1000.0
G1 X8.00 Y24.00
G0 Z2.00
G0 X11.50 Y24.00 Z2.00
G1 Z0.00 F1000.0
G1 X12.00 Y24.00
G0 Z2.00
G0 X12.50 Y24.00 Z2.00
G1 Z0.60 F1000.0
G1 X16.50 Y24.00
G0 Z2.00
G0 X17.00 Y24.00 Z2.00
G1 Z0.30 F1000.0
G1 X17.00 Y24.00
G0 Z2.00
G0 X19.50 Y24.00 Z2.00
G1 Z0.60 F1000.0
G1 X19.50 Y24.00
G0 Z2.00
G0 X20.00 Y24.00 Z2.00
G1 Z0.30 F1000.0
G1 X20.00 Y24.00
G0 Z2.00
G0 X20.50 Y24.00 Z2.00
G1 Z0.60 F1000.0
G1 X21.00 Y24.00
G0 Z2.00
G0 X21.50 Y24.00 Z2.00
G1 Z0.00 F1000.0
G1 X21.50 Y24.00
G0 Z2.00
G0 X25.50 Y24.00 Z2.00
G1 Z0.60 F1000.0
G1 X26.50 Y24.00
G0 Z2.00
G0 X27.00 Y24.00 Z2.00
G1 Z0.30 F1000.0
G1 X27.00 Y24.00
G0 Z2.00
G0 X30.00 Y24.00 Z2.00
G1 Z0.30 F1000.0
G1 X30.00 Y24.00
G0 Z2.00
G0 X30.50 Y24.00 Z2.00
G1 Z0.60 F1000.0
G1 X30.50 Y24.00
G0 Z2.00
G0 X31.00 Y24.00 Z2.00
G1 Z0.30 F1000.0
G1 X31.00 Y24.00
G0 Z2.00
G0 X35.50 Y24.00 Z2.00
G1 Z0.00 F1000.0
G1 X35.50 Y24.00
G0 Z2.00
G0 X36.00 Y24.00 Z2.00
G1 Z0.60 F1000.0
G1 X36.00 Y24.00
G0 Z2.00
G0 X36.50 Y24.00 Z2.00
G1 Z0.00 F1000.0
G1 X36.50 Y24.00
G0 Z2.00
G0 X40.00 Y24.00 Z2.00
G1 Z0.00 F1000.0
G1 X40.00 Y24.00
G0 Z2.00
G0 X40.50 Y24.00 Z2.00
G1 Z0.60 F1000.0
G1 X41.50 Y24.00
G0 Z2.00
G0 X6.50 Y24.50 Z2.00
G1 Z0.60 F1000.0
G1 X7.50 Y24.50
G0 Z2.00
G0 X12.50 Y24.50 Z2.00
G1 Z0.00 F1000.0
G1 X13.50 Y24.50
G0 Z2.00
G0 X14.00 Y24.50 Z2.00
G1 Z0.30 F1000.0
G1 X14.00 Y24.50
G0 Z2.00
G0 X14.50 Y24.50 Z2.00
G1 Z0.60 F1000.0
G1 X16.00 Y24.50
G0 Z2.00
G0 X17.00 Y24.50 Z2.00
G1 Z0.30 F1000.0
G1 X17.00 Y24.50
G0 Z2.00
G0 X17.50 Y24.50 Z2.00
G1 Z0.00 F1000.0
G1 X17.50 Y24.50
G0 Z2.00
G0 X19.50 Y24.50 Z2.00
G1 Z0.00 F1000.0
G1 X19.50 Y24.50
G0 Z2.00
G0 X20.00 Y24.50 Z2.00
G1 Z0.30 F1000.0
G1 X20.00 Y24.50
G0 Z2.00
G0 X20.50 Y24.50 Z2.00
G1 Z0.60 F1000.0
G1 X21.00 Y24.50
G0 Z2.00
G0 X25.00 Y24.50 Z2.00
G1 Z0.60 F1000.0
G1 X26.00 Y24.50
G0 Z2.00
G0 X27.00 Y24.50 Z2.00
G1 Z0.30 F1000.0
G1 X27.00 Y24.50
G0 Z2.00
G0 X29.50 Y24.50 Z2.00
G1 Z0.60 F1000.0
G1 X30.50 Y24.50
G0 Z2.00
G0 X31.00 Y24.50 Z2.00
G1 Z0.00 F1000.0
G1 X31.00 Y24.50
G0 Z2.00
G0 X35.50 Y24.50 Z2.00
G1 Z0.00 F1000.0
G1 X35.50 Y24.50
G0 Z2.00
G0 X36.00 Y24.50 Z2.00
G1 Z0.60 F1000.0
G1 X36.00 Y24.50
G0 Z2.00
G0 X36.50 Y24.50 Z2.00
G1 Z0.00 F1000.0
G1 X36.50 Y24.50
G0 Z2.00
G0 X40.00 Y24.50 Z2.00
G1 Z0.00 F1000.0
G1 X40.00 Y24.50
G0 Z2.00
G0 X40.50 Y24.50 Z2.00
G1 Z0.60 F1000.0
G1 X40.50 Y24.50
G0 Z2.00
G0 X41.00 Y24.50 Z2.00
G1 Z0.30 F1000.0
G1 X41.00 Y24.50
G0 Z2.00
G0 X6.50 Y25.00 Z2.00
G1 Z0.00 F1000.0
G1 X6.50 Y25.00
G0 Z2.00
G0 X7.00 Y25.00 Z2.00
G1 Z0.60 F1000.0
G1 X7.50 Y25.00
G0 Z2.00
G0 X15.00 Y25.00 Z2.00
G1 Z0.00 F1000.0
G1 X15.00 Y25.00
G0 Z2.00
G0 X15.50 Y25.00 Z2.00
G1 Z0.30 F1000.0
G1 X15.50 Y25.00
G0 Z2.00
G0 X16.00 Y25.00 Z2.00
G1 Z0.60 F1000.0
G1 X17.00 Y25.00
G0 Z2.00
G0 X17.50 Y25.00 Z2.00
G1 Z0.30 F1000.0
G1 X17.50 Y25.00
G0 Z2.00
G0 X18.00 Y25.00 Z2.00
G1 Z0.00 F1000.0
G1 X19.00 Y25.00
G0 Z2.00
G0 X19.50 Y25.00 Z2.00
G1 Z0.30 F1000.0
G1 X20.00 Y25.00
G0 Z2.00
G0 X20.50 Y25.00 Z2.00
G1 Z0.60 F1000.0
G1 X20.50 Y25.00
G0 Z2.00
G0 X21.00 Y25.00 Z2.00
G1 Z0.00 F1000.0
G1 X21.00 Y25.00
G0 Z2.00
G0 X25.00 Y25.00 Z2.00
G1 Z0.00 F1000.0
G1 X25.00 Y25.00
G0 Z2.00
G0 X25.50 Y25.00 Z2.00
G1 Z0.60 F1000.0
G1 X26.50 Y25.00
G0 Z2.00
G0 X27.00 Y25.00 Z2.00
G1 Z0.30 F1000.0
G1 X27.00 Y25.00
G0 Z2.00
G0 X29.50 Y25.00 Z2.00
G1 Z0.00 F1000.0
G1 X29.50 Y25.00
G0 Z2.00
G0 X30.00 Y25.00 Z2.00
G1 Z0.60 F1000.0
G1 X30.50 Y25.00
G0 Z2.00
G0 X35.50 Y25.00 Z2.00
G1 Z0.60 F1000.0
G1 X36.00 Y25.00
G0 Z2.00
G0 X36.50 Y25.00 Z2.00
G1 Z0.30 F1000.0
G1 X36.50 Y25.00
G0 Z2.00
G0 X40.00 Y25.00 Z2.00
G1 Z0.00 F1000.0
G1 X40.00 Y25.00
G0 Z2.00
G0 X40.50 Y25.00 Z2.00
G1 Z0.60 F1000.0
G1 X40.50 Y25.00
G0 Z2.00
G0 X41.00 Y25.00 Z2.00
G1 Z0.00 F1000.0
G1 X41.00 Y25.00
G0 Z2.00
G0 X6.50 Y25.50 Z2.00
G1 Z0.00 F1000.0
G1 X6.50 Y25.50
G0 Z2.00
G0 X7.00 Y25.50 Z2.00
G1 Z0.60 F1000.0
G1 X8.50 Y25.50
G0 Z2.00
G0 X15.50 Y25.50 Z2.00
G1 Z0.30 F1000.0
G1 X15.50 Y25.50
G0 Z2.00
G0 X16.00 Y25.50 Z2.00
G1 Z0.60 F1000.0
G1 X17.50 Y25.50
G0 Z2.00
G0 X18.00 Y25.50 Z2.00
G1 Z0.30 F1000.0
G1 X19.50 Y25.50
G0 Z2.00
G0 X20.00 Y25.50 Z2.00
G1 Z0.60 F1000.0
G1 X20.00 Y25.50
G0 Z2.00
G0 X20.50 Y25.50 Z2.00
G1 Z0.00 F1000.0
G1 X20.50 Y25.50
G0 Z2.00
G0 X25.00 Y25.50 Z2.00
G1 Z0.00 F1000.0
G1 X25.00 Y25.50
G0 Z2.00
G0 X25.50 Y25.50 Z2.00
G1 Z0.60 F1000.0
G1 X26.00 Y25.50
G0 Z2.00
G0 X26.50 Y25.50 Z2.00
G1 Z0.30 F1000.0
G1 X26.50 Y25.50
G0 Z2.00
G0 X27.00 Y25.50 Z2.00
G1 Z0.00 F1000.0
G1 X27.00 Y25.50
G0 Z2.00
G0 X29.50 Y25.50 Z2.00
G1 Z0.60 F1000.0
G1 X30.00 Y25.50
G0 Z2.00
G0 X30.50 Y25.50 Z2.00
G1 Z0.30 F1000.0
G1 X30.50 Y25.50
G0 Z2.00
G0 X35.50 Y25.50 Z2.00
G1 Z0.60 F1000.0
G1 X36.00 Y25.50
G0 Z2.00
G0 X40.00 Y25.50 Z2.00
G1 Z0.30 F1000.0
G1 X40.00 Y25.50
G0 Z2.00
G0 X40.50 Y25.50 Z2.00
G1 Z0.60 F1000.0
G1 X41.00 Y25.50
G0 Z2.00
G0 X6.50 Y26.00 Z2.00
G1 Z0.00 F1000.0
G1 X6.50 Y26.00
G0 Z2.00
G0 X7.00 Y26.00 Z2.00
G1 Z0.60 F1000.0
G1 X8.00 Y26.00
G0 Z2.00
G0 X16.50 Y26.00 Z2.00
G1 Z0.00 F1000.0
G1 X16.50 Y26.00
G0 Z2.00
G0 X17.00 Y26.00 Z2.00
G1 Z0.60 F1000.0
G1 X17.50 Y26.00
G0 Z2.00
G0 X18.00 Y26.00 Z2.00
G1 Z0.30 F1000.0
G1 X18.50 Y26.00
G0 Z2.00
G0 X19.00 Y26.00 Z2.00
G1 Z0.60 F1000.0
G1 X20.50 Y26.00
G0 Z2.00
G0 X25.00 Y26.00 Z2.00
G1 Z0.00 F1000.0
G1 X25.00 Y26.00
G0 Z2.00
G0 X25.50 Y26.00 Z2.00
G1 Z0.60 F1000.0
G1 X25.50 Y26.00
G0 Z2.00
G0 X26.00 Y26.00 Z2.00
G1 Z0.30 F1000.0
G1 X27.00 Y26.00
G0 Z2.00
G0 X29.00 Y26.00 Z2.00
G1 Z0.60 F1000.0
G1 X30.00 Y26.00
G0 Z2.00
G0 X30.50 Y26.00 Z2.00
G1 Z0.00 F1000.0
G1 X30.50 Y26.00
G0 Z2.00
G0 X35.00 Y26.00 Z2.00
G1 Z0.00 F1000.0
G1 X35.00 Y26.00
G0 Z2.00
G0 X35.50 Y26.00 Z2.00
G1 Z0.60 F1000.0
G1 X36.00 Y26.00
G0 Z2.00
G0 X40.00 Y26.00 Z2.00
G1 Z0.60 F1000.0
G1 X40.00 Y26.00
G0 Z2.00
G0 X40.50 Y26.00 Z2.00
G1 Z0.30 F1000.0
G1 X40.50 Y26.00
G0 Z2.00
G0 X6.50 Y26.50 Z2.00
G1 Z0.30 F1000.0
G1 X6.50 Y26.50
G0 Z2.00
G0 X7.00 Y26.50 Z2.00
G1 Z0.60 F1000.0
G1 X8.00 Y26.50
G0 Z2.00
G0 X17.00 Y26.50 Z2.00
G1 Z0.00 F1000.0
G1 X17.00 Y26.50
G0 Z2.00
G0 X17.50 Y26.50 Z2.00
G1 Z0.60 F1000.0
G1 X19.50 Y26.50
G0 Z2.00
G0 X20.00 Y26.50 Z2.00
G1 Z0.00 F1000.0
G1 X20.00 Y26.50
G0 Z2.00
G0 X25.00 Y26.50 Z2.00
G1 Z0.60 F1000.0
G1 X25.50 Y26.50
G0 Z2.00
G0 X26.00 Y26.50 Z2.00
G1 Z0.30 F1000.0
G1 X26.50 Y26.50
G0 Z2.00
G0 X29.00 Y26.50 Z2.00
G1 Z0.00 F1000.0
G1 X29.00 Y26.50
G0 Z2.00
G0 X29.50 Y26.50 Z2.00
G1 Z0.60 F1000.0
G1 X30.00 Y26.50
G0 Z2.00
G0 X35.00 Y26.50 Z2.00
G1 Z0.30 F1000.0
G1 X35.00 Y26.50
G0 Z2.00
G0 X35.50 Y26.50 Z2.00
G1 Z0.60 F1000.0
G1 X35.50 Y26.50
G0 Z2.00
G0 X36.00 Y26.50 Z2.00
G1 Z0.00 F1000.0
G1 X36.00 Y26.50
G0 Z2.00
G0 X40.00 Y26.50 Z2.00
G1 Z0.60 F1000.0
G1 X40.00 Y26.50
G0 Z2.00
G0 X40.50 Y26.50 Z2.00
G1 Z0.30 F1000.0
G1 X40.50 Y26.50
G0 Z2.00
G0 X43.50 Y26.50 Z2.00
G1 Z0.30 F1000.0
G1 X43.50 Y26.50
G0 Z2.00
G0 X44.00 Y26.50 Z2.00
G1 Z0.00 F1000.0
G1 X45.00 Y26.50
G0 Z2.00
G0 X6.50 Y27.00 Z2.00
G1 Z0.60 F1000.0
G1 X7.50 Y27.00
G0 Z2.00
G0 X8.00 Y27.00 Z2.00
G1 Z0.30 F1000.0
G1 X8.00 Y27.00
G0 Z2.00
G0 X17.50 Y27.00 Z2.00
G1 Z0.60 F1000.0
G1 X19.50 Y27.00
G0 Z2.00
G0 X20.00 Y27.00 Z2.00
G1 Z0.00 F1000.0
G1 X20.00 Y27.00
G0 Z2.00
G0 X24.50 Y27.00 Z2.00
G1 Z0.30 F1000.0
G1 X24.50 Y27.00
G0 Z2.00
G0 X25.00 Y27.00 Z2.00
G1 Z0.60 F1000.0
G1 X25.50 Y27.00
G0 Z2.00
G0 X26.00 Y27.00 Z2.00
G1 Z0.30 F1000.0
G1 X26.00 Y27.00
G0 Z2.00
G0 X26.50 Y27.00 Z2.00
G1 Z0.00 F1000.0
G1 X26.50 Y27.00
G0 Z2.00
G0 X29.00 Y27.00 Z2.00
G1 Z0.00 F1000.0
G1 X29.00 Y27.00
G0 Z2.00
G0 X29.50 Y27.00 Z2.00
G1 Z0.60 F1000.0
G1 X29.50 Y27.00
G0 Z2.00
G0 X30.00 Y27.00 Z2.00
G1 Z0.30 F1000.0
G1 X30.00 Y27.00
G0 Z2.00
G0 X35.00 Y27.00 Z2.00
G1 Z0.60 F1000.0
G1 X35.50 Y27.00
G0 Z2.00
G0 X36.00 Y27.00 Z2.00
G1 Z0.00 F1000.0
G1 X36.00 Y27.00
G0 Z2.00
G0 X40.00 Y27.00 Z2.00
G1 Z0.30 F1000.0
G1 X40.50 Y27.00
G0 Z2.00
G0 X43.00 Y27.00 Z2.00
G1 Z0.00 F1000.0
G1 X43.00 Y27.00
G0 Z2.00
G0 X43.50 Y27.00 Z2.00
G1 Z0.60 F1000.0
G1 X44.50 Y27.00
G0 Z2.00
G0 X45.00 Y27.00 Z2.00
G1 Z0.00 F1000.0
G1 X45.00 Y27.00
G0 Z2.00
G0 X2.00 Y27.50 Z2.00
G1 Z0.60 F1000.0
G1 X2.00 Y27.50
G0 Z2.00
G0 X6.50 Y27.50 Z2.00
G1 Z0.30 F1000.0
G1 X6.50 Y27.50
G0 Z2.00
G0 X7.00 Y27.50 Z2.00
G1 Z0.60 F1000.0
G1 X7.50 Y27.50
G0 Z2.00
G0 X8.00 Y27.50 Z2.00
G1 Z0.00 F1000.0
G1 X8.00 Y27.50
G0 Z2.00
G0 X17.50 Y27.50 Z2.00
G1 Z0.00 F1000.0
G1 X17.50 Y27.50
G0 Z2.00
G0 X18.00 Y27.50 Z2.00
G1 Z0.60 F1000.0
G1 X19.50 Y27.50
G0 Z2.00
G0 X20.00 Y27.50 Z2.00
G1 Z0.00 F1000.0
G1 X20.00 Y27.50
G0 Z2.00
G0 X24.50 Y27.50 Z2.00
G1 Z0.00 F1000.0
G1 X24.50 Y27.50
G0 Z2.00
G0 X25.00 Y27.50 Z2.00
G1 Z0.60 F1000.0
G1 X25.50 Y27.50
G0 Z2.00
G0 X26.00 Y27.50 Z2.00
G1 Z0.30 F1000.0
G1 X26.50 Y27.50
G0 Z2.00
G0 X29.00 Y27.50 Z2.00
G1 Z0.00 F1000.0
G1 X29.00 Y27.50
G0 Z2.00
G0 X29.50 Y27.50 Z2.00
G1 Z0.60 F1000.0
G1 X29.50 Y27.50
G0 Z2.00
G0 X30.00 Y27.50 Z2.00
G1 Z0.00 F1000.0
G1 X30.00 Y27.50
G0 Z2.00
G0 X34.50 Y27.50 Z2.00
G1 Z0.00 F1000.0
G1 X34.50 Y27.50
G0 Z2.00
G0 X35.00 Y27.50 Z2.00
G1 Z0.60 F1000.0
G1 X35.50 Y27.50
G0 Z2.00
G0 X39.50 Y27.50 Z2.00
G1 Z0.30 F1000.0
G1 X39.50 Y27.50
G0 Z2.00
G0 X40.00 Y27.50 Z2.00
G1 Z0.60 F1000.0
G1 X40.00 Y27.50
G0 Z2.00
G0 X40.50 Y27.50 Z2.00
G1 Z0.30 F1000.0
G1 X41.00 Y27.50
G0 Z2.00
G0 X41.50 Y27.50 Z2.00
G1 Z0.60 F1000.0
G1 X41.50 Y27.50
G0 Z2.00
G0 X42.00 Y27.50 Z2.00
G1 Z0.00 F1000.0
G1 X42.50 Y27.50
G0 Z2.00
G0 X43.00 Y27.50 Z2.00
G1 Z0.30 F1000.0
G1 X43.00 Y27.50
G0 Z2.00
G0 X43.50 Y27.50 Z2.00
G1 Z0.60 F1000.0
G1 X44.50 Y27.50
G0 Z2.00
G0 X45.00 Y27.50 Z2.00
G1 Z0.00 F1000.0
G1 X45.00 Y27.50
G0 Z2.00
G0 X1.50 Y28.00 Z2.00
G1 Z0.60 F1000.0
G1 X2.00 Y28.00
G0 Z2.00
G0 X3.00 Y28.00 Z2.00
G1 Z0.00 F1000.0
G1 X3.00 Y28.00
G0 Z2.00
G0 X6.50 Y28.00 Z2.00
G1 Z0.00 F1000.0
G1 X6.50 Y28.00
G0 Z2.00
G0 X7.00 Y28.00 Z2.00
G1 Z0.60 F1000.0
G1 X7.50 Y28.00
G0 Z2.00
G0 X8.00 Y28.00 Z2.00
G1 Z0.00 F1000.0
G1 X8.00 Y28.00
G0 Z2.00
G0 X17.50 Y28.00 Z2.00
G1 Z0.60 F1000.0
G1 X19.50 Y28.00
G0 Z2.00
G0 X20.00 Y28.00 Z2.00
G1 Z0.00 F1000.0
G1 X20.00 Y28.00
G0 Z2.00
G0 X24.50 Y28.00 Z2.00
G1 Z0.60 F1000.0
G1 X25.50 Y28.00
G0 Z2.00
G0 X26.00 Y28.00 Z2.00
G1 Z0.30 F1000.0
G1 X26.00 Y28.00
G0 Z2.00
G0 X29.00 Y28.00 Z2.00
G1 Z0.00 F1000.0
G1 X29.00 Y28.00
G0 Z2.00
G0 X29.50 Y28.00 Z2.00
G1 Z0.60 F1000.0
G1 X29.50 Y28.00
G0 Z2.00
G0 X30.00 Y28.00 Z2.00
G1 Z0.00 F1000.0
G1 X30.00 Y28.00
G0 Z2.00
G0 X34.00 Y28.00 Z2.00
G1 Z0.00 F1000.0
G1 X34.00 Y28.00
G0 Z2.00
G0 X34.50 Y28.00 Z2.00
G1 Z0.60 F1000.0
G1 X35.00 Y28.00
G0 Z2.00
G0 X35.50 Y28.00 Z2.00
G1 Z0.00 F1000.0
G1 X35.50 Y28.00
G0 Z2.00
G0 X39.50 Y28.00 Z2.00
G1 Z0.00 F1000.0
G1 X39.50 Y28.00
G0 Z2.00
G0 X40.00 Y28.00 Z2.00
G1 Z0.60 F1000.0
G1 X40.00 Y28.00
G0 Z2.00
G0 X41.00 Y28.00 Z2.00
G1 Z0.30 F1000.0
G1 X42.00 Y28.00
G0 Z2.00
G0 X42.50 Y28.00 Z2.00
G1 Z0.60 F1000.0
G1 X44.50 Y28.00
G0 Z2.00
G0 X45.00 Y28.00 Z2.00
G1 Z0.00 F1000.0
G1 X45.00 Y28.00
G0 Z2.00
G0 X2.00 Y28.50 Z2.00
G1 Z0.60 F1000.0
G1 X2.50 Y28.50
G0 Z2.00
G0 X3.50 Y28.50 Z2.00
G1 Z0.60 F1000.0
G1 X3.50 Y28.50
G0 Z2.00
G0 X6.50 Y28.50 Z2.00
G1 Z0.00 F1000.0
G1 X6.50 Y28.50
G0 Z2.00
G0 X7.00 Y28.50 Z2.00
G1 Z0.60 F1000.0
G1 X7.50 Y28.50
G0 Z2.00
G0 X8.00 Y28.50 Z2.00
G1 Z0.00 F1000.0
G1 X8.00 Y28.50
G0 Z2.00
G0 X18.00 Y28.50 Z2.00
G1 Z0.60 F1000.0
G1 X19.50 Y28.50
G0 Z2.00
G0 X20.00 Y28.50 Z2.00
G1 Z0.00 F1000.0
G1 X20.00 Y28.50
G0 Z2.00
G0 X24.00 Y28.50 Z2.00
G1 Z0.00 F1000.0
G1 X24.00 Y28.50
G0 Z2.00
G0 X24.50 Y28.50 Z2.00
G1 Z0.60 F1000.0
G1 X25.50 Y28.50
G0 Z2.00
G0 X26.00 Y28.50 Z2.00
G1 Z0.00 F1000.0
G1 X26.00 Y28.50
G0 Z2.00
G0 X29.00 Y28.50 Z2.00
G1 Z0.30 F1000.0
G1 X29.00 Y28.50
G0 Z2.00
G0 X29.50 Y28.50 Z2.00
G1 Z0.60 F1000.0
G1 X29.50 Y28.50
G0 Z2.00
G0 X30.00 Y28.50 Z2.00
G1 Z0.00 F1000.0
G1 X30.00 Y28.50
G0 Z2.00
G0 X34.00 Y28.50 Z2.00
G1 Z0.60 F1000.0
G1 X35.00 Y28.50
G0 Z2.00
G0 X35.50 Y28.50 Z2.00
G1 Z0.30 F1000.0
G1 X35.50 Y28.50
G0 Z2.00
G0 X39.00 Y28.50 Z2.00
G1 Z0.30 F1000.0
G1 X39.00 Y28.50
G0 Z2.00
G0 X39.50 Y28.50 Z2.00
G1 Z0.60 F1000.0
G1 X40.00 Y28.50
G0 Z2.00
G0 X40.50 Y28.50 Z2.00
G1 Z0.30 F1000.0
G1 X41.50 Y28.50
G0 Z2.00
G0 X42.00 Y28.50 Z2.00
G1 Z0.60 F1000.0
G1 X44.00 Y28.50
G0 Z2.00
G0 X44.50 Y28.50 Z2.00
G1 Z0.30 F1000.0
G1 X44.50 Y28.50
G0 Z2.00
G0 X2.00 Y29.00 Z2.00
G1 Z0.00 F1000.0
G1 X2.00 Y29.00
G0 Z2.00
G0 X2.50 Y29.00 Z2.00
G1 Z0.60 F1000.0
G1 X3.50 Y29.00
G0 Z2.00
G0 X6.50 Y29.00 Z2.00
G1 Z0.00 F1000.0
G1 X6.50 Y29.00
G0 Z2.00
G0 X7.00 Y29.00 Z2.00
G1 Z0.60 F1000.0
G1 X7.50 Y29.00
G0 Z2.00
G0 X8.00 Y29.00 Z2.00
G1 Z0.00 F1000.0
G1 X8.00 Y29.00
G0 Z2.00
G0 X16.50 Y29.00 Z2.00
G1 Z0.00 F1000.0
G1 X16.50 Y29.00
G0 Z2.00
G0 X17.00 Y29.00 Z2.00
G1 Z0.30 F1000.0
G1 X17.00 Y29.00
G0 Z2.00
G0 X18.00 Y29.00 Z2.00
G1 Z0.00 F1000.0
G1 X18.00 Y29.00
G0 Z2.00
G0 X18.50 Y29.00 Z2.00
G1 Z0.60 F1000.0
G1 X19.50 Y29.00
G0 Z2.00
G0 X20.00 Y29.00 Z2.00
G1 Z0.00 F1000.0
G1 X20.00 Y29.00
G0 Z2.00
G0 X24.00 Y29.00 Z2.00
G1 Z0.00 F1000.0
G1 X24.00 Y29.00
G0 Z2.00
G0 X24.50 Y29.00 Z2.00
G1 Z0.60 F1000.0
G1 X25.00 Y29.00
G0 Z2.00
G0 X25.50 Y29.00 Z2.00
G1 Z0.30 F1000.0
G1 X25.50 Y29.00
G0 Z2.00
G0 X29.00 Y29.00 Z2.00
G1 Z0.30 F1000.0
G1 X29.00 Y29.00
G0 Z2.00
G0 X29.50 Y29.00 Z2.00
G1 Z0.60 F1000.0
G1 X29.50 Y29.00
G0 Z2.00
G0 X30.00 Y29.00 Z2.00
G1 Z0.00 F1000.0
G1 X30.00 Y29.00
G0 Z2.00
G0 X33.50 Y29.00 Z2.00
G1 Z0.00 F1000.0
G1 X33.50 Y29.00
G0 Z2.00
G0 X34.00 Y29.00 Z2.00
G1 Z0.60 F1000.0
G1 X34.50 Y29.00
G0 Z2.00
G0 X35.00 Y29.00 Z2.00
G1 Z0.00 F1000.0
G1 X35.00 Y29.00
G0 Z2.00
G0 X38.50 Y29.00 Z2.00
G1 Z0.00 F1000.0
G1 X38.50 Y29.00
G0 Z2.00
G0 X39.00 Y29.00 Z2.00
G1 Z0.60 F1000.0
G1 X43.00 Y29.00
G0 Z2.00
G0 X43.50 Y29.00 Z2.00
G1 Z0.00 F1000.0
G1 X44.00 Y29.00
G0 Z2.00
G0 X2.50 Y29.50 Z2.00
G1 Z0.60 F1000.0
G1 X3.50 Y29.50
G0 Z2.00
G0 X4.00 Y29.50 Z2.00
G1 Z0.00 F1000.0
G1 X4.00 Y29.50
G0 Z2.00
G0 X6.50 Y29.50 Z2.00
G1 Z0.30 F1000.0
G1 X6.50 Y29.50
G0 Z2.00
G0 X7.50 Y29.50 Z2.00
G1 Z0.60 F1000.0
G1 X7.50 Y29.50
G0 Z2.00
G0 X8.00 Y29.50 Z2.00
G1 Z0.00 F1000.0
G1 X8.00 Y29.50
G0 Z2.00
G0 X13.00 Y29.50 Z2.00
G1 Z0.00 F1000.0
G1 X13.50 Y29.50
G0 Z2.00
G0 X16.00 Y29.50 Z2.00
G1 Z0.00 F1000.0
G1 X16.00 Y29.50
G0 Z2.00
G0 X17.00 Y29.50 Z2.00
G1 Z0.30 F1000.0
G1 X17.00 Y29.50
G0 Z2.00
G0 X18.00 Y29.50 Z2.00
G1 Z0.30 F1000.0
G1 X18.00 Y29.50
G0 Z2.00
G0 X18.50 Y29.50 Z2.00
G1 Z0.60 F1000.0
G1 X20.00 Y29.50
G0 Z2.00
G0 X24.00 Y29.50 Z2.00
G1 Z0.60 F1000.0
G1 X25.00 Y29.50
G0 Z2.00
G0 X25.50 Y29.50 Z2.00
G1 Z0.30 F1000.0
G1 X25.50 Y29.50
G0 Z2.00
G0 X29.00 Y29.50 Z2.00
G1 Z0.30 F1000.0
G1 X29.00 Y29.50
G0 Z2.00
G0 X29.50 Y29.50 Z2.00
G1 Z0.60 F1000.0
G1 X29.50 Y29.50
G0 Z2.00
G0 X30.00 Y29.50 Z2.00
G1 Z0.00 F1000.0
G1 X30.00 Y29.50
G0 Z2.00
G0 X33.00 Y29.50 Z2.00
G1 Z0.00 F1000.0
G1 X33.00 Y29.50
G0 Z2.00
G0 X34.00 Y29.50 Z2.00
G1 Z0.60 F1000.0
G1 X34.50 Y29.50
G0 Z2.00
G0 X38.00 Y29.50 Z2.00
G1 Z0.00 F1000.0
G1 X38.00 Y29.50
G0 Z2.00
G0 X38.50 Y29.50 Z2.00
G1 Z0.60 F1000.0
G1 X39.50 Y29.50
G0 Z2.00
G0 X40.00 Y29.50 Z2.00
G1 Z0.00 F1000.0
G1 X40.00 Y29.50
G0 Z2.00
G0 X40.50 Y29.50 Z2.00
G1 Z0.30 F1000.0
G1 X40.50 Y29.50
G0 Z2.00
G0 X42.50 Y29.50 Z2.00
G1 Z0.60 F1000.0
G1 X43.00 Y29.50
G0 Z2.00
G0 X2.50 Y30.00 Z2.00
G1 Z0.00 F1000.0
G1 X2.50 Y30.00
G0 Z2.00
G0 X3.00 Y30.00 Z2.00
G1 Z0.60 F1000.0
G1 X4.50 Y30.00
G0 Z2.00
G0 X6.50 Y30.00 Z2.00
G1 Z0.60 F1000.0
G1 X7.50 Y30.00
G0 Z2.00
G0 X8.00 Y30.00 Z2.00
G1 Z0.00 F1000.0
G1 X8.00 Y30.00
G0 Z2.00
G0 X13.00 Y30.00 Z2.00
G1 Z0.60 F1000.0
G1 X13.00 Y30.00
G0 Z2.00
G0 X14.00 Y30.00 Z2.00
G1 Z0.60 F1000.0
G1 X14.00 Y30.00
G0 Z2.00
G0 X16.00 Y30.00 Z2.00
G1 Z0.60 F1000.0
G1 X16.50 Y30.00
G0 Z2.00
G0 X18.50 Y30.00 Z2.00
G1 Z0.60 F1000.0
G1 X20.00 Y30.00
G0 Z2.00
G0 X23.50 Y30.00 Z2.00
G1 Z0.00 F1000.0
G1 X23.50 Y30.00
G0 Z2.00
G0 X24.00 Y30.00 Z2.00
G1 Z0.60 F1000.0
G1 X24.50 Y30.00
G0 Z2.00
G0 X25.00 Y30.00 Z2.00
G1 Z0.30 F1000.0
G1 X25.00 Y30.00
G0 Z2.00
G0 X25.50 Y30.00 Z2.00
G1 Z0.00 F1000.0
G1 X25.50 Y30.00
G0 Z2.00
G0 X29.00 Y30.00 Z2.00
G1 Z0.00 F1000.0
G1 X29.00 Y30.00
G0 Z2.00
G0 X29.50 Y30.00 Z2.00
G1 Z0.60 F1000.0
G1 X29.50 Y30.00
G0 Z2.00
G0 X30.00 Y30.00 Z2.00
G1 Z0.00 F1000.0
G1 X30.00 Y30.00
G0 Z2.00
G0 X32.50 Y30.00 Z2.00
G1 Z0.00 F1000.0
G1 X32.50 Y30.00
G0 Z2.00
G0 X33.00 Y30.00 Z2.00
G1 Z0.60 F1000.0
G1 X34.00 Y30.00
G0 Z2.00
G0 X34.50 Y30.00 Z2.00
G1 Z0.00 F1000.0
G1 X34.50 Y30.00
G0 Z2.00
G0 X37.00 Y30.00 Z2.00
G1 Z0.00 F1000.0
G1 X37.00 Y30.00
G0 Z2.00
G0 X37.50 Y30.00 Z2.00
G1 Z0.30 F1000.0
G1 X37.50 Y30.00
G0 Z2.00
G0 X38.00 Y30.00 Z2.00
G1 Z0.60 F1000.0
G1 X39.00 Y30.00
G0 Z2.00
G0 X39.50 Y30.00 Z2.00
G1 Z0.00 F1000.0
G1 X39.50 Y30.00
G0 Z2.00
G0 X3.00 Y30.50 Z2.00
G1 Z0.00 F1000.0
G1 X3.00 Y30.50
G0 Z2.00
G0 X3.50 Y30.50 Z2.00
G1 Z0.60 F1000.0
G1 X4.50 Y30.50
G0 Z2.00
G0 X7.00 Y30.50 Z2.00
G1 Z0.60 F1000.0
G1 X7.50 Y30.50
G0 Z2.00
G0 X8.00 Y30.50 Z2.00
G1 Z0.30 F1000.0
G1 X8.00 Y30.50
G0 Z2.00
G0 X13.00 Y30.50 Z2.00
G1 Z0.60 F1000.0
G1 X13.50 Y30.50
G0 Z2.00
G0 X14.00 Y30.50 Z2.00
G1 Z0.00 F1000.0
G1 X14.00 Y30.50
G0 Z2.00
G0 X16.00 Y30.50 Z2.00
G1 Z0.60 F1000.0
G1 X16.50 Y30.50
G0 Z2.00
G0 X18.50 Y30.50 Z2.00
G1 Z0.00 F1000.0
G1 X18.50 Y30.50
G0 Z2.00
G0 X19.00 Y30.50 Z2.00
G1 Z0.60 F1000.0
G1 X20.50 Y30.50
G0 Z2.00
G0 X23.50 Y30.50 Z2.00
G1 Z0.00 F1000.0
G1 X23.50 Y30.50
G0 Z2.00
G0 X24.00 Y30.50 Z2.00
G1 Z0.60 F1000.0
G1 X24.50 Y30.50
G0 Z2.00
G0 X25.00 Y30.50 Z2.00
G1 Z0.30 F1000.0
G1 X25.00 Y30.50
G0 Z2.00
G0 X25.50 Y30.50 Z2.00
G1 Z0.00 F1000.0
G1 X25.50 Y30.50
G0 Z2.00
G0 X29.00 Y30.50 Z2.00
G1 Z0.00 F1000.0
G1 X29.00 Y30.50
G0 Z2.00
G0 X29.50 Y30.50 Z2.00
G1 Z0.60 F1000.0
G1 X29.50 Y30.50
G0 Z2.00
G0 X30.00 Y30.50 Z2.00
G1 Z0.00 F1000.0
G1 X30.00 Y30.50
G0 Z2.00
G0 X32.50 Y30.50 Z2.00
G1 Z0.60 F1000.0
G1 X33.00 Y30.50
G0 Z2.00
G0 X33.50 Y30.50 Z2.00
G1 Z0.30 F1000.0
G1 X33.50 Y30.50
G0 Z2.00
G0 X34.00 Y30.50 Z2.00
G1 Z0.00 F1000.0
G1 X34.00 Y30.50
G0 Z2.00
G0 X36.50 Y30.50 Z2.00
G1 Z0.00 F1000.0
G1 X36.50 Y30.50
G0 Z2.00
G0 X37.00 Y30.50 Z2.00
G1 Z0.60 F1000.0
G1 X38.00 Y30.50
G0 Z2.00
G0 X38.50 Y30.50 Z2.00
G1 Z0.30 F1000.0
G1 X38.50 Y30.50
G0 Z2.00
G0 X39.00 Y30.50 Z2.00
G1 Z0.00 F1000.0
G1 X39.00 Y30.50
G0 Z2.00
G0 X40.50 Y30.50 Z2.00
G1 Z0.00 F1000.0
G1 X40.50 Y30.50
G0 Z2.00
G0 X3.50 Y31.00 Z2.00
G1 Z0.60 F1000.0
G1 X4.50 Y31.00
G0 Z2.00
G0 X5.00 Y31.00 Z2.00
G1 Z0.00 F1000.0
G1 X5.00 Y31.00
G0 Z2.00
G0 X7.00 Y31.00 Z2.00
G1 Z0.60 F1000.0
G1 X7.50 Y31.00
G0 Z2.00
G0 X13.00 Y31.00 Z2.00
G1 Z0.60 F1000.0
G1 X13.50 Y31.00
G0 Z2.00
G0 X14.00 Y31.00 Z2.00
G1 Z0.30 F1000.0
G1 X14.00 Y31.00
G0 Z2.00
G0 X16.00 Y31.00 Z2.00
G1 Z0.60 F1000.0
G1 X16.50 Y31.00
G0 Z2.00
G0 X18.50 Y31.00 Z2.00
G1 Z0.00 F1000.0
G1 X18.50 Y31.00
G0 Z2.00
G0 X19.00 Y31.00 Z2.00
G1 Z0.60 F1000.0
G1 X20.00 Y31.00
G0 Z2.00
G0 X20.50 Y31.00 Z2.00
G1 Z0.00 F1000.0
G1 X20.50 Y31.00
G0 Z2.00
G0 X23.50 Y31.00 Z2.00
G1 Z0.00 F1000.0
G1 X23.50 Y31.00
G0 Z2.00
G0 X24.00 Y31.00 Z2.00
G1 Z0.60 F1000.0
G1 X24.00 Y31.00
G0 Z2.00
G0 X24.50 Y31.00 Z2.00
G1 Z0.30 F1000.0
G1 X25.00 Y31.00
G0 Z2.00
G0 X29.00 Y31.00 Z2.00
G1 Z0.00 F1000.0
G1 X29.00 Y31.00
G0 Z2.00
G0 X29.50 Y31.00 Z2.00
G1 Z0.60 F1000.0
G1 X29.50 Y31.00
G0 Z2.00
G0 X30.00 Y31.00 Z2.00
G1 Z0.00 F1000.0
G1 X30.00 Y31.00
G0 Z2.00
G0 X32.00 Y31.00 Z2.00
G1 Z0.00 F1000.0
G1 X32.00 Y31.00
G0 Z2.00
G0 X32.50 Y31.00 Z2.00
G1 Z0.60 F1000.0
G1 X33.00 Y31.00
G0 Z2.00
G0 X33.50 Y31.00 Z2.00
G1 Z0.30 F1000.0
G1 X34.00 Y31.00
G0 Z2.00
G0 X35.50 Y31.00 Z2.00
G1 Z0.00 F1000.0
G1 X35.50 Y31.00
G0 Z2.00
G0 X36.00 Y31.00 Z2.00
G1 Z0.60 F1000.0
G1 X38.00 Y31.00
G0 Z2.00
G0 X38.50 Y31.00 Z2.00
G1 Z0.00 F1000.0
G1 X38.50 Y31.00
G0 Z2.00
G0 X40.00 Y31.00 Z2.00
G1 Z0.00 F1000.0
G1 X40.00 Y31.00
G0 Z2.00
G0 X40.50 Y31.00 Z2.00
G1 Z0.30 F1000.0
G1 X40.50 Y31.00
G0 Z2.00
G0 X41.00 Y31.00 Z2.00
G1 Z0.00 F1000.0
G1 X41.00 Y31.00
G0 Z2.00
G0 X46.00 Y31.00 Z2.00
G1 Z0.60 F1000.0
G1 X46.00 Y31.00
G0 Z2.00
G0 X46.50 Y31.00 Z2.00
G1 Z0.00 F1000.0
G1 X46.50 Y31.00
G0 Z2.00
G0 X47.00 Y31.00 Z2.00
G1 Z0.30 F1000.0
G1 X47.00 Y31.00
G0 Z2.00
G0 X4.00 Y31.50 Z2.00
G1 Z0.60 F1000.0
G1 X4.50 Y31.50
G0 Z2.00
G0 X6.50 Y31.50 Z2.00
G1 Z0.30 F1000.0
G1 X6.50 Y31.50
G0 Z2.00
G0 X7.50 Y31.50 Z2.00
G1 Z0.60 F1000.0
G1 X7.50 Y31.50
G0 Z2.00
G0 X13.00 Y31.50 Z2.00
G1 Z0.30 F1000.0
G1 X13.00 Y31.50
G0 Z2.00
G0 X13.50 Y31.50 Z2.00
G1 Z0.60 F1000.0
G1 X14.00 Y31.50
G0 Z2.00
G0 X16.00 Y31.50 Z2.00
G1 Z0.60 F1000.0
G1 X17.00 Y31.50
G0 Z2.00
G0 X19.00 Y31.50 Z2.00
G1 Z0.60 F1000.0
G1 X20.00 Y31.50
G0 Z2.00
G0 X20.50 Y31.50 Z2.00
G1 Z0.00 F1000.0
G1 X20.50 Y31.50
G0 Z2.00
G0 X23.50 Y31.50 Z2.00
G1 Z0.00 F1000.0
G1 X23.50 Y31.50
G0 Z2.00
G0 X24.00 Y31.50 Z2.00
G1 Z0.60 F1000.0
G1 X24.00 Y31.50
G0 Z2.00
G0 X24.50 Y31.50 Z2.00
G1 Z0.30 F1000.0
G1 X25.00 Y31.50
G0 Z2.00
G0 X29.00 Y31.50 Z2.00
G1 Z0.30 F1000.0
G1 X29.00 Y31.50
G0 Z2.00
G0 X29.50 Y31.50 Z2.00
G1 Z0.60 F1000.0
G1 X29.50 Y31.50
G0 Z2.00
G0 X30.00 Y31.50 Z2.00
G1 Z0.00 F1000.0
G1 X30.00 Y31.50
G0 Z2.00
G0 X32.00 Y31.50 Z2.00
G1 Z0.60 F1000.0
G1 X32.50 Y31.50
G0 Z2.00
G0 X33.00 Y31.50 Z2.00
G1 Z0.30 F1000.0
G1 X33.50 Y31.50
G0 Z2.00
G0 X35.00 Y31.50 Z2.00
G1 Z0.00 F1000.0
G1 X35.00 Y31.50
G0 Z2.00
G0 X35.50 Y31.50 Z2.00
G1 Z0.60 F1000.0
G1 X37.00 Y31.50
G0 Z2.00
G0 X37.50 Y31.50 Z2.00
G1 Z0.00 F1000.0
G1 X37.50 Y31.50
G0 Z2.00
G0 X39.50 Y31.50 Z2.00
G1 Z0.00 F1000.0
G1 X39.50 Y31.50
G0 Z2.00
G0 X40.00 Y31.50 Z2.00
G1 Z0.30 F1000.0
G1 X40.00 Y31.50
G0 Z2.00
G0 X40.50 Y31.50 Z2.00
G1 Z0.60 F1000.0
G1 X40.50 Y31.50
G0 Z2.00
G0 X41.00 Y31.50 Z2.00
G1 Z0.00 F1000.0
G1 X41.00 Y31.50
G0 Z2.00
G0 X45.50 Y31.50 Z2.00
G1 Z0.00 F1000.0
G1 X45.50 Y31.50
G0 Z2.00
G0 X46.00 Y31.50 Z2.00
G1 Z0.60 F1000.0
G1 X46.50 Y31.50
G0 Z2.00
G0 X4.50 Y32.00 Z2.00
G1 Z0.60 F1000.0
G1 X5.00 Y32.00
G0 Z2.00
G0 X5.50 Y32.00 Z2.00
G1 Z0.00 F1000.0
G1 X6.50 Y32.00
G0 Z2.00
G0 X7.00 Y32.00 Z2.00
G1 Z0.60 F1000.0
G1 X7.50 Y32.00
G0 Z2.00
G0 X8.00 Y32.00 Z2.00
G1 Z0.30 F1000.0
G1 X8.00 Y32.00
G0 Z2.00
G0 X13.00 Y32.00 Z2.00
G1 Z0.00 F1000.0
G1 X13.00 Y32.00
G0 Z2.00
G0 X13.50 Y32.00 Z2.00
G1 Z0.60 F1000.0
G1 X14.00 Y32.00
G0 Z2.00
G0 X14.50 Y32.00 Z2.00
G1 Z0.30 F1000.0
G1 X14.50 Y32.00
G0 Z2.00
G0 X16.00 Y32.00 Z2.00
G1 Z0.60 F1000.0
G1 X16.50 Y32.00
G0 Z2.00
G0 X17.00 Y32.00 Z2.00
G1 Z0.00 F1000.0
G1 X17.00 Y32.00
G0 Z2.00
G0 X19.00 Y32.00 Z2.00
G1 Z0.30 F1000.0
G1 X19.00 Y32.00
G0 Z2.00
G0 X19.50 Y32.00 Z2.00
G1 Z0.60 F1000.0
G1 X20.00 Y32.00
G0 Z2.00
G0 X20.50 Y32.00 Z2.00
G1 Z0.00 F1000.0
G1 X20.50 Y32.00
G0 Z2.00
G0 X23.50 Y32.00 Z2.00
G1 Z0.30 F1000.0
G1 X23.50 Y32.00
G0 Z2.00
G0 X24.00 Y32.00 Z2.00
G1 Z0.60 F1000.0
G1 X24.00 Y32.00
G0 Z2.00
G0 X24.50 Y32.00 Z2.00
G1 Z0.30 F1000.0
G1 X25.00 Y32.00
G0 Z2.00
G0 X29.00 Y32.00 Z2.00
G1 Z0.60 F1000.0
G1 X29.50 Y32.00
G0 Z2.00
G0 X30.00 Y32.00 Z2.00
G1 Z0.00 F1000.0
G1 X30.00 Y32.00
G0 Z2.00
G0 X31.50 Y32.00 Z2.00
G1 Z0.00 F1000.0
G1 X31.50 Y32.00
G0 Z2.00
G0 X32.00 Y32.00 Z2.00
G1 Z0.60 F1000.0
G1 X32.50 Y32.00
G0 Z2.00
G0 X33.00 Y32.00 Z2.00
G1 Z0.30 F1000.0
G1 X33.50 Y32.00
G0 Z2.00
G0 X34.00 Y32.00 Z2.00
G1 Z0.00 F1000.0
G1 X34.50 Y32.00
G0 Z2.00
G0 X35.00 Y32.00 Z2.00
G1 Z0.30 F1000.0
G1 X35.00 Y32.00
G0 Z2.00
G0 X35.50 Y32.00 Z2.00
G1 Z0.60 F1000.0
G1 X36.50 Y32.00
G0 Z2.00
G0 X37.00 Y32.00 Z2.00
G1 Z0.00 F1000.0
G1 X37.00 Y32.00
G0 Z2.00
G0 X39.50 Y32.00 Z2.00
G1 Z0.30 F1000.0
G1 X39.50 Y32.00
G0 Z2.00
G0 X40.00 Y32.00 Z2.00
G1 Z0.60 F1000.0
G1 X40.50 Y32.00
G0 Z2.00
G0 X41.00 Y32.00 Z2.00
G1 Z0.00 F1000.0
G1 X41.00 Y32.00
G0 Z2.00
G0 X45.50 Y32.00 Z2.00
G1 Z0.60 F1000.0
G1 X46.50 Y32.00
G0 Z2.00
G0 X47.00 Y32.00 Z2.00
G1 Z0.00 F1000.0
G1 X47.00 Y32.00
G0 Z2.00
G0 X4.50 Y32.50 Z2.00
G1 Z0.60 F1000.0
G1 X5.00 Y32.50
G0 Z2.00
G0 X5.50 Y32.50 Z2.00
G1 Z0.30 F1000.0
G1 X6.50 Y32.50
G0 Z2.00
G0 X7.00 Y32.50 Z2.00
G1 Z0.60 F1000.0
G1 X7.50 Y32.50
G0 Z2.00
G0 X8.00 Y32.50 Z2.00
G1 Z0.00 F1000.0
G1 X8.00 Y32.50
G0 Z2.00
G0 X13.50 Y32.50 Z2.00
G1 Z0.60 F1000.0
G1 X14.00 Y32.50
G0 Z2.00
G0 X14.50 Y32.50 Z2.00
G1 Z0.00 F1000.0
G1 X14.50 Y32.50
G0 Z2.00
G0 X16.00 Y32.50 Z2.00
G1 Z0.30 F1000.0
G1 X16.00 Y32.50
G0 Z2.00
G0 X16.50 Y32.50 Z2.00
G1 Z0.60 F1000.0
G1 X17.00 Y32.50
G0 Z2.00
G0 X19.00 Y32.50 Z2.00
G1 Z0.00 F1000.0
G1 X19.00 Y32.50
G0 Z2.00
G0 X19.50 Y32.50 Z2.00
G1 Z0.60 F1000.0
G1 X20.50 Y32.50
G0 Z2.00
G0 X23.50 Y32.50 Z2.00
G1 Z0.60 F1000.0
G1 X24.50 Y32.50
G0 Z2.00
G0 X25.00 Y32.50 Z2.00
G1 Z0.30 F1000.0
G1 X25.00 Y32.50
G0 Z2.00
G0 X29.50 Y32.50 Z2.00
G1 Z0.60 F1000.0
G1 X29.50 Y32.50
G0 Z2.00
G0 X30.00 Y32.50 Z2.00
G1 Z0.00 F1000.0
G1 X30.00 Y32.50
G0 Z2.00
G0 X31.50 Y32.50 Z2.00
G1 Z0.30 F1000.0
G1 X31.50 Y32.50
G0 Z2.00
G0 X32.00 Y32.50 Z2.00
G1 Z0.60 F1000.0
G1 X32.50 Y32.50
G0 Z2.00
G0 X33.00 Y32.50 Z2.00
G1 Z0.30 F1000.0
G1 X34.50 Y32.50
G0 Z2.00
G0 X35.00 Y32.50 Z2.00
G1 Z0.60 F1000.0
G1 X35.50 Y32.50
G0 Z2.00
G0 X36.00 Y32.50 Z2.00
G1 Z0.00 F1000.0
G1 X36.00 Y32.50
G0 Z2.00
G0 X39.50 Y32.50 Z2.00
G1 Z0.60 F1000.0
G1 X39.50 Y32.50
G0 Z2.00
G0 X40.00 Y32.50 Z2.00
G1 Z0.30 F1000.0
G1 X40.00 Y32.50
G0 Z2.00
G0 X45.00 Y32.50 Z2.00
G1 Z0.60 F1000.0
G1 X46.50 Y32.50
G0 Z2.00
G0 X5.00 Y33.00 Z2.00
G1 Z0.60 F1000.0
G1 X7.50 Y33.00
G0 Z2.00
G0 X8.00 Y33.00 Z2.00
G1 Z0.00 F1000.0
G1 X8.00 Y33.00
G0 Z2.00
G0 X13.50 Y33.00 Z2.00
G1 Z0.00 F1000.0
G1 X13.50 Y33.00
G0 Z2.00
G0 X14.00 Y33.00 Z2.00
G1 Z0.60 F1000.0
G1 X14.00 Y33.00
G0 Z2.00
G0 X14.50 Y33.00 Z2.00
G1 Z0.30 F1000.0
G1 X14.50 Y33.00
G0 Z2.00
G0 X15.50 Y33.00 Z2.00
G1 Z0.30 F1000.0
G1 X16.00 Y33.00
G0 Z2.00
G0 X16.50 Y33.00 Z2.00
G1 Z0.60 F1000.0
G1 X16.50 Y33.00
G0 Z2.00
G0 X19.00 Y33.00 Z2.00
G1 Z0.00 F1000.0
G1 X19.00 Y33.00
G0 Z2.00
G0 X19.50 Y33.00 Z2.00
G1 Z0.60 F1000.0
G1 X20.50 Y33.00
G0 Z2.00
G0 X21.00 Y33.00 Z2.00
G1 Z0.00 F1000.0
G1 X21.00 Y33.00
G0 Z2.00
G0 X23.50 Y33.00 Z2.00
G1 Z0.60 F1000.0
G1 X24.50 Y33.00
G0 Z2.00
G0 X25.00 Y33.00 Z2.00
G1 Z0.30 F1000.0
G1 X25.00 Y33.00
G0 Z2.00
G0 X29.50 Y33.00 Z2.00
G1 Z0.60 F1000.0
G1 X29.50 Y33.00
G0 Z2.00
G0 X30.00 Y33.00 Z2.00
G1 Z0.30 F1000.0
G1 X30.00 Y33.00
G0 Z2.00
G0 X30.50 Y33.00 Z2.00
G1 Z0.00 F1000.0
G1 X31.00 Y33.00
G0 Z2.00
G0 X31.50 Y33.00 Z2.00
G1 Z0.60 F1000.0
G1 X33.50 Y33.00
G0 Z2.00
G0 X34.00 Y33.00 Z2.00
G1 Z0.30 F1000.0
G1 X34.50 Y33.00
G0 Z2.00
G0 X35.00 Y33.00 Z2.00
G1 Z0.00 F1000.0
G1 X35.00 Y33.00
G0 Z2.00
G0 X35.50 Y33.00 Z2.00
G1 Z0.60 F1000.0
G1 X35.50 Y33.00
G0 Z2.00
G0 X39.00 Y33.00 Z2.00
G1 Z0.00 F1000.0
G1 X39.00 Y33.00
G0 Z2.00
G0 X39.50 Y33.00 Z2.00
G1 Z0.60 F1000.0
G1 X40.00 Y33.00
G0 Z2.00
G0 X40.50 Y33.00 Z2.00
G1 Z0.00 F1000.0
G1 X40.50 Y33.00
G0 Z2.00
G0 X44.50 Y33.00 Z2.00
G1 Z0.00 F1000.0
G1 X44.50 Y33.00
G0 Z2.00
G0 X45.00 Y33.00 Z2.00
G1 Z0.60 F1000.0
G1 X45.50 Y33.00
G0 Z2.00
G0 X46.00 Y33.00 Z2.00
G1 Z0.30 F1000.0
G1 X46.00 Y33.00
G0 Z2.00
G0 X5.50 Y33.50 Z2.00
G1 Z0.00 F1000.0
G1 X5.50 Y33.50
G0 Z2.00
G0 X6.00 Y33.50 Z2.00
G1 Z0.60 F1000.0
G1 X7.00 Y33.50
G0 Z2.00
G0 X7.50 Y33.50 Z2.00
G1 Z0.30 F1000.0
G1 X7.50 Y33.50
G0 Z2.00
G0 X8.00 Y33.50 Z2.00
G1 Z0.00 F1000.0
G1 X8.00 Y33.50
G0 Z2.00
G0 X14.00 Y33.50 Z2.00
G1 Z0.30 F1000.0
G1 X14.00 Y33.50
G0 Z2.00
G0 X14.50 Y33.50 Z2.00
G1 Z0.60 F1000.0
G1 X14.50 Y33.50
G0 Z2.00
G0 X15.00 Y33.50 Z2.00
G1 Z0.00 F1000.0
G1 X15.50 Y33.50
G0 Z2.00
G0 X16.00 Y33.50 Z2.00
G1 Z0.60 F1000.0
G1 X16.50 Y33.50
G0 Z2.00
G0 X19.00 Y33.50 Z2.00
G1 Z0.30 F1000.0
G1 X19.00 Y33.50
G0 Z2.00
G0 X19.50 Y33.50 Z2.00
G1 Z0.60 F1000.0
G1 X20.50 Y33.50
G0 Z2.00
G0 X21.00 Y33.50 Z2.00
G1 Z0.00 F1000.0
G1 X21.00 Y33.50
G0 Z2.00
G0 X23.50 Y33.50 Z2.00
G1 Z0.60 F1000.0
G1 X24.00 Y33.50
G0 Z2.00
G0 X24.50 Y33.50 Z2.00
G1 Z0.30 F1000.0
G1 X24.50 Y33.50
G0 Z2.00
G0 X25.00 Y33.50 Z2.00
G1 Z0.00 F1000.0
G1 X25.00 Y33.50
G0 Z2.00
G0 X29.50 Y33.50 Z2.00
G1 Z0.60 F1000.0
G1 X29.50 Y33.50
G0 Z2.00
G0 X30.00 Y33.50 Z2.00
G1 Z0.30 F1000.0
G1 X32.00 Y33.50
G0 Z2.00
G0 X32.50 Y33.50 Z2.00
G1 Z0.60 F1000.0
G1 X33.00 Y33.50
G0 Z2.00
G0 X33.50 Y33.50 Z2.00
G1 Z0.00 F1000.0
G1 X34.00 Y33.50
G0 Z2.00
G0 X39.00 Y33.50 Z2.00
G1 Z0.00 F1000.0
G1 X39.00 Y33.50
G0 Z2.00
G0 X39.50 Y33.50 Z2.00
G1 Z0.60 F1000.0
G1 X40.50 Y33.50
G0 Z2.00
G0 X43.50 Y33.50 Z2.00
G1 Z0.30 F1000.0
G1 X43.50 Y33.50
G0 Z2.00
G0 X44.00 Y33.50 Z2.00
G1 Z0.00 F1000.0
G1 X44.00 Y33.50
G0 Z2.00
G0 X44.50 Y33.50 Z2.00
G1 Z0.60 F1000.0
G1 X45.50 Y33.50
G0 Z2.00
G0 X46.00 Y33.50 Z2.00
G1 Z0.30 F1000.0
G1 X46.00 Y33.50
G0 Z2.00
G0 X5.50 Y34.00 Z2.00
G1 Z0.30 F1000.0
G1 X5.50 Y34.00
G0 Z2.00
G0 X6.00 Y34.00 Z2.00
G1 Z0.60 F1000.0
G1 X7.00 Y34.00
G0 Z2.00
G0 X7.50 Y34.00 Z2.00
G1 Z0.30 F1000.0
G1 X8.00 Y34.00
G0 Z2.00
G0 X14.50 Y34.00 Z2.00
G1 Z0.60 F1000.0
G1 X16.00 Y34.00
G0 Z2.00
G0 X16.50 Y34.00 Z2.00
G1 Z0.30 F1000.0
G1 X16.50 Y34.00
G0 Z2.00
G0 X19.50 Y34.00 Z2.00
G1 Z0.30 F1000.0
G1 X19.50 Y34.00
G0 Z2.00
G0 X20.00 Y34.00 Z2.00
G1 Z0.60 F1000.0
G1 X21.00 Y34.00
G0 Z2.00
G0 X23.50 Y34.00 Z2.00
G1 Z0.60 F1000.0
G1 X24.00 Y34.00
G0 Z2.00
G0 X24.50 Y34.00 Z2.00
G1 Z0.30 F1000.0
G1 X24.50 Y34.00
G0 Z2.00
G0 X25.00 Y34.00 Z2.00
G1 Z0.00 F1000.0
G1 X25.00 Y34.00
G0 Z2.00
G0 X29.00 Y34.00 Z2.00
G1 Z0.00 F1000.0
G1 X29.00 Y34.00
G0 Z2.00
G0 X29.50 Y34.00 Z2.00
G1 Z0.60 F1000.0
G1 X30.00 Y34.00
G0 Z2.00
G0 X30.50 Y34.00 Z2.00
G1 Z0.30 F1000.0
G1 X32.00 Y34.00
G0 Z2.00
G0 X32.50 Y34.00 Z2.00
G1 Z0.00 F1000.0
G1 X32.50 Y34.00
G0 Z2.00
G0 X39.00 Y34.00 Z2.00
G1 Z0.30 F1000.0
G1 X39.00 Y34.00
G0 Z2.00
G0 X39.50 Y34.00 Z2.00
G1 Z0.60 F1000.0
G1 X39.50 Y34.00
G0 Z2.00
G0 X40.00 Y34.00 Z2.00
G1 Z0.00 F1000.0
G1 X40.00 Y34.00
G0 Z2.00
G0 X43.00 Y34.00 Z2.00
G1 Z0.00 F1000.0
G1 X43.00 Y34.00
G0 Z2.00
G0 X43.50 Y34.00 Z2.00
G1 Z0.60 F1000.0
G1 X44.50 Y34.00
G0 Z2.00
G0 X45.00 Y34.00 Z2.00
G1 Z0.30 F1000.0
G1 X45.50 Y34.00
G0 Z2.00
G0 X6.00 Y34.50 Z2.00
G1 Z0.00 F1000.0
G1 X6.00 Y34.50
G0 Z2.00
G0 X6.50 Y34.50 Z2.00
G1 Z0.60 F1000.0
G1 X7.00 Y34.50
G0 Z2.00
G0 X7.50 Y34.50 Z2.00
G1 Z0.30 F1000.0
G1 X8.00 Y34.50
G0 Z2.00
G0 X8.50 Y34.50 Z2.00
G1 Z0.00 F1000.0
G1 X8.50 Y34.50
G0 Z2.00
G0 X14.50 Y34.50 Z2.00
G1 Z0.00 F1000.0
G1 X14.50 Y34.50
G0 Z2.00
G0 X15.00 Y34.50 Z2.00
G1 Z0.60 F1000.0
G1 X15.50 Y34.50
G0 Z2.00
G0 X16.50 Y34.50 Z2.00
G1 Z0.00 F1000.0
G1 X16.50 Y34.50
G0 Z2.00
G0 X17.50 Y34.50 Z2.00
G1 Z0.00 F1000.0
G1 X17.50 Y34.50
G0 Z2.00
G0 X18.00 Y34.50 Z2.00
G1 Z0.30 F1000.0
G1 X18.00 Y34.50
G0 Z2.00
G0 X19.50 Y34.50 Z2.00
G1 Z0.30 F1000.0
G1 X20.00 Y34.50
G0 Z2.00
G0 X20.50 Y34.50 Z2.00
G1 Z0.60 F1000.0
G1 X21.00 Y34.50
G0 Z2.00
G0 X23.50 Y34.50 Z2.00
G1 Z0.60 F1000.0
G1 X24.00 Y34.50
G0 Z2.00
G0 X24.50 Y34.50 Z2.00
G1 Z0.30 F1000.0
G1 X24.50 Y34.50
G0 Z2.00
G0 X25.00 Y34.50 Z2.00
G1 Z0.00 F1000.0
G1 X25.00 Y34.50
G0 Z2.00
G0 X29.00 Y34.50 Z2.00
G1 Z0.00 F1000.0
G1 X29.00 Y34.50
G0 Z2.00
G0 X29.50 Y34.50 Z2.00
G1 Z0.60 F1000.0
G1 X29.50 Y34.50
G0 Z2.00
G0 X30.00 Y34.50 Z2.00
G1 Z0.30 F1000.0
G1 X31.50 Y34.50
G0 Z2.00
G0 X32.00 Y34.50 Z2.00
G1 Z0.00 F1000.0
G1 X32.00 Y34.50
G0 Z2.00
G0 X39.00 Y34.50 Z2.00
G1 Z0.60 F1000.0
G1 X40.00 Y34.50
G0 Z2.00
G0 X42.50 Y34.50 Z2.00
G1 Z0.00 F1000.0
G1 X42.50 Y34.50
G0 Z2.00
G0 X43.00 Y34.50 Z2.00
G1 Z0.60 F1000.0
G1 X43.50 Y34.50
G0 Z2.00
G0 X44.00 Y34.50 Z2.00
G1 Z0.30 F1000.0
G1 X44.00 Y34.50
G0 Z2.00
G0 X44.50 Y34.50 Z2.00
G1 Z0.00 F1000.0
G1 X44.50 Y34.50
G0 Z2.00
G0 X6.50 Y35.00 Z2.00
G1 Z0.00 F1000.0
G1 X6.50 Y35.00
G0 Z2.00
G0 X7.00 Y35.00 Z2.00
G1 Z0.60 F1000.0
G1 X7.50 Y35.00
G0 Z2.00
G0 X8.00 Y35.00 Z2.00
G1 Z0.30 F1000.0
G1 X8.50 Y35.00
G0 Z2.00
G0 X15.00 Y35.00 Z2.00
G1 Z0.60 F1000.0
G1 X16.00 Y35.00
G0 Z2.00
G0 X16.50 Y35.00 Z2.00
G1 Z0.00 F1000.0
G1 X16.50 Y35.00
G0 Z2.00
G0 X17.50 Y35.00 Z2.00
G1 Z0.30 F1000.0
G1 X18.00 Y35.00
G0 Z2.00
G0 X19.50 Y35.00 Z2.00
G1 Z0.30 F1000.0
G1 X20.00 Y35.00
G0 Z2.00
G0 X20.50 Y35.00 Z2.00
G1 Z0.60 F1000.0
G1 X21.00 Y35.00
G0 Z2.00
G0 X21.50 Y35.00 Z2.00
G1 Z0.00 F1000.0
G1 X21.50 Y35.00
G0 Z2.00
G0 X23.00 Y35.00 Z2.00
G1 Z0.60 F1000.0
G1 X23.50 Y35.00
G0 Z2.00
G0 X24.00 Y35.00 Z2.00
G1 Z0.30 F1000.0
G1 X24.50 Y35.00
G0 Z2.00
G0 X25.00 Y35.00 Z2.00
G1 Z0.00 F1000.0
G1 X25.00 Y35.00
G0 Z2.00
G0 X29.00 Y35.00 Z2.00
G1 Z0.60 F1000.0
G1 X29.00 Y35.00
G0 Z2.00
G0 X29.50 Y35.00 Z2.00
G1 Z0.30 F1000.0
G1 X30.50 Y35.00
G0 Z2.00
G0 X31.00 Y35.00 Z2.00
G1 Z0.00 F1000.0
G1 X31.00 Y35.00
G0 Z2.00
G0 X38.50 Y35.00 Z2.00
G1 Z0.60 F1000.0
G1 X39.00 Y35.00
G0 Z2.00
G0 X39.50 Y35.00 Z2.00
G1 Z0.30 F1000.0
G1 X39.50 Y35.00
G0 Z2.00
G0 X42.00 Y35.00 Z2.00
G1 Z0.00 F1000.0
G1 X42.00 Y35.00
G0 Z2.00
G0 X42.50 Y35.00 Z2.00
G1 Z0.60 F1000.0
G1 X43.00 Y35.00
G0 Z2.00
G0 X43.50 Y35.00 Z2.00
G1 Z0.00 F1000.0
G1 X43.50 Y35.00
G0 Z2.00
G0 X7.00 Y35.50 Z2.00
G1 Z0.30 F1000.0
G1 X7.00 Y35.50
G0 Z2.00
G0 X7.50 Y35.50 Z2.00
G1 Z0.60 F1000.0
G1 X7.50 Y35.50
G0 Z2.00
G0 X8.00 Y35.50 Z2.00
G1 Z0.30 F1000.0
G1 X8.50 Y35.50
G0 Z2.00
G0 X9.00 Y35.50 Z2.00
G1 Z0.00 F1000.0
G1 X9.00 Y35.50
G0 Z2.00
G0 X15.00 Y35.50 Z2.00
G1 Z0.60 F1000.0
G1 X16.00 Y35.50
G0 Z2.00
G0 X16.50 Y35.50 Z2.00
G1 Z0.00 F1000.0
G1 X16.50 Y35.50
G0 Z2.00
G0 X17.50 Y35.50 Z2.00
G1 Z0.60 F1000.0
G1 X17.50 Y35.50
G0 Z2.00
G0 X18.00 Y35.50 Z2.00
G1 Z0.30 F1000.0
G1 X18.00 Y35.50
G0 Z2.00
G0 X18.50 Y35.50 Z2.00
G1 Z0.00 F1000.0
G1 X19.00 Y35.50
G0 Z2.00
G0 X19.50 Y35.50 Z2.00
G1 Z0.30 F1000.0
G1 X19.50 Y35.50
G0 Z2.00
G0 X20.00 Y35.50 Z2.00
G1 Z0.60 F1000.0
G1 X21.00 Y35.50
G0 Z2.00
G0 X21.50 Y35.50 Z2.00
G1 Z0.00 F1000.0
G1 X21.50 Y35.50
G0 Z2.00
G0 X23.00 Y35.50 Z2.00
G1 Z0.00 F1000.0
G1 X23.00 Y35.50
G0 Z2.00
G0 X23.50 Y35.50 Z2.00
G1 Z0.60 F1000.0
G1 X23.50 Y35.50
G0 Z2.00
G0 X24.00 Y35.50 Z2.00
G1 Z0.30 F1000.0
G1 X25.00 Y35.50
G0 Z2.00
G0 X28.50 Y35.50 Z2.00
G1 Z0.00 F1000.0
G1 X28.50 Y35.50
G0 Z2.00
G0 X29.00 Y35.50 Z2.00
G1 Z0.30 F1000.0
G1 X30.00 Y35.50
G0 Z2.00
G0 X30.50 Y35.50 Z2.00
G1 Z0.00 F1000.0
G1 X30.50 Y35.50
G0 Z2.00
G0 X33.50 Y35.50 Z2.00
G1 Z0.00 F1000.0
G1 X33.50 Y35.50
G0 Z2.00
G0 X38.50 Y35.50 Z2.00
G1 Z0.00 F1000.0
G1 X38.50 Y35.50
G0 Z2.00
G0 X39.00 Y35.50 Z2.00
G1 Z0.30 F1000.0
G1 X39.00 Y35.50
G0 Z2.00
G0 X39.50 Y35.50 Z2.00
G1 Z0.00 F1000.0
G1 X39.50 Y35.50
G0 Z2.00
G0 X41.50 Y35.50 Z2.00
G1 Z0.00 F1000.0
G1 X41.50 Y35.50
G0 Z2.00
G0 X42.00 Y35.50 Z2.00
G1 Z0.60 F1000.0
G1 X42.50 Y35.50
G0 Z2.00
G0 X43.00 Y35.50 Z2.00
G1 Z0.00 F1000.0
G1 X43.00 Y35.50
G0 Z2.00
G0 X7.00 Y36.00 Z2.00
G1 Z0.00 F1000.0
G1 X7.00 Y36.00
G0 Z2.00
G0 X7.50 Y36.00 Z2.00
G1 Z0.60 F1000.0
G1 X8.00 Y36.00
G0 Z2.00
G0 X8.50 Y36.00 Z2.00
G1 Z0.30 F1000.0
G1 X9.00 Y36.00
G0 Z2.00
G0 X9.50 Y36.00 Z2.00
G1 Z0.60 F1000.0
G1 X9.50 Y36.00
G0 Z2.00
G0 X15.00 Y36.00 Z2.00
G1 Z0.30 F1000.0
G1 X15.00 Y36.00
G0 Z2.00
G0 X15.50 Y36.00 Z2.00
G1 Z0.60 F1000.0
G1 X16.00 Y36.00
G0 Z2.00
G0 X16.50 Y36.00 Z2.00
G1 Z0.00 F1000.0
G1 X16.50 Y36.00
G0 Z2.00
G0 X17.50 Y36.00 Z2.00
G1 Z0.60 F1000.0
G1 X17.50 Y36.00
G0 Z2.00
G0 X18.00 Y36.00 Z2.00
G1 Z0.30 F1000.0
G1 X19.50 Y36.00
G0 Z2.00
G0 X20.00 Y36.00 Z2.00
G1 Z0.60 F1000.0
G1 X21.00 Y36.00
G0 Z2.00
G0 X21.50 Y36.00 Z2.00
G1 Z0.30 F1000.0
G1 X21.50 Y36.00
G0 Z2.00
G0 X23.00 Y36.00 Z2.00
G1 Z0.00 F1000.0
G1 X23.00 Y36.00
G0 Z2.00
G0 X23.50 Y36.00 Z2.00
G1 Z0.60 F1000.0
G1 X23.50 Y36.00
G0 Z2.00
G0 X24.00 Y36.00 Z2.00
G1 Z0.30 F1000.0
G1 X24.50 Y36.00
G0 Z2.00
G0 X28.00 Y36.00 Z2.00
G1 Z0.30 F1000.0
G1 X28.00 Y36.00
G0 Z2.00
G0 X28.50 Y36.00 Z2.00
G1 Z0.60 F1000.0
G1 X28.50 Y36.00
G0 Z2.00
G0 X29.00 Y36.00 Z2.00
G1 Z0.30 F1000.0
G1 X29.50 Y36.00
G0 Z2.00
G0 X30.00 Y36.00 Z2.00
G1 Z0.00 F1000.0
G1 X30.00 Y36.00
G0 Z2.00
G0 X33.00 Y36.00 Z2.00
G1 Z0.00 F1000.0
G1 X33.00 Y36.00
G0 Z2.00
G0 X34.00 Y36.00 Z2.00
G1 Z0.00 F1000.0
G1 X34.00 Y36.00
G0 Z2.00
G0 X38.50 Y36.00 Z2.00
G1 Z0.60 F1000.0
G1 X39.00 Y36.00
G0 Z2.00
G0 X39.50 Y36.00 Z2.00
G1 Z0.00 F1000.0
G1 X39.50 Y36.00
G0 Z2.00
G0 X41.00 Y36.00 Z2.00
G1 Z0.00 F1000.0
G1 X41.00 Y36.00
G0 Z2.00
G0 X41.50 Y36.00 Z2.00
G1 Z0.60 F1000.0
G1 X42.00 Y36.00
G0 Z2.00
G0 X42.50 Y36.00 Z2.00
G1 Z0.00 F1000.0
G1 X42.50 Y36.00
G0 Z2.00
G0 X7.50 Y36.50 Z2.00
G1 Z0.00 F1000.0
G1 X7.50 Y36.50
G0 Z2.00
G0 X8.00 Y36.50 Z2.00
G1 Z0.60 F1000.0
G1 X9.00 Y36.50
G0 Z2.00
G0 X9.50 Y36.50 Z2.00
G1 Z0.00 F1000.0
G1 X9.50 Y36.50
G0 Z2.00
G0 X15.00 Y36.50 Z2.00
G1 Z0.30 F1000.0
G1 X15.00 Y36.50
G0 Z2.00
G0 X15.50 Y36.50 Z2.00
G1 Z0.60 F1000.0
G1 X16.00 Y36.50
G0 Z2.00
G0 X16.50 Y36.50 Z2.00
G1 Z0.00 F1000.0
G1 X16.50 Y36.50
G0 Z2.00
G0 X17.50 Y36.50 Z2.00
G1 Z0.00 F1000.0
G1 X17.50 Y36.50
G0 Z2.00
G0 X18.00 Y36.50 Z2.00
G1 Z0.60 F1000.0
G1 X18.50 Y36.50
G0 Z2.00
G0 X19.00 Y36.50 Z2.00
G1 Z0.30 F1000.0
G1 X19.00 Y36.50
G0 Z2.00
G0 X19.50 Y36.50 Z2.00
G1 Z0.60 F1000.0
G1 X20.50 Y36.50
G0 Z2.00
G0 X21.00 Y36.50 Z2.00
G1 Z0.30 F1000.0
G1 X21.50 Y36.50
G0 Z2.00
G0 X23.00 Y36.50 Z2.00
G1 Z0.00 F1000.0
G1 X23.00 Y36.50
G0 Z2.00
G0 X23.50 Y36.50 Z2.00
G1 Z0.60 F1000.0
G1 X23.50 Y36.50
G0 Z2.00
G0 X24.00 Y36.50 Z2.00
G1 Z0.30 F1000.0
G1 X24.00 Y36.50
G0 Z2.00
G0 X24.50 Y36.50 Z2.00
G1 Z0.00 F1000.0
G1 X24.50 Y36.50
G0 Z2.00
G0 X27.50 Y36.50 Z2.00
G1 Z0.60 F1000.0
G1 X28.00 Y36.50
G0 Z2.00
G0 X28.50 Y36.50 Z2.00
G1 Z0.30 F1000.0
G1 X29.00 Y36.50
G0 Z2.00
G0 X29.50 Y36.50 Z2.00
G1 Z0.00 F1000.0
G1 X29.50 Y36.50
G0 Z2.00
G0 X33.50 Y36.50 Z2.00
G1 Z0.30 F1000.0
G1 X33.50 Y36.50
G0 Z2.00
G0 X34.00 Y36.50 Z2.00
G1 Z0.00 F1000.0
G1 X34.00 Y36.50
G0 Z2.00
G0 X38.00 Y36.50 Z2.00
G1 Z0.00 F1000.0
G1 X38.00 Y36.50
G0 Z2.00
G0 X38.50 Y36.50 Z2.00
G1 Z0.60 F1000.0
G1 X38.50 Y36.50
G0 Z2.00
G0 X39.00 Y36.50 Z2.00
G1 Z0.30 F1000.0
G1 X39.00 Y36.50
G0 Z2.00
G0 X39.50 Y36.50 Z2.00
G1 Z0.00 F1000.0
G1 X39.50 Y36.50
G0 Z2.00
G0 X40.00 Y36.50 Z2.00
G1 Z0.30 F1000.0
G1 X40.00 Y36.50
G0 Z2.00
G0 X40.50 Y36.50 Z2.00
G1 Z0.00 F1000.0
G1 X40.50 Y36.50
G0 Z2.00
G0 X41.00 Y36.50 Z2.00
G1 Z0.30 F1000.0
G1 X41.00 Y36.50
G0 Z2.00
G0 X41.50 Y36.50 Z2.00
G1 Z0.60 F1000.0
G1 X41.50 Y36.50
G0 Z2.00
G0 X42.00 Y36.50 Z2.00
G1 Z0.00 F1000.0
G1 X42.00 Y36.50
G0 Z2.00
G0 X8.00 Y37.00 Z2.00
G1 Z0.60 F1000.0
G1 X9.50 Y37.00
G0 Z2.00
G0 X10.00 Y37.00 Z2.00
G1 Z0.00 F1000.0
G1 X10.00 Y37.00
G0 Z2.00
G0 X15.00 Y37.00 Z2.00
G1 Z0.00 F1000.0
G1 X15.00 Y37.00
G0 Z2.00
G0 X15.50 Y37.00 Z2.00
G1 Z0.60 F1000.0
G1 X16.00 Y37.00
G0 Z2.00
G0 X16.50 Y37.00 Z2.00
G1 Z0.00 F1000.0
G1 X16.50 Y37.00
G0 Z2.00
G0 X18.00 Y37.00 Z2.00
G1 Z0.30 F1000.0
G1 X18.00 Y37.00
G0 Z2.00
G0 X18.50 Y37.00 Z2.00
G1 Z0.00 F1000.0
G1 X18.50 Y37.00
G0 Z2.00
G0 X19.00 Y37.00 Z2.00
G1 Z0.60 F1000.0
G1 X20.50 Y37.00
G0 Z2.00
G0 X21.00 Y37.00 Z2.00
G1 Z0.30 F1000.0
G1 X21.50 Y37.00
G0 Z2.00
G0 X23.00 Y37.00 Z2.00
G1 Z0.30 F1000.0
G1 X23.00 Y37.00
G0 Z2.00
G0 X23.50 Y37.00 Z2.00
G1 Z0.60 F1000.0
G1 X23.50 Y37.00
G0 Z2.00
G0 X24.00 Y37.00 Z2.00
G1 Z0.30 F1000.0
G1 X24.00 Y37.00
G0 Z2.00
G0 X24.50 Y37.00 Z2.00
G1 Z0.00 F1000.0
G1 X24.50 Y37.00
G0 Z2.00
G0 X27.50 Y37.00 Z2.00
G1 Z0.60 F1000.0
G1 X28.50 Y37.00
G0 Z2.00
G0 X29.00 Y37.00 Z2.00
G1 Z0.00 F1000.0
G1 X29.00 Y37.00
G0 Z2.00
G0 X32.50 Y37.00 Z2.00
G1 Z0.00 F1000.0
G1 X32.50 Y37.00
G0 Z2.00
G0 X33.00 Y37.00 Z2.00
G1 Z0.30 F1000.0
G1 X33.50 Y37.00
G0 Z2.00
G0 X34.00 Y37.00 Z2.00
G1 Z0.00 F1000.0
G1 X34.00 Y37.00
G0 Z2.00
G0 X38.00 Y37.00 Z2.00
G1 Z0.60 F1000.0
G1 X38.50 Y37.00
G0 Z2.00
G0 X39.00 Y37.00 Z2.00
G1 Z0.30 F1000.0
G1 X40.50 Y37.00
G0 Z2.00
G0 X41.00 Y37.00 Z2.00
G1 Z0.60 F1000.0
G1 X41.00 Y37.00
G0 Z2.00
G0 X41.50 Y37.00 Z2.00
G1 Z0.00 F1000.0
G1 X41.50 Y37.00
G0 Z2.00
G0 X8.00 Y37.50 Z2.00
G1 Z0.00 F1000.0
G1 X8.00 Y37.50
G0 Z2.00
G0 X8.50 Y37.50 Z2.00
G1 Z0.30 F1000.0
G1 X9.50 Y37.50
G0 Z2.00
G0 X10.00 Y37.50 Z2.00
G1 Z0.60 F1000.0
G1 X10.50 Y37.50
G0 Z2.00
G0 X15.00 Y37.50 Z2.00
G1 Z0.60 F1000.0
G1 X16.50 Y37.50
G0 Z2.00
G0 X19.00 Y37.50 Z2.00
G1 Z0.00 F1000.0
G1 X19.00 Y37.50
G0 Z2.00
G0 X19.50 Y37.50 Z2.00
G1 Z0.30 F1000.0
G1 X19.50 Y37.50
G0 Z2.00
G0 X20.00 Y37.50 Z2.00
G1 Z0.60 F1000.0
G1 X20.50 Y37.50
G0 Z2.00
G0 X21.00 Y37.50 Z2.00
G1 Z0.30 F1000.0
G1 X21.50 Y37.50
G0 Z2.00
G0 X22.00 Y37.50 Z2.00
G1 Z0.00 F1000.0
G1 X22.50 Y37.50
G0 Z2.00
G0 X23.00 Y37.50 Z2.00
G1 Z0.30 F1000.0
G1 X23.00 Y37.50
G0 Z2.00
G0 X23.50 Y37.50 Z2.00
G1 Z0.60 F1000.0
G1 X23.50 Y37.50
G0 Z2.00
G0 X24.00 Y37.50 Z2.00
G1 Z0.30 F1000.0
G1 X24.00 Y37.50
G0 Z2.00
G0 X24.50 Y37.50 Z2.00
G1 Z0.60 F1000.0
G1 X24.50 Y37.50
G0 Z2.00
G0 X27.00 Y37.50 Z2.00
G1 Z0.00 F1000.0
G1 X27.00 Y37.50
G0 Z2.00
G0 X27.50 Y37.50 Z2.00
G1 Z0.60 F1000.0
G1 X27.50 Y37.50
G0 Z2.00
G0 X28.00 Y37.50 Z2.00
G1 Z0.30 F1000.0
G1 X28.00 Y37.50
G0 Z2.00
G0 X28.50 Y37.50 Z2.00
G1 Z0.00 F1000.0
G1 X28.50 Y37.50
G0 Z2.00
G0 X32.50 Y37.50 Z2.00
G1 Z0.00 F1000.0
G1 X32.50 Y37.50
G0 Z2.00
G0 X33.00 Y37.50 Z2.00
G1 Z0.30 F1000.0
G1 X33.50 Y37.50
G0 Z2.00
G0 X37.50 Y37.50 Z2.00
G1 Z0.00 F1000.0
G1 X37.50 Y37.50
G0 Z2.00
G0 X38.00 Y37.50 Z2.00
G1 Z0.60 F1000.0
G1 X39.00 Y37.50
G0 Z2.00
G0 X39.50 Y37.50 Z2.00
G1 Z0.30 F1000.0
G1 X40.50 Y37.50
G0 Z2.00
G0 X41.00 Y37.50 Z2.00
G1 Z0.00 F1000.0
G1 X41.00 Y37.50
G0 Z2.00
G0 X8.50 Y38.00 Z2.00
G1 Z0.00 F1000.0
G1 X8.50 Y38.00
G0 Z2.00
G0 X9.00 Y38.00 Z2.00
G1 Z0.30 F1000.0
G1 X9.50 Y38.00
G0 Z2.00
G0 X10.00 Y38.00 Z2.00
G1 Z0.60 F1000.0
G1 X10.50 Y38.00
G0 Z2.00
G0 X15.00 Y38.00 Z2.00
G1 Z0.60 F1000.0
G1 X16.50 Y38.00
G0 Z2.00
G0 X20.00 Y38.00 Z2.00
G1 Z0.30 F1000.0
G1 X20.00 Y38.00
G0 Z2.00
G0 X20.50 Y38.00 Z2.00
G1 Z0.60 F1000.0
G1 X21.00 Y38.00
G0 Z2.00
G0 X21.50 Y38.00 Z2.00
G1 Z0.30 F1000.0
G1 X22.50 Y38.00
G0 Z2.00
G0 X23.00 Y38.00 Z2.00
G1 Z0.60 F1000.0
G1 X23.50 Y38.00
G0 Z2.00
G0 X24.00 Y38.00 Z2.00
G1 Z0.30 F1000.0
G1 X24.00 Y38.00
G0 Z2.00
G0 X26.50 Y38.00 Z2.00
G1 Z0.00 F1000.0
G1 X26.50 Y38.00
G0 Z2.00
G0 X27.00 Y38.00 Z2.00
G1 Z0.60 F1000.0
G1 X27.50 Y38.00
G0 Z2.00
G0 X28.00 Y38.00 Z2.00
G1 Z0.30 F1000.0
G1 X28.00 Y38.00
G0 Z2.00
G0 X32.50 Y38.00 Z2.00
G1 Z0.00 F1000.0
G1 X32.50 Y38.00
G0 Z2.00
G0 X33.00 Y38.00 Z2.00
G1 Z0.60 F1000.0
G1 X33.50 Y38.00
G0 Z2.00
G0 X37.00 Y38.00 Z2.00
G1 Z0.00 F1000.0
G1 X37.00 Y38.00
G0 Z2.00
G0 X37.50 Y38.00 Z2.00
G1 Z0.60 F1000.0
G1 X39.00 Y38.00
G0 Z2.00
G0 X39.50 Y38.00 Z2.00
G1 Z0.30 F1000.0
G1 X40.00 Y38.00
G0 Z2.00
G0 X40.50 Y38.00 Z2.00
G1 Z0.00 F1000.0
G1 X40.50 Y38.00
G0 Z2.00
G0 X9.00 Y38.50 Z2.00
G1 Z0.30 F1000.0
G1 X9.50 Y38.50
G0 Z2.00
G0 X10.00 Y38.50 Z2.00
G1 Z0.60 F1000.0
G1 X10.50 Y38.50
G0 Z2.00
G0 X11.00 Y38.50 Z2.00
G1 Z0.30 F1000.0
G1 X11.00 Y38.50
G0 Z2.00
G0 X15.00 Y38.50 Z2.00
G1 Z0.60 F1000.0
G1 X16.50 Y38.50
G0 Z2.00
G0 X20.00 Y38.50 Z2.00
G1 Z0.00 F1000.0
G1 X20.00 Y38.50
G0 Z2.00
G0 X20.50 Y38.50 Z2.00
G1 Z0.60 F1000.0
G1 X20.50 Y38.50
G0 Z2.00
G0 X21.00 Y38.50 Z2.00
G1 Z0.30 F1000.0
G1 X22.50 Y38.50
G0 Z2.00
G0 X23.00 Y38.50 Z2.00
G1 Z0.60 F1000.0
G1 X23.50 Y38.50
G0 Z2.00
G0 X24.00 Y38.50 Z2.00
G1 Z0.30 F1000.0
G1 X24.00 Y38.50
G0 Z2.00
G0 X26.50 Y38.50 Z2.00
G1 Z0.60 F1000.0
G1 X27.50 Y38.50
G0 Z2.00
G0 X28.00 Y38.50 Z2.00
G1 Z0.00 F1000.0
G1 X28.00 Y38.50
G0 Z2.00
G0 X32.50 Y38.50 Z2.00
G1 Z0.00 F1000.0
G1 X32.50 Y38.50
G0 Z2.00
G0 X33.00 Y38.50 Z2.00
G1 Z0.30 F1000.0
G1 X33.50 Y38.50
G0 Z2.00
G0 X36.50 Y38.50 Z2.00
G1 Z0.00 F1000.0
G1 X36.50 Y38.50
G0 Z2.00
G0 X37.00 Y38.50 Z2.00
G1 Z0.60 F1000.0
G1 X38.00 Y38.50
G0 Z2.00
G0 X38.50 Y38.50 Z2.00
G1 Z0.30 F1000.0
G1 X38.50 Y38.50
G0 Z2.00
G0 X39.00 Y38.50 Z2.00
G1 Z0.60 F1000.0
G1 X39.00 Y38.50
G0 Z2.00
G0 X39.50 Y38.50 Z2.00
G1 Z0.30 F1000.0
G1 X39.50 Y38.50
G0 Z2.00
G0 X40.00 Y38.50 Z2.00
G1 Z0.00 F1000.0
G1 X40.00 Y38.50
G0 Z2.00
G0 X3.50 Y39.00 Z2.00
G1 Z0.60 F1000.0
G1 X3.50 Y39.00
G0 Z2.00
G0 X7.50 Y39.00 Z2.00
G1 Z0.30 F1000.0
G1 X7.50 Y39.00
G0 Z2.00
G0 X8.00 Y39.00 Z2.00
G1 Z0.60 F1000.0
G1 X8.50 Y39.00
G0 Z2.00
G0 X9.00 Y39.00 Z2.00
G1 Z0.00 F1000.0
G1 X9.00 Y39.00
G0 Z2.00
G0 X9.50 Y39.00 Z2.00
G1 Z0.30 F1000.0
G1 X9.50 Y39.00
G0 Z2.00
G0 X10.00 Y39.00 Z2.00
G1 Z0.60 F1000.0
G1 X11.00 Y39.00
G0 Z2.00
G0 X11.50 Y39.00 Z2.00
G1 Z0.00 F1000.0
G1 X11.50 Y39.00
G0 Z2.00
G0 X15.00 Y39.00 Z2.00
G1 Z0.60 F1000.0
G1 X16.00 Y39.00
G0 Z2.00
G0 X16.50 Y39.00 Z2.00
G1 Z0.30 F1000.0
G1 X16.50 Y39.00
G0 Z2.00
G0 X20.00 Y39.00 Z2.00
G1 Z0.00 F1000.0
G1 X20.00 Y39.00
G0 Z2.00
G0 X20.50 Y39.00 Z2.00
G1 Z0.30 F1000.0
G1 X20.50 Y39.00
G0 Z2.00
G0 X21.00 Y39.00 Z2.00
G1 Z0.60 F1000.0
G1 X21.00 Y39.00
G0 Z2.00
G0 X21.50 Y39.00 Z2.00
G1 Z0.30 F1000.0
G1 X22.50 Y39.00
G0 Z2.00
G0 X23.00 Y39.00 Z2.00
G1 Z0.60 F1000.0
G1 X23.50 Y39.00
G0 Z2.00
G0 X24.00 Y39.00 Z2.00
G1 Z0.30 F1000.0
G1 X24.00 Y39.00
G0 Z2.00
G0 X26.00 Y39.00 Z2.00
G1 Z0.00 F1000.0
G1 X26.00 Y39.00
G0 Z2.00
G0 X26.50 Y39.00 Z2.00
G1 Z0.60 F1000.0
G1 X27.00 Y39.00
G0 Z2.00
G0 X27.50 Y39.00 Z2.00
G1 Z0.30 F1000.0
G1 X27.50 Y39.00
G0 Z2.00
G0 X32.50 Y39.00 Z2.00
G1 Z0.30 F1000.0
G1 X32.50 Y39.00
G0 Z2.00
G0 X33.00 Y39.00 Z2.00
G1 Z0.60 F1000.0
G1 X33.00 Y39.00
G0 Z2.00
G0 X33.50 Y39.00 Z2.00
G1 Z0.00 F1000.0
G1 X33.50 Y39.00
G0 Z2.00
G0 X36.50 Y39.00 Z2.00
G1 Z0.60 F1000.0
G1 X38.00 Y39.00
G0 Z2.00
G0 X38.50 Y39.00 Z2.00
G1 Z0.30 F1000.0
G1 X39.00 Y39.00
G0 Z2.00
G0 X39.50 Y39.00 Z2.00
G1 Z0.00 F1000.0
G1 X39.50 Y39.00
G0 Z2.00
G0 X2.00 Y39.50 Z2.00
G1 Z0.00 F1000.0
G1 X2.00 Y39.50
G0 Z2.00
G0 X2.50 Y39.50 Z2.00
G1 Z0.60 F1000.0
G1 X4.50 Y39.50
G0 Z2.00
G0 X5.00 Y39.50 Z2.00
G1 Z0.00 F1000.0
G1 X6.00 Y39.50
G0 Z2.00
G0 X6.50 Y39.50 Z2.00
G1 Z0.60 F1000.0
G1 X7.50 Y39.50
G0 Z2.00
G0 X8.00 Y39.50 Z2.00
G1 Z0.30 F1000.0
G1 X9.50 Y39.50
G0 Z2.00
G0 X10.00 Y39.50 Z2.00
G1 Z0.60 F1000.0
G1 X12.00 Y39.50
G0 Z2.00
G0 X15.00 Y39.50 Z2.00
G1 Z0.30 F1000.0
G1 X15.50 Y39.50
G0 Z2.00
G0 X16.00 Y39.50 Z2.00
G1 Z0.60 F1000.0
G1 X16.00 Y39.50
G0 Z2.00
G0 X16.50 Y39.50 Z2.00
G1 Z0.30 F1000.0
G1 X16.50 Y39.50
G0 Z2.00
G0 X20.50 Y39.50 Z2.00
G1 Z0.60 F1000.0
G1 X23.50 Y39.50
G0 Z2.00
G0 X24.00 Y39.50 Z2.00
G1 Z0.30 F1000.0
G1 X24.00 Y39.50
G0 Z2.00
G0 X26.00 Y39.50 Z2.00
G1 Z0.60 F1000.0
G1 X27.00 Y39.50
G0 Z2.00
G0 X27.50 Y39.50 Z2.00
G1 Z0.00 F1000.0
G1 X27.50 Y39.50
G0 Z2.00
G0 X32.50 Y39.50 Z2.00
G1 Z0.30 F1000.0
G1 X32.50 Y39.50
G0 Z2.00
G0 X33.00 Y39.50 Z2.00
G1 Z0.60 F1000.0
G1 X33.00 Y39.50
G0 Z2.00
G0 X33.50 Y39.50 Z2.00
G1 Z0.00 F1000.0
G1 X33.50 Y39.50
G0 Z2.00
G0 X36.00 Y39.50 Z2.00
G1 Z0.00 F1000.0
G1 X36.00 Y39.50
G0 Z2.00
G0 X36.50 Y39.50 Z2.00
G1 Z0.60 F1000.0
G1 X37.00 Y39.50
G0 Z2.00
G0 X38.00 Y39.50 Z2.00
G1 Z0.30 F1000.0
G1 X38.50 Y39.50
G0 Z2.00
G0 X2.00 Y40.00 Z2.00
G1 Z0.60 F1000.0
G1 X8.00 Y40.00
G0 Z2.00
G0 X8.50 Y40.00 Z2.00
G1 Z0.30 F1000.0
G1 X9.00 Y40.00
G0 Z2.00
G0 X9.50 Y40.00 Z2.00
G1 Z0.60 F1000.0
G1 X13.00 Y40.00
G0 Z2.00
G0 X15.00 Y40.00 Z2.00
G1 Z0.30 F1000.0
G1 X15.50 Y40.00
G0 Z2.00
G0 X16.00 Y40.00 Z2.00
G1 Z0.60 F1000.0
G1 X16.00 Y40.00
G0 Z2.00
G0 X16.50 Y40.00 Z2.00
G1 Z0.00 F1000.0
G1 X16.50 Y40.00
G0 Z2.00
G0 X20.50 Y40.00 Z2.00
G1 Z0.30 F1000.0
G1 X20.50 Y40.00
G0 Z2.00
G0 X21.00 Y40.00 Z2.00
G1 Z0.60 F1000.0
G1 X23.00 Y40.00
G0 Z2.00
G0 X23.50 Y40.00 Z2.00
G1 Z0.30 F1000.0
G1 X23.50 Y40.00
G0 Z2.00
G0 X24.00 Y40.00 Z2.00
G1 Z0.60 F1000.0
G1 X24.00 Y40.00
G0 Z2.00
G0 X25.50 Y40.00 Z2.00
G1 Z0.00 F1000.0
G1 X25.50 Y40.00
G0 Z2.00
G0 X26.00 Y40.00 Z2.00
G1 Z0.60 F1000.0
G1 X27.00 Y40.00
G0 Z2.00
G0 X32.50 Y40.00 Z2.00
G1 Z0.60 F1000.0
G1 X33.00 Y40.00
G0 Z2.00
G0 X33.50 Y40.00 Z2.00
G1 Z0.00 F1000.0
G1 X33.50 Y40.00
G0 Z2.00
G0 X35.50 Y40.00 Z2.00
G1 Z0.00 F1000.0
G1 X35.50 Y40.00
G0 Z2.00
G0 X36.00 Y40.00 Z2.00
G1 Z0.60 F1000.0
G1 X37.50 Y40.00
G0 Z2.00
G0 X38.00 Y40.00 Z2.00
G1 Z0.00 F1000.0
G1 X38.00 Y40.00
G0 Z2.00
G0 X2.00 Y40.50 Z2.00
G1 Z0.60 F1000.0
G1 X7.50 Y40.50
G0 Z2.00
G0 X8.00 Y40.50 Z2.00
G1 Z0.30 F1000.0
G1 X8.50 Y40.50
G0 Z2.00
G0 X9.00 Y40.50 Z2.00
G1 Z0.00 F1000.0
G1 X9.00 Y40.50
G0 Z2.00
G0 X9.50 Y40.50 Z2.00
G1 Z0.30 F1000.0
G1 X9.50 Y40.50
G0 Z2.00
G0 X10.00 Y40.50 Z2.00
G1 Z0.60 F1000.0
G1 X12.50 Y40.50
G0 Z2.00
G0 X13.00 Y40.50 Z2.00
G1 Z0.30 F1000.0
G1 X13.00 Y40.50
G0 Z2.00
G0 X13.50 Y40.50 Z2.00
G1 Z0.00 F1000.0
G1 X13.50 Y40.50
G0 Z2.00
G0 X14.00 Y40.50 Z2.00
G1 Z0.30 F1000.0
G1 X14.00 Y40.50
G0 Z2.00
G0 X14.50 Y40.50 Z2.00
G1 Z0.00 F1000.0
G1 X14.50 Y40.50
G0 Z2.00
G0 X15.00 Y40.50 Z2.00
G1 Z0.30 F1000.0
G1 X16.00 Y40.50
G0 Z2.00
G0 X16.50 Y40.50 Z2.00
G1 Z0.00 F1000.0
G1 X16.50 Y40.50
G0 Z2.00
G0 X20.50 Y40.50 Z2.00
G1 Z0.00 F1000.0
G1 X20.50 Y40.50
G0 Z2.00
G0 X21.00 Y40.50 Z2.00
G1 Z0.60 F1000.0
G1 X23.00 Y40.50
G0 Z2.00
G0 X23.50 Y40.50 Z2.00
G1 Z0.30 F1000.0
G1 X24.00 Y40.50
G0 Z2.00
G0 X24.50 Y40.50 Z2.00
G1 Z0.00 F1000.0
G1 X25.00 Y40.50
G0 Z2.00
G0 X25.50 Y40.50 Z2.00
G1 Z0.60 F1000.0
G1 X26.50 Y40.50
G0 Z2.00
G0 X27.00 Y40.50 Z2.00
G1 Z0.00 F1000.0
G1 X27.00 Y40.50
G0 Z2.00
G0 X32.50 Y40.50 Z2.00
G1 Z0.60 F1000.0
G1 X32.50 Y40.50
G0 Z2.00
G0 X33.00 Y40.50 Z2.00
G1 Z0.30 F1000.0
G1 X33.00 Y40.50
G0 Z2.00
G0 X33.50 Y40.50 Z2.00
G1 Z0.00 F1000.0
G1 X33.50 Y40.50
G0 Z2.00
G0 X35.00 Y40.50 Z2.00
G1 Z0.00 F1000.0
G1 X35.00 Y40.50
G0 Z2.00
G0 X35.50 Y40.50 Z2.00
G1 Z0.60 F1000.0
G1 X37.00 Y40.50
G0 Z2.00
G0 X37.50 Y40.50 Z2.00
G1 Z0.00 F1000.0
G1 X37.50 Y40.50
G0 Z2.00
G0 X2.00 Y41.00 Z2.00
G1 Z0.00 F1000.0
G1 X2.00 Y41.00
G0 Z2.00
G0 X3.50 Y41.00 Z2.00
G1 Z0.60 F1000.0
G1 X3.50 Y41.00
G0 Z2.00
G0 X4.00 Y41.00 Z2.00
G1 Z0.30 F1000.0
G1 X4.00 Y41.00
G0 Z2.00
G0 X4.50 Y41.00 Z2.00
G1 Z0.00 F1000.0
G1 X5.50 Y41.00
G0 Z2.00
G0 X6.00 Y41.00 Z2.00
G1 Z0.60 F1000.0
G1 X6.00 Y41.00
G0 Z2.00
G0 X10.50 Y41.00 Z2.00
G1 Z0.00 F1000.0
G1 X10.50 Y41.00
G0 Z2.00
G0 X11.00 Y41.00 Z2.00
G1 Z0.60 F1000.0
G1 X13.00 Y41.00
G0 Z2.00
G0 X13.50 Y41.00 Z2.00
G1 Z0.30 F1000.0
G1 X15.50 Y41.00
G0 Z2.00
G0 X16.00 Y41.00 Z2.00
G1 Z0.60 F1000.0
G1 X16.00 Y41.00
G0 Z2.00
G0 X16.50 Y41.00 Z2.00
G1 Z0.00 F1000.0
G1 X16.50 Y41.00
G0 Z2.00
G0 X20.50 Y41.00 Z2.00
G1 Z0.60 F1000.0
G1 X23.50 Y41.00
G0 Z2.00
G0 X24.00 Y41.00 Z2.00
G1 Z0.30 F1000.0
G1 X25.00 Y41.00
G0 Z2.00
G0 X25.50 Y41.00 Z2.00
G1 Z0.60 F1000.0
G1 X26.00 Y41.00
G0 Z2.00
G0 X26.50 Y41.00 Z2.00
G1 Z0.30 F1000.0
G1 X26.50 Y41.00
G0 Z2.00
G0 X32.50 Y41.00 Z2.00
G1 Z0.60 F1000.0
G1 X32.50 Y41.00
G0 Z2.00
G0 X33.00 Y41.00 Z2.00
G1 Z0.30 F1000.0
G1 X33.50 Y41.00
G0 Z2.00
G0 X34.50 Y41.00 Z2.00
G1 Z0.60 F1000.0
G1 X34.50 Y41.00
G0 Z2.00
G0 X35.00 Y41.00 Z2.00
G1 Z0.30 F1000.0
G1 X35.00 Y41.00
G0 Z2.00
G0 X35.50 Y41.00 Z2.00
G1 Z0.60 F1000.0
G1 X35.50 Y41.00
G0 Z2.00
G0 X36.00 Y41.00 Z2.00
G1 Z0.30 F1000.0
G1 X36.50 Y41.00
G0 Z2.00
G0 X37.00 Y41.00 Z2.00
G1 Z0.00 F1000.0
G1 X37.00 Y41.00
G0 Z2.00
G0 X39.50 Y41.00 Z2.00
G1 Z0.60 F1000.0
G1 X39.50 Y41.00
G0 Z2.00
G0 X40.00 Y41.00 Z2.00
G1 Z0.30 F1000.0
G1 X40.00 Y41.00
G0 Z2.00
G0 X40.50 Y41.00 Z2.00
G1 Z0.00 F1000.0
G1 X40.50 Y41.00
G0 Z2.00
G0 X41.00 Y41.00 Z2.00
G1 Z0.60 F1000.0
G1 X41.00 Y41.00
G0 Z2.00
G0 X2.50 Y41.50 Z2.00
G1 Z0.00 F1000.0
G1 X3.00 Y41.50
G0 Z2.00
G0 X3.50 Y41.50 Z2.00
G1 Z0.30 F1000.0
G1 X3.50 Y41.50
G0 Z2.00
G0 X11.50 Y41.50 Z2.00
G1 Z0.00 F1000.0
G1 X11.50 Y41.50
G0 Z2.00
G0 X12.00 Y41.50 Z2.00
G1 Z0.60 F1000.0
G1 X13.00 Y41.50
G0 Z2.00
G0 X13.50 Y41.50 Z2.00
G1 Z0.30 F1000.0
G1 X16.00 Y41.50
G0 Z2.00
G0 X16.50 Y41.50 Z2.00
G1 Z0.00 F1000.0
G1 X16.50 Y41.50
G0 Z2.00
G0 X21.00 Y41.50 Z2.00
G1 Z0.60 F1000.0
G1 X21.50 Y41.50
G0 Z2.00
G0 X22.00 Y41.50 Z2.00
G1 Z0.30 F1000.0
G1 X22.00 Y41.50
G0 Z2.00
G0 X22.50 Y41.50 Z2.00
G1 Z0.60 F1000.0
G1 X24.50 Y41.50
G0 Z2.00
G0 X25.00 Y41.50 Z2.00
G1 Z0.30 F1000.0
G1 X25.00 Y41.50
G0 Z2.00
G0 X25.50 Y41.50 Z2.00
G1 Z0.60 F1000.0
G1 X26.00 Y41.50
G0 Z2.00
G0 X26.50 Y41.50 Z2.00
G1 Z0.00 F1000.0
G1 X26.50 Y41.50
G0 Z2.00
G0 X32.00 Y41.50 Z2.00
G1 Z0.60 F1000.0
G1 X32.50 Y41.50
G0 Z2.00
G0 X33.00 Y41.50 Z2.00
G1 Z0.30 F1000.0
G1 X33.00 Y41.50
G0 Z2.00
G0 X33.50 Y41.50 Z2.00
G1 Z0.00 F1000.0
G1 X34.00 Y41.50
G0 Z2.00
G0 X34.50 Y41.50 Z2.00
G1 Z0.30 F1000.0
G1 X34.50 Y41.50
G0 Z2.00
G0 X35.00 Y41.50 Z2.00
G1 Z0.60 F1000.0
G1 X35.00 Y41.50
G0 Z2.00
G0 X35.50 Y41.50 Z2.00
G1 Z0.30 F1000.0
G1 X36.00 Y41.50
G0 Z2.00
G0 X36.50 Y41.50 Z2.00
G1 Z0.00 F1000.0
G1 X36.50 Y41.50
G0 Z2.00
G0 X39.00 Y41.50 Z2.00
G1 Z0.00 F1000.0
G1 X39.00 Y41.50
G0 Z2.00
G0 X39.50 Y41.50 Z2.00
G1 Z0.30 F1000.0
G1 X40.00 Y41.50
G0 Z2.00
G0 X40.50 Y41.50 Z2.00
G1 Z0.60 F1000.0
G1 X40.50 Y41.50
G0 Z2.00
G0 X41.00 Y41.50 Z2.00
G1 Z0.00 F1000.0
G1 X41.00 Y41.50
G0 Z2.00
G0 X12.00 Y42.00 Z2.00
G1 Z0.00 F1000.0
G1 X12.00 Y42.00
G0 Z2.00
G0 X12.50 Y42.00 Z2.00
G1 Z0.60 F1000.0
G1 X13.00 Y42.00
G0 Z2.00
G0 X13.50 Y42.00 Z2.00
G1 Z0.30 F1000.0
G1 X14.00 Y42.00
G0 Z2.00
G0 X14.50 Y42.00 Z2.00
G1 Z0.60 F1000.0
G1 X15.50 Y42.00
G0 Z2.00
G0 X16.00 Y42.00 Z2.00
G1 Z0.30 F1000.0
G1 X16.50 Y42.00
G0 Z2.00
G0 X21.00 Y42.00 Z2.00
G1 Z0.00 F1000.0
G1 X21.00 Y42.00
G0 Z2.00
G0 X21.50 Y42.00 Z2.00
G1 Z0.60 F1000.0
G1 X21.50 Y42.00
G0 Z2.00
G0 X22.00 Y42.00 Z2.00
G1 Z0.30 F1000.0
G1 X22.50 Y42.00
G0 Z2.00
G0 X23.00 Y42.00 Z2.00
G1 Z0.60 F1000.0
G1 X25.50 Y42.00
G0 Z2.00
G0 X26.00 Y42.00 Z2.00
G1 Z0.00 F1000.0
G1 X26.00 Y42.00
G0 Z2.00
G0 X32.00 Y42.00 Z2.00
G1 Z0.00 F1000.0
G1 X32.00 Y42.00
G0 Z2.00
G0 X32.50 Y42.00 Z2.00
G1 Z0.60 F1000.0
G1 X32.50 Y42.00
G0 Z2.00
G0 X33.00 Y42.00 Z2.00
G1 Z0.30 F1000.0
G1 X34.50 Y42.00
G0 Z2.00
G0 X35.00 Y42.00 Z2.00
G1 Z0.60 F1000.0
G1 X35.00 Y42.00
G0 Z2.00
G0 X35.50 Y42.00 Z2.00
G1 Z0.30 F1000.0
G1 X36.00 Y42.00
G0 Z2.00
G0 X38.00 Y42.00 Z2.00
G1 Z0.00 F1000.0
G1 X38.00 Y42.00
G0 Z2.00
G0 X38.50 Y42.00 Z2.00
G1 Z0.30 F1000.0
G1 X39.00 Y42.00
G0 Z2.00
G0 X39.50 Y42.00 Z2.00
G1 Z0.60 F1000.0
G1 X40.50 Y42.00
G0 Z2.00
G0 X41.00 Y42.00 Z2.00
G1 Z0.30 F1000.0
G1 X41.00 Y42.00
G0 Z2.00
G0 X13.00 Y42.50 Z2.00
G1 Z0.00 F1000.0
G1 X13.00 Y42.50
G0 Z2.00
G0 X13.50 Y42.50 Z2.00
G1 Z0.60 F1000.0
G1 X15.50 Y42.50
G0 Z2.00
G0 X16.00 Y42.50 Z2.00
G1 Z0.30 F1000.0
G1 X16.50 Y42.50
G0 Z2.00
G0 X21.00 Y42.50 Z2.00
G1 Z0.30 F1000.0
G1 X21.00 Y42.50
G0 Z2.00
G0 X21.50 Y42.50 Z2.00
G1 Z0.60 F1000.0
G1 X21.50 Y42.50
G0 Z2.00
G0 X22.00 Y42.50 Z2.00
G1 Z0.30 F1000.0
G1 X22.00 Y42.50
G0 Z2.00
G0 X22.50 Y42.50 Z2.00
G1 Z0.60 F1000.0
G1 X22.50 Y42.50
G0 Z2.00
G0 X23.00 Y42.50 Z2.00
G1 Z0.30 F1000.0
G1 X23.00 Y42.50
G0 Z2.00
G0 X23.50 Y42.50 Z2.00
G1 Z0.60 F1000.0
G1 X25.00 Y42.50
G0 Z2.00
G0 X25.50 Y42.50 Z2.00
G1 Z0.30 F1000.0
G1 X25.50 Y42.50
G0 Z2.00
G0 X32.00 Y42.50 Z2.00
G1 Z0.00 F1000.0
G1 X32.00 Y42.50
G0 Z2.00
G0 X32.50 Y42.50 Z2.00
G1 Z0.60 F1000.0
G1 X33.00 Y42.50
G0 Z2.00
G0 X33.50 Y42.50 Z2.00
G1 Z0.30 F1000.0
G1 X33.50 Y42.50
G0 Z2.00
G0 X34.00 Y42.50 Z2.00
G1 Z0.60 F1000.0
G1 X35.50 Y42.50
G0 Z2.00
G0 X36.00 Y42.50 Z2.00
G1 Z0.00 F1000.0
G1 X37.00 Y42.50
G0 Z2.00
G0 X37.50 Y42.50 Z2.00
G1 Z0.60 F1000.0
G1 X40.00 Y42.50
G0 Z2.00
G0 X41.00 Y42.50 Z2.00
G1 Z0.00 F1000.0
G1 X41.00 Y42.50
G0 Z2.00
G0 X13.50 Y43.00 Z2.00
G1 Z0.00 F1000.0
G1 X13.50 Y43.00
G0 Z2.00
G0 X14.00 Y43.00 Z2.00
G1 Z0.60 F1000.0
G1 X16.00 Y43.00
G0 Z2.00
G0 X16.50 Y43.00 Z2.00
G1 Z0.30 F1000.0
G1 X16.50 Y43.00
G0 Z2.00
G0 X17.00 Y43.00 Z2.00
G1 Z0.00 F1000.0
G1 X17.00 Y43.00
G0 Z2.00
G0 X21.50 Y43.00 Z2.00
G1 Z0.60 F1000.0
G1 X22.50 Y43.00
G0 Z2.00
G0 X23.00 Y43.00 Z2.00
G1 Z0.30 F1000.0
G1 X23.00 Y43.00
G0 Z2.00
G0 X23.50 Y43.00 Z2.00
G1 Z0.60 F1000.0
G1 X24.00 Y43.00
G0 Z2.00
G0 X24.50 Y43.00 Z2.00
G1 Z0.30 F1000.0
G1 X25.00 Y43.00
G0 Z2.00
G0 X25.50 Y43.00 Z2.00
G1 Z0.00 F1000.0
G1 X25.50 Y43.00
G0 Z2.00
G0 X32.00 Y43.00 Z2.00
G1 Z0.30 F1000.0
G1 X32.00 Y43.00
G0 Z2.00
G0 X32.50 Y43.00 Z2.00
G1 Z0.60 F1000.0
G1 X40.00 Y43.00
G0 Z2.00
G0 X40.50 Y43.00 Z2.00
G1 Z0.00 F1000.0
G1 X40.50 Y43.00
G0 Z2.00
G0 X14.00 Y43.50 Z2.00
G1 Z0.30 F1000.0
G1 X14.50 Y43.50
G0 Z2.00
G0 X15.00 Y43.50 Z2.00
G1 Z0.60 F1000.0
G1 X16.00 Y43.50
G0 Z2.00
G0 X16.50 Y43.50 Z2.00
G1 Z0.30 F1000.0
G1 X17.00 Y43.50
G0 Z2.00
G0 X21.50 Y43.50 Z2.00
G1 Z0.00 F1000.0
G1 X21.50 Y43.50
G0 Z2.00
G0 X22.00 Y43.50 Z2.00
G1 Z0.30 F1000.0
G1 X23.00 Y43.50
G0 Z2.00
G0 X23.50 Y43.50 Z2.00
G1 Z0.60 F1000.0
G1 X23.50 Y43.50
G0 Z2.00
G0 X24.00 Y43.50 Z2.00
G1 Z0.30 F1000.0
G1 X25.00 Y43.50
G0 Z2.00
G0 X31.50 Y43.50 Z2.00
G1 Z0.30 F1000.0
G1 X31.50 Y43.50
G0 Z2.00
G0 X32.00 Y43.50 Z2.00
G1 Z0.60 F1000.0
G1 X39.00 Y43.50
G0 Z2.00
G0 X39.50 Y43.50 Z2.00
G1 Z0.00 F1000.0
G1 X39.50 Y43.50
G0 Z2.00
G0 X40.00 Y43.50 Z2.00
G1 Z0.60 F1000.0
G1 X40.00 Y43.50
G0 Z2.00
G0 X14.50 Y44.00 Z2.00
G1 Z0.30 F1000.0
G1 X14.50 Y44.00
G0 Z2.00
G0 X15.00 Y44.00 Z2.00
G1 Z0.60 F1000.0
G1 X16.00 Y44.00
G0 Z2.00
G0 X16.50 Y44.00 Z2.00
G1 Z0.30 F1000.0
G1 X17.00 Y44.00
G0 Z2.00
G0 X21.50 Y44.00 Z2.00
G1 Z0.00 F1000.0
G1 X21.50 Y44.00
G0 Z2.00
G0 X22.00 Y44.00 Z2.00
G1 Z0.30 F1000.0
G1 X22.00 Y44.00
G0 Z2.00
G0 X22.50 Y44.00 Z2.00
G1 Z0.60 F1000.0
G1 X22.50 Y44.00
G0 Z2.00
G0 X23.00 Y44.00 Z2.00
G1 Z0.30 F1000.0
G1 X24.00 Y44.00
G0 Z2.00
G0 X24.50 Y44.00 Z2.00
G1 Z0.60 F1000.0
G1 X24.50 Y44.00
G0 Z2.00
G0 X25.00 Y44.00 Z2.00
G1 Z0.00 F1000.0
G1 X25.00 Y44.00
G0 Z2.00
G0 X31.50 Y44.00 Z2.00
G1 Z0.00 F1000.0
G1 X31.50 Y44.00
G0 Z2.00
G0 X32.00 Y44.00 Z2.00
G1 Z0.60 F1000.0
G1 X36.00 Y44.00
G0 Z2.00
G0 X36.50 Y44.00 Z2.00
G1 Z0.30 F1000.0
G1 X36.50 Y44.00
G0 Z2.00
G0 X37.00 Y44.00 Z2.00
G1 Z0.00 F1000.0
G1 X38.00 Y44.00
G0 Z2.00
G0 X38.50 Y44.00 Z2.00
G1 Z0.60 F1000.0
G1 X38.50 Y44.00
G0 Z2.00
G0 X15.00 Y44.50 Z2.00
G1 Z0.00 F1000.0
G1 X15.00 Y44.50
G0 Z2.00
G0 X15.50 Y44.50 Z2.00
G1 Z0.60 F1000.0
G1 X17.00 Y44.50
G0 Z2.00
G0 X17.50 Y44.50 Z2.00
G1 Z0.00 F1000.0
G1 X17.50 Y44.50
G0 Z2.00
G0 X22.00 Y44.50 Z2.00
G1 Z0.30 F1000.0
G1 X25.00 Y44.50
G0 Z2.00
G0 X31.50 Y44.50 Z2.00
G1 Z0.60 F1000.0
G1 X35.00 Y44.50
G0 Z2.00
G0 X35.50 Y44.50 Z2.00
G1 Z0.00 F1000.0
G1 X35.50 Y44.50
G0 Z2.00
G0 X15.50 Y45.00 Z2.00
G1 Z0.30 F1000.0
G1 X15.50 Y45.00
G0 Z2.00
G0 X16.00 Y45.00 Z2.00
G1 Z0.60 F1000.0
G1 X17.00 Y45.00
G0 Z2.00
G0 X17.50 Y45.00 Z2.00
G1 Z0.00 F1000.0
G1 X17.50 Y45.00
G0 Z2.00
G0 X22.00 Y45.00 Z2.00
G1 Z0.30 F1000.0
G1 X24.50 Y45.00
G0 Z2.00
G0 X25.00 Y45.00 Z2.00
G1 Z0.60 F1000.0
G1 X25.00 Y45.00
G0 Z2.00
G0 X31.00 Y45.00 Z2.00
G1 Z0.00 F1000.0
G1 X31.00 Y45.00
G0 Z2.00
G0 X31.50 Y45.00 Z2.00
G1 Z0.60 F1000.0
G1 X34.00 Y45.00
G0 Z2.00
G0 X34.50 Y45.00 Z2.00
G1 Z0.00 F1000.0
G1 X34.50 Y45.00
G0 Z2.00
G0 X15.50 Y45.50 Z2.00
G1 Z0.00 F1000.0
G1 X15.50 Y45.50
G0 Z2.00
G0 X16.00 Y45.50 Z2.00
G1 Z0.30 F1000.0
G1 X16.00 Y45.50
G0 Z2.00
G0 X16.50 Y45.50 Z2.00
G1 Z0.60 F1000.0
G1 X17.50 Y45.50
G0 Z2.00
G0 X22.00 Y45.50 Z2.00
G1 Z0.00 F1000.0
G1 X22.00 Y45.50
G0 Z2.00
G0 X22.50 Y45.50 Z2.00
G1 Z0.30 F1000.0
G1 X23.50 Y45.50
G0 Z2.00
G0 X24.00 Y45.50 Z2.00
G1 Z0.60 F1000.0
G1 X24.00 Y45.50
G0 Z2.00
G0 X24.50 Y45.50 Z2.00
G1 Z0.30 F1000.0
G1 X24.50 Y45.50
G0 Z2.00
G0 X25.00 Y45.50 Z2.00
G1 Z0.00 F1000.0
G1 X25.00 Y45.50
G0 Z2.00
G0 X30.50 Y45.50 Z2.00
G1 Z0.00 F1000.0
G1 X30.50 Y45.50
G0 Z2.00
G0 X31.00 Y45.50 Z2.00
G1 Z0.60 F1000.0
G1 X33.50 Y45.50
G0 Z2.00
G0 X34.00 Y45.50 Z2.00
G1 Z0.30 F1000.0
G1 X34.00 Y45.50
G0 Z2.00
G0 X15.50 Y46.00 Z2.00
G1 Z0.30 F1000.0
G1 X16.50 Y46.00
G0 Z2.00
G0 X17.00 Y46.00 Z2.00
G1 Z0.60 F1000.0
G1 X17.50 Y46.00
G0 Z2.00
G0 X18.00 Y46.00 Z2.00
G1 Z0.00 F1000.0
G1 X18.00 Y46.00
G0 Z2.00
G0 X22.00 Y46.00 Z2.00
G1 Z0.60 F1000.0
G1 X22.00 Y46.00
G0 Z2.00
G0 X22.50 Y46.00 Z2.00
G1 Z0.30 F1000.0
G1 X24.50 Y46.00
G0 Z2.00
G0 X25.00 Y46.00 Z2.00
G1 Z0.00 F1000.0
G1 X25.00 Y46.00
G0 Z2.00
G0 X30.50 Y46.00 Z2.00
G1 Z0.60 F1000.0
G1 X32.50 Y46.00
G0 Z2.00
G0 X33.00 Y46.00 Z2.00
G1 Z0.30 F1000.0
G1 X33.00 Y46.00
G0 Z2.00
G0 X33.50 Y46.00 Z2.00
G1 Z0.00 F1000.0
G1 X33.50 Y46.00
G0 Z2.00
G0 X16.00 Y46.50 Z2.00
G1 Z0.00 F1000.0
G1 X16.00 Y46.50
G0 Z2.00
G0 X16.50 Y46.50 Z2.00
G1 Z0.30 F1000.0
G1 X16.50 Y46.50
G0 Z2.00
G0 X17.00 Y46.50 Z2.00
G1 Z0.60 F1000.0
G1 X17.00 Y46.50
G0 Z2.00
G0 X18.00 Y46.50 Z2.00
G1 Z0.60 F1000.0
G1 X18.00 Y46.50
G0 Z2.00
G0 X22.50 Y46.50 Z2.00
G1 Z0.30 F1000.0
G1 X24.50 Y46.50
G0 Z2.00
G0 X25.00 Y46.50 Z2.00
G1 Z0.00 F1000.0
G1 X25.00 Y46.50
G0 Z2.00
G0 X30.00 Y46.50 Z2.00
G1 Z0.00 F1000.0
G1 X30.00 Y46.50
G0 Z2.00
G0 X30.50 Y46.50 Z2.00
G1 Z0.60 F1000.0
G1 X32.00 Y46.50
G0 Z2.00
G0 X32.50 Y46.50 Z2.00
G1 Z0.30 F1000.0
G1 X32.50 Y46.50
G0 Z2.00
G0 X33.00 Y46.50 Z2.00
G1 Z0.00 F1000.0
G1 X33.00 Y46.50
G0 Z2.00
G0 X33.50 Y46.50 Z2.00
G1 Z0.60 F1000.0
G1 X33.50 Y46.50
G0 Z2.00
G0 X16.50 Y47.00 Z2.00
G1 Z0.30 F1000.0
G1 X17.00 Y47.00
G0 Z2.00
G0 X17.50 Y47.00 Z2.00
G1 Z0.60 F1000.0
G1 X18.00 Y47.00
G0 Z2.00
G0 X18.50 Y47.00 Z2.00
G1 Z0.00 F1000.0
G1 X18.50 Y47.00
G0 Z2.00
G0 X22.50 Y47.00 Z2.00
G1 Z0.00 F1000.0
G1 X22.50 Y47.00
G0 Z2.00
G0 X23.00 Y47.00 Z2.00
G1 Z0.30 F1000.0
G1 X25.00 Y47.00
G0 Z2.00
G0 X29.50 Y47.00 Z2.00
G1 Z0.00 F1000.0
G1 X29.50 Y47.00
G0 Z2.00
G0 X30.00 Y47.00 Z2.00
G1 Z0.60 F1000.0
G1 X31.50 Y47.00
G0 Z2.00
G0 X32.00 Y47.00 Z2.00
G1 Z0.30 F1000.0
G1 X32.00 Y47.00
G0 Z2.00
G0 X32.50 Y47.00 Z2.00
G1 Z0.00 F1000.0
G1 X32.50 Y47.00
G0 Z2.00
G0 X16.50 Y47.50 Z2.00
G1 Z0.00 F1000.0
G1 X16.50 Y47.50
G0 Z2.00
G0 X17.00 Y47.50 Z2.00
G1 Z0.30 F1000.0
G1 X17.00 Y47.50
G0 Z2.00
G0 X17.50 Y47.50 Z2.00
G1 Z0.60 F1000.0
G1 X18.50 Y47.50
G0 Z2.00
G0 X19.00 Y47.50 Z2.00
G1 Z0.30 F1000.0
G1 X19.00 Y47.50
G0 Z2.00
G0 X22.50 Y47.50 Z2.00
G1 Z0.00 F1000.0
G1 X22.50 Y47.50
G0 Z2.00
G0 X23.00 Y47.50 Z2.00
G1 Z0.30 F1000.0
G1 X25.00 Y47.50
G0 Z2.00
G0 X29.00 Y47.50 Z2.00
G1 Z0.30 F1000.0
G1 X29.00 Y47.50
G0 Z2.00
G0 X29.50 Y47.50 Z2.00
G1 Z0.60 F1000.0
G1 X31.00 Y47.50
G0 Z2.00
G0 X31.50 Y47.50 Z2.00
G1 Z0.30 F1000.0
G1 X31.50 Y47.50
G0 Z2.00
G0 X32.00 Y47.50 Z2.00
G1 Z0.00 F1000.0
G1 X32.00 Y47.50
G0 Z2.00
G0 X17.00 Y48.00 Z2.00
G1 Z0.30 F1000.0
G1 X17.50 Y48.00
G0 Z2.00
G0 X18.00 Y48.00 Z2.00
G1 Z0.60 F1000.0
G1 X18.50 Y48.00
G0 Z2.00
G0 X19.00 Y48.00 Z2.00
G1 Z0.00 F1000.0
G1 X19.00 Y48.00
G0 Z2.00
G0 X23.00 Y48.00 Z2.00
G1 Z0.30 F1000.0
G1 X24.50 Y48.00
G0 Z2.00
G0 X25.00 Y48.00 Z2.00
G1 Z0.60 F1000.0
G1 X25.00 Y48.00
G0 Z2.00
G0 X25.50 Y48.00 Z2.00
G1 Z0.00 F1000.0
G1 X25.50 Y48.00
G0 Z2.00
G0 X29.00 Y48.00 Z2.00
G1 Z0.30 F1000.0
G1 X29.00 Y48.00
G0 Z2.00
G0 X29.50 Y48.00 Z2.00
G1 Z0.60 F1000.0
G1 X30.50 Y48.00
G0 Z2.00
G0 X31.00 Y48.00 Z2.00
G1 Z0.30 F1000.0
G1 X31.50 Y48.00
G0 Z2.00
G0 X17.00 Y48.50 Z2.00
G1 Z0.00 F1000.0
G1 X17.00 Y48.50
G0 Z2.00
G0 X17.50 Y48.50 Z2.00
G1 Z0.30 F1000.0
G1 X17.50 Y48.50
G0 Z2.00
G0 X18.00 Y48.50 Z2.00
G1 Z0.60 F1000.0
G1 X19.00 Y48.50
G0 Z2.00
G0 X19.50 Y48.50 Z2.00
G1 Z0.00 F1000.0
G1 X19.50 Y48.50
G0 Z2.00
G0 X23.00 Y48.50 Z2.00
G1 Z0.00 F1000.0
G1 X23.00 Y48.50
G0 Z2.00
G0 X23.50 Y48.50 Z2.00
G1 Z0.30 F1000.0
G1 X24.50 Y48.50
G0 Z2.00
G0 X25.00 Y48.50 Z2.00
G1 Z0.60 F1000.0
G1 X25.00 Y48.50
G0 Z2.00
G0 X25.50 Y48.50 Z2.00
G1 Z0.30 F1000.0
G1 X25.50 Y48.50
G0 Z2.00
G0 X28.50 Y48.50 Z2.00
G1 Z0.00 F1000.0
G1 X28.50 Y48.50
G0 Z2.00
G0 X29.00 Y48.50 Z2.00
G1 Z0.60 F1000.0
G1 X30.00 Y48.50
G0 Z2.00
G0 X30.50 Y48.50 Z2.00
G1 Z0.30 F1000.0
G1 X31.00 Y48.50
G0 Z2.00
G0 X31.50 Y48.50 Z2.00
G1 Z0.00 F1000.0
G1 X31.50 Y48.50
G0 Z2.00
G0 X17.50 Y49.00 Z2.00
G1 Z0.30 F1000.0
G1 X18.00 Y49.00
G0 Z2.00
G0 X18.50 Y49.00 Z2.00
G1 Z0.60 F1000.0
G1 X20.00 Y49.00
G0 Z2.00
G0 X23.00 Y49.00 Z2.00
G1 Z0.00 F1000.0
G1 X23.00 Y49.00
G0 Z2.00
G0 X23.50 Y49.00 Z2.00
G1 Z0.30 F1000.0
G1 X25.00 Y49.00
G0 Z2.00
G0 X25.50 Y49.00 Z2.00
G1 Z0.60 F1000.0
G1 X25.50 Y49.00
G0 Z2.00
G0 X28.00 Y49.00 Z2.00
G1 Z0.00 F1000.0
G1 X28.00 Y49.00
G0 Z2.00
G0 X28.50 Y49.00 Z2.00
G1 Z0.60 F1000.0
G1 X30.00 Y49.00
G0 Z2.00
G0 X30.50 Y49.00 Z2.00
G1 Z0.30 F1000.0
G1 X30.50 Y49.00
G0 Z2.00
G0 X31.00 Y49.00 Z2.00
G1 Z0.00 F1000.0
G1 X31.00 Y49.00
G0 Z2.00
G0 X17.50 Y49.50 Z2.00
G1 Z0.00 F1000.0
G1 X17.50 Y49.50
G0 Z2.00
G0 X18.50 Y49.50 Z2.00
G1 Z0.30 F1000.0
G1 X18.50 Y49.50
G0 Z2.00
G0 X19.00 Y49.50 Z2.00
G1 Z0.60 F1000.0
G1 X19.00 Y49.50
G0 Z2.00
G0 X19.50 Y49.50 Z2.00
G1 Z0.30 F1000.0
G1 X19.50 Y49.50
G0 Z2.00
G0 X20.00 Y49.50 Z2.00
G1 Z0.00 F1000.0
G1 X20.00 Y49.50
G0 Z2.00
G0 X23.00 Y49.50 Z2.00
G1 Z0.00 F1000.0
G1 X23.00 Y49.50
G0 Z2.00
G0 X23.50 Y49.50 Z2.00
G1 Z0.60 F1000.0
G1 X23.50 Y49.50
G0 Z2.00
G0 X24.00 Y49.50 Z2.00
G1 Z0.30 F1000.0
G1 X25.00 Y49.50
G0 Z2.00
G0 X25.50 Y49.50 Z2.00
G1 Z0.60 F1000.0
G1 X26.00 Y49.50
G0 Z2.00
G0 X28.00 Y49.50 Z2.00
G1 Z0.60 F1000.0
G1 X29.50 Y49.50
G0 Z2.00
G0 X30.00 Y49.50 Z2.00
G1 Z0.30 F1000.0
G1 X30.50 Y49.50
G0 Z2.00
G0 Z2.000
G0 X0.00 Y0.00
M2
