; Generated from grey.mem
; Image size: 50 x 50 pixels
G21
G90
G0 Z2.000
G0 X0.00 Y0.00 Z2.00
G1 Z0.00 F1000.0
G1 X13.00 Y0.00
G0 Z2.00
G0 X13.00 Y0.00 Z2.00
G1 Z0.30 F1000.0
G1 X26.00 Y0.00
G0 Z2.00
G0 X26.00 Y0.00 Z2.00
G1 Z0.60 F1000.0
G1 X40.00 Y0.00
G0 Z2.00
G0 X0.00 Y1.00 Z2.00
G1 Z0.00 F1000.0
G1 X13.00 Y1.00
G0 Z2.00
G0 X13.00 Y1.00 Z2.00
G1 Z0.30 F1000.0
G1 X26.00 Y1.00
G0 Z2.00
G0 X26.00 Y1.00 Z2.00
G1 Z0.60 F1000.0
G1 X40.00 Y1.00
G0 Z2.00
G0 X0.00 Y2.00 Z2.00
G1 Z0.00 F1000.0
G1 X13.00 Y2.00
G0 Z2.00
G0 X13.00 Y2.00 Z2.00
G1 Z0.30 F1000.0
G1 X26.00 Y2.00
G0 Z2.00
G0 X26.00 Y2.00 Z2.00
G1 Z0.60 F1000.0
G1 X40.00 Y2.00
G0 Z2.00
G0 X0.00 Y3.00 Z2.00
G1 Z0.00 F1000.0
G1 X13.00 Y3.00
G0 Z2.00
G0 X13.00 Y3.00 Z2.00
G1 Z0.30 F1000.0
G1 X26.00 Y3.00
G0 Z2.00
G0 X26.00 Y3.00 Z2.00
G1 Z0.60 F1000.0
G1 X40.00 Y3.00
G0 Z2.00
G0 X0.00 Y4.00 Z2.00
G1 Z0.00 F1000.0
G1 X13.00 Y4.00
G0 Z2.00
G0 X13.00 Y4.00 Z2.00
G1 Z0.30 F1000.0
G1 X26.00 Y4.00
G0 Z2.00
G0 X26.00 Y4.00 Z2.00
G1 Z0.60 F1000.0
G1 X40.00 Y4.00
G0 Z2.00
G0 X0.00 Y5.00 Z2.00
G1 Z0.00 F1000.0
G1 X13.00 Y5.00
G0 Z2.00
G0 X13.00 Y5.00 Z2.00
G1 Z0.30 F1000.0
G1 X26.00 Y5.00
G0 Z2.00
G0 X26.00 Y5.00 Z2.00
G1 Z0.60 F1000.0
G1 X40.00 Y5.00
G0 Z2.00
G0 X0.00 Y6.00 Z2.00
G1 Z0.00 F1000.0
G1 X13.00 Y6.00
G0 Z2.00
G0 X13.00 Y6.00 Z2.00
G1 Z0.30 F1000.0
G1 X26.00 Y6.00
G0 Z2.00
G0 X26.00 Y6.00 Z2.00
G1 Z0.60 F1000.0
G1 X40.00 Y6.00
G0 Z2.00
G0 X0.00 Y7.00 Z2.00
G1 Z0.00 F1000.0
G1 X13.00 Y7.00
G0 Z2.00
G0 X13.00 Y7.00 Z2.00
G1 Z0.30 F1000.0
G1 X26.00 Y7.00
G0 Z2.00
G0 X26.00 Y7.00 Z2.00
G1 Z0.60 F1000.0
G1 X40.00 Y7.00
G0 Z2.00
G0 X0.00 Y8.00 Z2.00
G1 Z0.00 F1000.0
G1 X13.00 Y8.00
G0 Z2.00
G0 X13.00 Y8.00 Z2.00
G1 Z0.30 F1000.0
G1 X26.00 Y8.00
G0 Z2.00
G0 X26.00 Y8.00 Z2.00
G1 Z0.60 F1000.0
G1 X40.00 Y8.00
G0 Z2.00
G0 X0.00 Y9.00 Z2.00
G1 Z0.00 F1000.0
G1 X13.00 Y9.00
G0 Z2.00
G0 X13.00 Y9.00 Z2.00
G1 Z0.30 F1000.0
G1 X26.00 Y9.00
G0 Z2.00
G0 X26.00 Y9.00 Z2.00
G1 Z0.60 F1000.0
G1 X40.00 Y9.00
G0 Z2.00
G0 X0.00 Y10.00 Z2.00
G1 Z0.00 F1000.0
G1 X13.00 Y10.00
G0 Z2.00
G0 X13.00 Y10.00 Z2.00
G1 Z0.30 F1000.0
G1 X26.00 Y10.00
G0 Z2.00
G0 X26.00 Y10.00 Z2.00
G1 Z0.60 F1000.0
G1 X40.00 Y10.00
G0 Z2.00
G0 X0.00 Y11.00 Z2.00
G1 Z0.00 F1000.0
G1 X13.00 Y11.00
G0 Z2.00
G0 X13.00 Y11.00 Z2.00
G1 Z0.30 F1000.0
G1 X26.00 Y11.00
G0 Z2.00
G0 X26.00 Y11.00 Z2.00
G1 Z0.60 F1000.0
G1 X40.00 Y11.00
G0 Z2.00
G0 X0.00 Y12.00 Z2.00
G1 Z0.00 F1000.0
G1 X13.00 Y12.00
G0 Z2.00
G0 X13.00 Y12.00 Z2.00
G1 Z0.30 F1000.0
G1 X26.00 Y12.00
G0 Z2.00
G0 X26.00 Y12.00 Z2.00
G1 Z0.60 F1000.0
G1 X40.00 Y12.00
G0 Z2.00
G0 X0.00 Y13.00 Z2.00
G1 Z0.00 F1000.0
G1 X13.00 Y13.00
G0 Z2.00
G0 X13.00 Y13.00 Z2.00
G1 Z0.30 F1000.0
G1 X26.00 Y13.00
G0 Z2.00
G0 X26.00 Y13.00 Z2.00
G1 Z0.60 F1000.0
G1 X40.00 Y13.00
G0 Z2.00
G0 X0.00 Y14.00 Z2.00
G1 Z0.00 F1000.0
G1 X13.00 Y14.00
G0 Z2.00
G0 X13.00 Y14.00 Z2.00
G1 Z0.30 F1000.0
G1 X26.00 Y14.00
G0 Z2.00
G0 X26.00 Y14.00 Z2.00
G1 Z0.60 F1000.0
G1 X40.00 Y14.00
G0 Z2.00
G0 X0.00 Y15.00 Z2.00
G1 Z0.00 F1000.0
G1 X13.00 Y15.00
G0 Z2.00
G0 X13.00 Y15.00 Z2.00
G1 Z0.30 F1000.0
G1 X26.00 Y15.00
G0 Z2.00
G0 X26.00 Y15.00 Z2.00
G1 Z0.60 F1000.0
G1 X40.00 Y15.00
G0 Z2.00
G0 X0.00 Y16.00 Z2.00
G1 Z0.00 F1000.0
G1 X13.00 Y16.00
G0 Z2.00
G0 X13.00 Y16.00 Z2.00
G1 Z0.30 F1000.0
G1 X26.00 Y16.00
G0 Z2.00
G0 X26.00 Y16.00 Z2.00
G1 Z0.60 F1000.0
G1 X40.00 Y16.00
G0 Z2.00
G0 X0.00 Y17.00 Z2.00
G1 Z0.00 F1000.0
G1 X13.00 Y17.00
G0 Z2.00
G0 X13.00 Y17.00 Z2.00
G1 Z0.30 F1000.0
G1 X26.00 Y17.00
G0 Z2.00
G0 X26.00 Y17.00 Z2.00
G1 Z0.60 F1000.0
G1 X40.00 Y17.00
G0 Z2.00
G0 X0.00 Y18.00 Z2.00
G1 Z0.00 F1000.0
G1 X13.00 Y18.00
G0 Z2.00
G0 X13.00 Y18.00 Z2.00
G1 Z0.30 F1000.0
G1 X26.00 Y18.00
G0 Z2.00
G0 X26.00 Y18.00 Z2.00
G1 Z0.60 F1000.0
G1 X40.00 Y18.00
G0 Z2.00
G0 X0.00 Y19.00 Z2.00
G1 Z0.00 F1000.0
G1 X13.00 Y19.00
G0 Z2.00
G0 X13.00 Y19.00 Z2.00
G1 Z0.30 F1000.0
G1 X26.00 Y19.00
G0 Z2.00
G0 X26.00 Y19.00 Z2.00
G1 Z0.60 F1000.0
G1 X40.00 Y19.00
G0 Z2.00
G0 X0.00 Y20.00 Z2.00
G1 Z0.00 F1000.0
G1 X13.00 Y20.00
G0 Z2.00
G0 X13.00 Y20.00 Z2.00
G1 Z0.30 F1000.0
G1 X26.00 Y20.00
G0 Z2.00
G0 X26.00 Y20.00 Z2.00
G1 Z0.60 F1000.0
G1 X40.00 Y20.00
G0 Z2.00
G0 X0.00 Y21.00 Z2.00
G1 Z0.00 F1000.0
G1 X13.00 Y21.00
G0 Z2.00
G0 X13.00 Y21.00 Z2.00
G1 Z0.30 F1000.0
G1 X26.00 Y21.00
G0 Z2.00
G0 X26.00 Y21.00 Z2.00
G1 Z0.60 F1000.0
G1 X40.00 Y21.00
G0 Z2.00
G0 X0.00 Y22.00 Z2.00
G1 Z0.00 F1000.0
G1 X13.00 Y22.00
G0 Z2.00
G0 X13.00 Y22.00 Z2.00
G1 Z0.30 F1000.0
G1 X26.00 Y22.00
G0 Z2.00
G0 X26.00 Y22.00 Z2.00
G1 Z0.60 F1000.0
G1 X40.00 Y22.00
G0 Z2.00
G0 X0.00 Y23.00 Z2.00
G1 Z0.00 F1000.0
G1 X13.00 Y23.00
G0 Z2.00
G0 X13.00 Y23.00 Z2.00
G1 Z0.30 F1000.0
G1 X26.00 Y23.00
G0 Z2.00
G0 X26.00 Y23.00 Z2.00
G1 Z0.60 F1000.0
G1 X40.00 Y23.00
G0 Z2.00
G0 X0.00 Y24.00 Z2.00
G1 Z0.00 F1000.0
G1 X13.00 Y24.00
G0 Z2.00
G0 X13.00 Y24.00 Z2.00
G1 Z0.30 F1000.0
G1 X26.00 Y24.00
G0 Z2.00
G0 X26.00 Y24.00 Z2.00
G1 Z0.60 F1000.0
G1 X40.00 Y24.00
G0 Z2.00
G0 X0.00 Y25.00 Z2.00
G1 Z0.00 F1000.0
G1 X13.00 Y25.00
G0 Z2.00
G0 X13.00 Y25.00 Z2.00
G1 Z0.30 F1000.0
G1 X26.00 Y25.00
G0 Z2.00
G0 X26.00 Y25.00 Z2.00
G1 Z0.60 F1000.0
G1 X40.00 Y25.00
G0 Z2.00
G0 X0.00 Y26.00 Z2.00
G1 Z0.00 F1000.0
G1 X13.00 Y26.00
G0 Z2.00
G0 X13.00 Y26.00 Z2.00
G1 Z0.30 F1000.0
G1 X26.00 Y26.00
G0 Z2.00
G0 X26.00 Y26.00 Z2.00
G1 Z0.60 F1000.0
G1 X40.00 Y26.00
G0 Z2.00
G0 X0.00 Y27.00 Z2.00
G1 Z0.00 F1000.0
G1 X13.00 Y27.00
G0 Z2.00
G0 X13.00 Y27.00 Z2.00
G1 Z0.30 F1000.0
G1 X26.00 Y27.00
G0 Z2.00
G0 X26.00 Y27.00 Z2.00
G1 Z0.60 F1000.0
G1 X40.00 Y27.00
G0 Z2.00
G0 X0.00 Y28.00 Z2.00
G1 Z0.00 F1000.0
G1 X13.00 Y28.00
G0 Z2.00
G0 X13.00 Y28.00 Z2.00
G1 Z0.30 F1000.0
G1 X26.00 Y28.00
G0 Z2.00
G0 X26.00 Y28.00 Z2.00
G1 Z0.60 F1000.0
G1 X40.00 Y28.00
G0 Z2.00
G0 X0.00 Y29.00 Z2.00
G1 Z0.00 F1000.0
G1 X13.00 Y29.00
G0 Z2.00
G0 X13.00 Y29.00 Z2.00
G1 Z0.30 F1000.0
G1 X26.00 Y29.00
G0 Z2.00
G0 X26.00 Y29.00 Z2.00
G1 Z0.60 F1000.0
G1 X40.00 Y29.00
G0 Z2.00
G0 X0.00 Y30.00 Z2.00
G1 Z0.00 F1000.0
G1 X13.00 Y30.00
G0 Z2.00
G0 X13.00 Y30.00 Z2.00
G1 Z0.30 F1000.0
G1 X26.00 Y30.00
G0 Z2.00
G0 X26.00 Y30.00 Z2.00
G1 Z0.60 F1000.0
G1 X40.00 Y30.00
G0 Z2.00
G0 X0.00 Y31.00 Z2.00
G1 Z0.00 F1000.0
G1 X13.00 Y31.00
G0 Z2.00
G0 X13.00 Y31.00 Z2.00
G1 Z0.30 F1000.0
G1 X26.00 Y31.00
G0 Z2.00
G0 X26.00 Y31.00 Z2.00
G1 Z0.60 F1000.0
G1 X40.00 Y31.00
G0 Z2.00
G0 X0.00 Y32.00 Z2.00
G1 Z0.00 F1000.0
G1 X13.00 Y32.00
G0 Z2.00
G0 X13.00 Y32.00 Z2.00
G1 Z0.30 F1000.0
G1 X26.00 Y32.00
G0 Z2.00
G0 X26.00 Y32.00 Z2.00
G1 Z0.60 F1000.0
G1 X40.00 Y32.00
G0 Z2.00
G0 X0.00 Y33.00 Z2.00
G1 Z0.00 F1000.0
G1 X13.00 Y33.00
G0 Z2.00
G0 X13.00 Y33.00 Z2.00
G1 Z0.30 F1000.0
G1 X26.00 Y33.00
G0 Z2.00
G0 X26.00 Y33.00 Z2.00
G1 Z0.60 F1000.0
G1 X40.00 Y33.00
G0 Z2.00
G0 X0.00 Y34.00 Z2.00
G1 Z0.00 F1000.0
G1 X13.00 Y34.00
G0 Z2.00
G0 X13.00 Y34.00 Z2.00
G1 Z0.30 F1000.0
G1 X26.00 Y34.00
G0 Z2.00
G0 X26.00 Y34.00 Z2.00
G1 Z0.60 F1000.0
G1 X40.00 Y34.00
G0 Z2.00
G0 X0.00 Y35.00 Z2.00
G1 Z0.00 F1000.0
G1 X13.00 Y35.00
G0 Z2.00
G0 X13.00 Y35.00 Z2.00
G1 Z0.30 F1000.0
G1 X26.00 Y35.00
G0 Z2.00
G0 X26.00 Y35.00 Z2.00
G1 Z0.60 F1000.0
G1 X40.00 Y35.00
G0 Z2.00
G0 X0.00 Y36.00 Z2.00
G1 Z0.00 F1000.0
G1 X13.00 Y36.00
G0 Z2.00
G0 X13.00 Y36.00 Z2.00
G1 Z0.30 F1000.0
G1 X26.00 Y36.00
G0 Z2.00
G0 X26.00 Y36.00 Z2.00
G1 Z0.60 F1000.0
G1 X40.00 Y36.00
G0 Z2.00
G0 X0.00 Y37.00 Z2.00
G1 Z0.00 F1000.0
G1 X13.00 Y37.00
G0 Z2.00
G0 X13.00 Y37.00 Z2.00
G1 Z0.30 F1000.0
G1 X26.00 Y37.00
G0 Z2.00
G0 X26.00 Y37.00 Z2.00
G1 Z0.60 F1000.0
G1 X40.00 Y37.00
G0 Z2.00
G0 X0.00 Y38.00 Z2.00
G1 Z0.00 F1000.0
G1 X13.00 Y38.00
G0 Z2.00
G0 X13.00 Y38.00 Z2.00
G1 Z0.30 F1000.0
G1 X26.00 Y38.00
G0 Z2.00
G0 X26.00 Y38.00 Z2.00
G1 Z0.60 F1000.0
G1 X40.00 Y38.00
G0 Z2.00
G0 X0.00 Y39.00 Z2.00
G1 Z0.00 F1000.0
G1 X13.00 Y39.00
G0 Z2.00
G0 X13.00 Y39.00 Z2.00
G1 Z0.30 F1000.0
G1 X26.00 Y39.00
G0 Z2.00
G0 X26.00 Y39.00 Z2.00
G1 Z0.60 F1000.0
G1 X40.00 Y39.00
G0 Z2.00
G0 X0.00 Y40.00 Z2.00
G1 Z0.00 F1000.0
G1 X13.00 Y40.00
G0 Z2.00
G0 X13.00 Y40.00 Z2.00
G1 Z0.30 F1000.0
G1 X26.00 Y40.00
G0 Z2.00
G0 X26.00 Y40.00 Z2.00
G1 Z0.60 F1000.0
G1 X40.00 Y40.00
G0 Z2.00
G0 X0.00 Y41.00 Z2.00
G1 Z0.00 F1000.0
G1 X13.00 Y41.00
G0 Z2.00
G0 X13.00 Y41.00 Z2.00
G1 Z0.30 F1000.0
G1 X26.00 Y41.00
G0 Z2.00
G0 X26.00 Y41.00 Z2.00
G1 Z0.60 F1000.0
G1 X40.00 Y41.00
G0 Z2.00
G0 X0.00 Y42.00 Z2.00
G1 Z0.00 F1000.0
G1 X13.00 Y42.00
G0 Z2.00
G0 X13.00 Y42.00 Z2.00
G1 Z0.30 F1000.0
G1 X26.00 Y42.00
G0 Z2.00
G0 X26.00 Y42.00 Z2.00
G1 Z0.60 F1000.0
G1 X40.00 Y42.00
G0 Z2.00
G0 X0.00 Y43.00 Z2.00
G1 Z0.00 F1000.0
G1 X13.00 Y43.00
G0 Z2.00
G0 X13.00 Y43.00 Z2.00
G1 Z0.30 F1000.0
G1 X26.00 Y43.00
G0 Z2.00
G0 X26.00 Y43.00 Z2.00
G1 Z0.60 F1000.0
G1 X40.00 Y43.00
G0 Z2.00
G0 X0.00 Y44.00 Z2.00
G1 Z0.00 F1000.0
G1 X13.00 Y44.00
G0 Z2.00
G0 X13.00 Y44.00 Z2.00
G1 Z0.30 F1000.0
G1 X26.00 Y44.00
G0 Z2.00
G0 X26.00 Y44.00 Z2.00
G1 Z0.60 F1000.0
G1 X40.00 Y44.00
G0 Z2.00
G0 X0.00 Y45.00 Z2.00
G1 Z0.00 F1000.0
G1 X13.00 Y45.00
G0 Z2.00
G0 X13.00 Y45.00 Z2.00
G1 Z0.30 F1000.0
G1 X26.00 Y45.00
G0 Z2.00
G0 X26.00 Y45.00 Z2.00
G1 Z0.60 F1000.0
G1 X40.00 Y45.00
G0 Z2.00
G0 X0.00 Y46.00 Z2.00
G1 Z0.00 F1000.0
G1 X13.00 Y46.00
G0 Z2.00
G0 X13.00 Y46.00 Z2.00
G1 Z0.30 F1000.0
G1 X26.00 Y46.00
G0 Z2.00
G0 X26.00 Y46.00 Z2.00
G1 Z0.60 F1000.0
G1 X40.00 Y46.00
G0 Z2.00
G0 X0.00 Y47.00 Z2.00
G1 Z0.00 F1000.0
G1 X13.00 Y47.00
G0 Z2.00
G0 X13.00 Y47.00 Z2.00
G1 Z0.30 F1000.0
G1 X26.00 Y47.00
G0 Z2.00
G0 X26.00 Y47.00 Z2.00
G1 Z0.60 F1000.0
G1 X40.00 Y47.00
G0 Z2.00
G0 X0.00 Y48.00 Z2.00
G1 Z0.00 F1000.0
G1 X13.00 Y48.00
G0 Z2.00
G0 X13.00 Y48.00 Z2.00
G1 Z0.30 F1000.0
G1 X26.00 Y48.00
G0 Z2.00
G0 X26.00 Y48.00 Z2.00
G1 Z0.60 F1000.0
G1 X40.00 Y48.00
G0 Z2.00
G0 X0.00 Y49.00 Z2.00
G1 Z0.00 F1000.0
G1 X13.00 Y49.00
G0 Z2.00
G0 X13.00 Y49.00 Z2.00
G1 Z0.30 F1000.0
G1 X26.00 Y49.00
G0 Z2.00
G0 X26.00 Y49.00 Z2.00
G1 Z0.60 F1000.0
G1 X40.00 Y49.00
G0 Z2.00
G0 Z2.000
G0 X0.00 Y0.00
M2
